; generated by PrusaSlicer 2.9.0 on 2026-04-08 at 20:41:36 UTC

; 

; external perimeters extrusion width = 0.45mm
; perimeters extrusion width = 0.45mm
; infill extrusion width = 0.45mm
; solid infill extrusion width = 0.45mm
; top infill extrusion width = 0.40mm
; first layer extrusion width = 0.40mm

M190 S80 ; set bed temperature and wait for it to be reached
M104 S235 ; set temperature
;TYPE:Custom
G28 ; home all axes
G1 Z5 F5000 ; lift nozzle
M109 S235 ; set temperature and wait for it to be reached
G21 ; set units to millimeters
G90 ; use absolute coordinates
M82 ; use absolute distances for extrusion
G92 E0
; Filament gcode
M107
;LAYER_CHANGE
;Z:0.2
;HEIGHT:0.2
G1 E-5 F2400
G1 Z.2 F6000
G1 X85.385 Y93.079
G1 E.00001 F2400
;TYPE:Skirt/Brim
;WIDTH:0.4
G1 F2520
G1 X87.5 Y92.393 E.06602
G1 X167.5 Y92.393 E2.44132
G1 X169.14 Y92.788 E2.49141
G1 X170.421 Y93.885 E2.54149
G1 X171.107 Y96 E2.60751
G1 X171.107 Y114 E3.14195
G1 X170.712 Y115.64 E3.19204
G1 X169.615 Y116.921 E3.24212
G1 X167.5 Y117.607 E3.30814
G1 X87.5 Y117.607 E5.68344
G1 X85.86 Y117.212 E5.73353
G1 X84.579 Y116.115 E5.78361
G1 X83.893 Y114 E5.84963
G1 X83.893 Y96 E6.38407
G1 X84.288 Y94.36 E6.43416
G1 X85.346 Y93.124 E6.48247
G1 X85.346 Y93.124 F6000
G1 X85.628 Y93.385
G1 F2520
G1 X85.73 Y93.274 E6.48695
G1 X87.5 Y92.75 E6.54176
G1 X167.5 Y92.75 E8.91706
G1 X169.051 Y93.144 E8.96457
G1 X170.226 Y94.23 E9.01208
G1 X170.75 Y96 E9.06689
G1 X170.75 Y114 E9.60133
G1 X170.356 Y115.551 E9.64884
G1 X169.27 Y116.726 E9.69635
G1 X167.5 Y117.25 E9.75116
G1 X87.5 Y117.25 E12.12646
G1 X85.949 Y116.856 E12.17397
G1 X84.774 Y115.77 E12.22148
G1 X84.25 Y114 E12.27629
G1 X84.25 Y96 E12.81073
G1 X84.644 Y94.449 E12.85824
G1 X85.587 Y93.429 E12.89948
G1 X85.587 Y93.429 F6000
G1 X85.855 Y93.7
G1 F2520
G1 X86.073 Y93.484 E12.90859
G1 X87.5 Y93.107 E12.95241
G1 X167.5 Y93.107 E15.32771
G1 X168.956 Y93.5 E15.37249
G1 X170.016 Y94.573 E15.41727
G1 X170.393 Y96 E15.46109
G1 X170.393 Y114 E15.99553
G1 X170 Y115.456 E16.04031
G1 X168.927 Y116.516 E16.08509
G1 X167.5 Y116.893 E16.12891
G1 X87.5 Y116.893 E18.50421
G1 X86.044 Y116.5 E18.54899
G1 X84.984 Y115.427 E18.59377
G1 X84.607 Y114 E18.63759
G1 X84.607 Y96 E19.17203
G1 X85 Y94.544 E19.21681
G1 X85.812 Y93.742 E19.2507
G1 X85.812 Y93.742 F6000
G1 X86.06 Y94.022
G1 F2520
G1 X86.412 Y93.71 E19.26467
G1 X87.5 Y93.464 E19.29779
G1 X167.5 Y93.464 E21.67309
G1 X168.855 Y93.856 E21.71497
G1 X169.79 Y94.912 E21.75685
G1 X170.036 Y96 E21.78997
G1 X170.036 Y114 E22.32441
G1 X169.644 Y115.355 E22.36629
G1 X168.588 Y116.29 E22.40817
G1 X167.5 Y116.536 E22.44129
G1 X87.5 Y116.536 E24.81659
G1 X86.145 Y116.144 E24.85847
G1 X85.21 Y115.088 E24.90035
G1 X84.964 Y114 E24.93347
G1 X84.964 Y96 E25.46791
G1 X85.356 Y94.645 E25.50979
G1 X86.015 Y94.061 E25.53593
G1 X86.015 Y94.061 F6000
G1 X86.237 Y94.349
G1 F2520
G1 X86.745 Y93.957 E25.55498
G1 X87.5 Y93.821 E25.57776
G1 X167.5 Y93.821 E27.95306
G1 X168.745 Y94.212 E27.99181
G1 X169.543 Y95.245 E28.03057
G1 X169.679 Y96 E28.05335
G1 X169.679 Y114 E28.58779
G1 X169.288 Y115.245 E28.62654
G1 X168.255 Y116.043 E28.6653
G1 X167.5 Y116.179 E28.68808
G1 X87.5 Y116.179 E31.06338
G1 X86.255 Y115.788 E31.10213
G1 X85.457 Y114.755 E31.14089
G1 X85.321 Y114 E31.16367
G1 X85.321 Y96 E31.69811
G1 X85.712 Y94.755 E31.73686
G1 X86.19 Y94.386 E31.75479
G1 E26.75479 F2400
G92 E0
G1 X86.19 Y94.386 F6000
G92 E0
G1 X147.582 Y101.334
G1 E5 F2400
;TYPE:Perimeter
;WIDTH:0.399999
G1 F1470
G1 X147.657 Y101.287 E5.00263
G1 X147.989 Y101.179 E5.013
G1 X148.205 Y101.161 E5.01944
G1 X151.195 Y101.161 E5.10822
G1 X151.48 Y101.193 E5.11674
G1 X151.743 Y101.287 E5.12503
G1 X151.968 Y101.428 E5.13291
G1 X152.277 Y101.785 E5.14693
G1 X153.773 Y104.375 E5.23574
G1 X153.891 Y104.653 E5.24471
G1 X153.935 Y105.109 E5.25831
G1 X153.891 Y105.347 E5.2655
G1 X153.773 Y105.625 E5.27447
G1 X152.277 Y108.215 E5.36328
G1 X151.968 Y108.572 E5.3773
G1 X151.743 Y108.713 E5.38518
G1 X151.411 Y108.821 E5.39555
G1 X151.195 Y108.839 E5.40199
G1 X148.205 Y108.839 E5.49077
G1 X147.92 Y108.807 E5.49929
G1 X147.657 Y108.713 E5.50758
G1 X147.432 Y108.572 E5.51546
G1 X147.123 Y108.215 E5.52948
G1 X145.627 Y105.625 E5.61829
G1 X145.512 Y105.355 E5.627
G1 X145.46 Y105 E5.63765
G1 X145.512 Y104.645 E5.6483
G1 X145.627 Y104.375 E5.65701
G1 X147.123 Y101.785 E5.74582
G1 X147.432 Y101.428 E5.75984
G1 X147.532 Y101.366 E5.76333
G1 X147.532 Y101.366 F6000
G1 X147.768 Y101.653
G1 F1470
G1 X148.001 Y101.541 E5.77101
G1 X148.205 Y101.518 E5.77711
G1 X151.195 Y101.518 E5.86589
G1 X151.587 Y101.608 E5.87783
G1 X151.875 Y101.832 E5.88866
G1 X152.105 Y102.201 E5.90157
G1 X153.463 Y104.554 E5.98223
G1 X153.58 Y104.922 E5.9937
G1 X153.548 Y105.248 E6.00343
G1 X153.463 Y105.446 E6.00983
G1 X151.968 Y108.036 E6.09862
G1 X151.747 Y108.291 E6.10864
G1 X151.399 Y108.459 E6.12011
G1 X151.195 Y108.482 E6.12621
G1 X148.205 Y108.482 E6.21499
G1 X147.813 Y108.392 E6.22693
G1 X147.525 Y108.168 E6.23776
G1 X147.432 Y108.036 E6.24255
G1 X145.937 Y105.446 E6.33134
G1 X145.854 Y105.254 E6.33755
G1 X145.821 Y104.921 E6.34749
G1 X145.888 Y104.651 E6.35575
G1 X147.432 Y101.964 E6.44776
G1 X147.653 Y101.709 E6.45778
G1 X147.714 Y101.679 E6.4598
G1 X147.714 Y101.679 F6000
G1 X147.944 Y101.958
G1 F1470
G1 X148.112 Y101.883 E6.46526
G1 X148.205 Y101.875 E6.46803
G1 X151.195 Y101.875 E6.55681
G1 X151.43 Y101.929 E6.56397
G1 X151.603 Y102.063 E6.57047
G1 X151.796 Y102.38 E6.58149
G1 X153.154 Y104.732 E6.66213
G1 X153.226 Y105 E6.67037
G1 X153.154 Y105.268 E6.67861
G1 X151.659 Y107.857 E6.76738
G1 X151.526 Y108.01 E6.7734
G1 X151.288 Y108.117 E6.78115
G1 X151.195 Y108.125 E6.78392
G1 X148.205 Y108.125 E6.8727
G1 X147.97 Y108.071 E6.87986
G1 X147.797 Y107.937 E6.88636
G1 X147.741 Y107.857 E6.88926
G1 X146.246 Y105.268 E6.97803
G1 X146.196 Y105.152 E6.98178
G1 X146.183 Y104.902 E6.98921
G1 X146.246 Y104.732 E6.99459
G1 X147.741 Y102.143 E7.08336
G1 X147.874 Y101.99 E7.08938
G1 X147.89 Y101.982 E7.08991
G1 X147.89 Y101.982 F6000
G1 X148.123 Y102.27
;TYPE:External perimeter
G1 F1470
G1 X148.174 Y102.235 E7.09175
G1 X148.205 Y102.232 E7.09267
G1 X151.195 Y102.232 E7.18145
G1 X151.331 Y102.295 E7.1859
G1 X152.845 Y104.911 E7.27564
G1 X152.862 Y105.05 E7.2798
G1 X151.35 Y107.679 E7.36985
G1 X151.226 Y107.765 E7.37433
G1 X151.195 Y107.768 E7.37525
G1 X148.205 Y107.768 E7.46403
G1 X148.069 Y107.705 E7.46848
G1 X146.539 Y105.051 E7.55944
G1 X146.555 Y104.911 E7.56362
G1 X148.05 Y102.321 E7.65241
G1 X148.074 Y102.304 E7.65328
G1 X148.469 Y102.239 F6000
G1 E2.65328 F2400
G92 E0
G1 X148.469 Y101.996 F6000
G1 X151.434 Y101.996
G1 X156.275 Y105.001
G1 E5 F2400
;TYPE:Perimeter
G1 F1470
G1 X156.265 Y104.891 E5.00328
G1 X156.309 Y104.653 E5.01047
G1 X156.427 Y104.375 E5.01944
G1 X157.923 Y101.785 E5.10825
G1 X158.232 Y101.428 E5.12227
G1 X158.457 Y101.287 E5.13015
G1 X158.789 Y101.179 E5.14052
G1 X159.005 Y101.161 E5.14696
G1 X161.995 Y101.161 E5.23574
G1 X162.372 Y101.219 E5.24707
G1 X162.699 Y101.378 E5.25787
G1 X162.903 Y101.551 E5.26581
G1 X163.077 Y101.785 E5.27447
G1 X164.573 Y104.375 E5.36328
G1 X164.721 Y104.784 E5.37619
G1 X164.72 Y105.221 E5.38917
G1 X164.573 Y105.625 E5.40193
G1 X163.077 Y108.215 E5.49074
G1 X162.903 Y108.449 E5.4994
G1 X162.699 Y108.622 E5.50734
G1 X162.211 Y108.821 E5.52299
G1 X161.995 Y108.839 E5.52943
G1 X159.005 Y108.839 E5.61821
G1 X158.72 Y108.807 E5.62673
G1 X158.457 Y108.713 E5.63502
G1 X158.232 Y108.572 E5.6429
G1 X157.923 Y108.215 E5.65692
G1 X156.427 Y105.625 E5.74573
G1 X156.309 Y105.347 E5.7547
G1 X156.281 Y105.06 E5.76326
G1 X156.281 Y105.06 F6000
G1 X156.62 Y105
G1 F1470
G1 X156.62 Y104.922 E5.76558
G1 X156.737 Y104.554 E5.77705
G1 X158.232 Y101.964 E5.86584
G1 X158.453 Y101.709 E5.87586
G1 X158.801 Y101.541 E5.88733
G1 X159.005 Y101.518 E5.89343
G1 X161.995 Y101.518 E5.98221
G1 X162.264 Y101.559 E5.99029
G1 X162.498 Y101.673 E5.99802
G1 X162.768 Y101.964 E6.00981
G1 X164.263 Y104.554 E6.0986
G1 X164.37 Y104.846 E6.10783
G1 X164.369 Y105.158 E6.11709
G1 X164.263 Y105.446 E6.1262
G1 X162.768 Y108.036 E6.21499
G1 X162.498 Y108.327 E6.22678
G1 X162.149 Y108.469 E6.23797
G1 X161.995 Y108.482 E6.24256
G1 X159.005 Y108.482 E6.33134
G1 X158.613 Y108.392 E6.34328
G1 X158.325 Y108.168 E6.35411
G1 X158.095 Y107.799 E6.36702
G1 X156.737 Y105.446 E6.44768
G1 X156.62 Y105.078 E6.45915
G1 X156.62 Y105.06 E6.45968
G1 X156.62 Y105.06 F6000
G1 X156.987 Y105.003
G1 F1470
G1 X156.976 Y104.953 E6.4612
G1 X157.046 Y104.732 E6.46808
G1 X158.541 Y102.143 E6.55685
G1 X158.674 Y101.99 E6.56287
G1 X158.912 Y101.883 E6.57062
G1 X159.005 Y101.875 E6.57339
G1 X161.995 Y101.875 E6.66217
G1 X162.297 Y101.968 E6.67155
G1 X162.459 Y102.143 E6.67863
G1 X163.954 Y104.732 E6.7674
G1 X164.026 Y105 E6.77564
G1 X163.954 Y105.268 E6.78388
G1 X162.459 Y107.857 E6.87265
G1 X162.297 Y108.032 E6.87973
G1 X162.088 Y108.117 E6.88643
G1 X161.995 Y108.125 E6.8892
G1 X159.005 Y108.125 E6.97798
G1 X158.77 Y108.071 E6.98514
G1 X158.597 Y107.937 E6.99164
G1 X157.046 Y105.268 E7.08329
G1 X157 Y105.062 E7.08956
G1 X157 Y105.062 F6000
G1 X157.336 Y105.003
;TYPE:External perimeter
G1 F1470
G1 X157.332 Y104.984 E7.09014
G1 X157.355 Y104.911 E7.09241
G1 X158.85 Y102.321 E7.1812
G1 X158.974 Y102.235 E7.18568
G1 X161.995 Y102.232 E7.27538
G1 X162.125 Y102.288 E7.27958
G1 X162.15 Y102.321 E7.28081
G1 X163.645 Y104.911 E7.3696
G1 X163.666 Y105.032 E7.37325
G1 X162.15 Y107.679 E7.46382
G1 X162.026 Y107.765 E7.4683
G1 X159.005 Y107.768 E7.558
G1 X158.869 Y107.705 E7.56245
G1 X157.355 Y105.089 E7.65219
G1 X157.349 Y105.062 E7.65301
G1 X157.492 Y104.688 F6000
G1 E2.65301 F2400
G92 E0
G1 X157.282 Y104.567 F6000
G1 X151.434 Y101.996
G1 X147.966 Y101.996
G1 X107.034 Y108.004
G1 X103.566 Y108.004
G1 X101.075 Y105.001
G1 E5 F2400
;TYPE:Perimeter
G1 F1470
G1 X101.065 Y104.891 E5.00328
G1 X101.109 Y104.653 E5.01047
G1 X101.227 Y104.375 E5.01944
G1 X102.586 Y102.023 E5.10009
G1 X102.853 Y101.6 E5.11494
G1 X103.032 Y101.428 E5.12231
G1 X103.257 Y101.287 E5.13019
G1 X103.589 Y101.179 E5.14056
G1 X103.805 Y101.161 E5.147
G1 X106.795 Y101.161 E5.23578
G1 X107.08 Y101.193 E5.2443
G1 X107.343 Y101.287 E5.25259
G1 X107.568 Y101.428 E5.26047
G1 X107.877 Y101.785 E5.27449
G1 X109.373 Y104.375 E5.3633
G1 X109.519 Y104.771 E5.37583
G1 X109.535 Y105.11 E5.38591
G1 X109.441 Y105.488 E5.39748
G1 X109.373 Y105.625 E5.40202
G1 X107.877 Y108.215 E5.49083
G1 X107.568 Y108.572 E5.50485
G1 X107.343 Y108.713 E5.51273
G1 X107.011 Y108.821 E5.5231
G1 X106.795 Y108.839 E5.52954
G1 X103.805 Y108.839 E5.61832
G1 X103.52 Y108.807 E5.62684
G1 X103.257 Y108.713 E5.63513
G1 X103.032 Y108.572 E5.64301
G1 X102.723 Y108.215 E5.65703
G1 X101.227 Y105.625 E5.74584
G1 X101.109 Y105.347 E5.75481
G1 X101.081 Y105.06 E5.76337
G1 X101.081 Y105.06 F6000
G1 X101.428 Y104.998
G1 F1470
G1 X101.452 Y104.752 E5.77071
G1 X101.537 Y104.554 E5.77711
G1 X102.895 Y102.201 E5.85777
G1 X103.125 Y101.832 E5.87068
G1 X103.413 Y101.608 E5.88151
G1 X103.651 Y101.531 E5.88894
G1 X103.805 Y101.518 E5.89353
G1 X106.795 Y101.518 E5.98231
G1 X107.187 Y101.608 E5.99425
G1 X107.475 Y101.832 E6.00508
G1 X107.568 Y101.964 E6.00987
G1 X109.063 Y104.554 E6.09866
G1 X109.168 Y104.837 E6.10762
G1 X109.168 Y105.163 E6.1173
G1 X109.063 Y105.446 E6.12626
G1 X107.568 Y108.036 E6.21505
G1 X107.347 Y108.291 E6.22507
G1 X106.999 Y108.459 E6.23654
G1 X106.795 Y108.482 E6.24264
G1 X103.805 Y108.482 E6.33142
G1 X103.413 Y108.392 E6.34336
G1 X103.125 Y108.168 E6.35419
G1 X102.895 Y107.799 E6.3671
G1 X101.537 Y105.446 E6.44776
G1 X101.42 Y105.078 E6.45923
G1 X101.422 Y105.058 E6.45983
G1 X101.422 Y105.058 F6000
G1 X101.776 Y104.994
G1 F1470
G1 X101.846 Y104.732 E6.46788
G1 X103.204 Y102.38 E6.54852
G1 X103.397 Y102.063 E6.55954
G1 X103.57 Y101.929 E6.56604
G1 X103.805 Y101.875 E6.5732
G1 X106.795 Y101.875 E6.66198
G1 X107.03 Y101.929 E6.66914
G1 X107.203 Y102.063 E6.67564
G1 X107.259 Y102.143 E6.67854
G1 X108.754 Y104.732 E6.76731
G1 X108.826 Y105 E6.77555
G1 X108.754 Y105.268 E6.78379
G1 X107.259 Y107.857 E6.87256
G1 X107.126 Y108.01 E6.87858
G1 X106.888 Y108.117 E6.88633
G1 X106.795 Y108.125 E6.8891
G1 X103.805 Y108.125 E6.97788
G1 X103.57 Y108.071 E6.98504
G1 X103.397 Y107.937 E6.99154
G1 X101.846 Y105.268 E7.08319
G1 X101.788 Y105.052 E7.08983
G1 X101.788 Y105.052 F6000
G1 X102.144 Y105.001
;TYPE:External perimeter
G1 F1470
G1 X102.138 Y104.95 E7.09135
G1 X103.513 Y102.558 E7.17327
G1 X103.727 Y102.25 E7.18441
G1 X103.805 Y102.232 E7.18679
G1 X106.795 Y102.232 E7.27557
G1 X106.931 Y102.295 E7.28002
G1 X106.95 Y102.321 E7.28098
G1 X108.445 Y104.911 E7.36977
G1 X108.455 Y105.07 E7.3745
G1 X106.95 Y107.679 E7.46393
G1 X106.826 Y107.765 E7.46841
G1 X103.805 Y107.768 E7.55811
G1 X103.669 Y107.705 E7.56256
G1 X102.155 Y105.089 E7.6523
G1 X102.152 Y105.06 E7.65317
G1 X102.297 Y104.688 F6000
G1 E2.65317 F2400
G92 E0
G1 X102.083 Y104.564 F6000
G1 X96.234 Y101.996
G1 X92.39 Y101.342
G1 E5 F2400
;TYPE:Perimeter
G1 F1470
G1 X92.789 Y101.179 E5.0128
G1 X93.005 Y101.161 E5.01924
G1 X95.995 Y101.161 E5.10802
G1 X96.28 Y101.193 E5.11654
G1 X96.543 Y101.287 E5.12483
G1 X96.768 Y101.428 E5.13271
G1 X97.077 Y101.785 E5.14673
G1 X98.573 Y104.375 E5.23554
G1 X98.691 Y104.653 E5.24451
G1 X98.735 Y105.109 E5.25811
G1 X98.691 Y105.347 E5.2653
G1 X98.573 Y105.625 E5.27427
G1 X97.077 Y108.215 E5.36308
G1 X96.768 Y108.572 E5.3771
G1 X96.543 Y108.713 E5.38498
G1 X96.211 Y108.821 E5.39535
G1 X95.995 Y108.839 E5.40179
G1 X93.005 Y108.839 E5.49057
G1 X92.628 Y108.781 E5.5019
G1 X92.301 Y108.622 E5.5127
G1 X92.097 Y108.449 E5.52064
G1 X91.923 Y108.215 E5.5293
G1 X90.427 Y105.625 E5.61811
G1 X90.279 Y105.216 E5.63102
G1 X90.28 Y104.779 E5.644
G1 X90.427 Y104.375 E5.65676
G1 X91.923 Y101.785 E5.74557
G1 X92.097 Y101.551 E5.75423
G1 X92.301 Y101.378 E5.76217
G1 X92.334 Y101.364 E5.76323
G1 X92.334 Y101.364 F6000
G1 X92.567 Y101.647
G1 F1470
G1 X92.851 Y101.531 E5.77234
G1 X93.005 Y101.518 E5.77693
G1 X95.995 Y101.518 E5.86571
G1 X96.387 Y101.608 E5.87765
G1 X96.675 Y101.832 E5.88848
G1 X96.905 Y102.201 E5.90139
G1 X98.263 Y104.554 E5.98205
G1 X98.38 Y104.922 E5.99352
G1 X98.348 Y105.248 E6.00325
G1 X98.263 Y105.446 E6.00965
G1 X96.768 Y108.036 E6.09844
G1 X96.547 Y108.291 E6.10846
G1 X96.199 Y108.459 E6.11993
G1 X95.995 Y108.482 E6.12603
G1 X93.005 Y108.482 E6.21481
G1 X92.736 Y108.441 E6.22289
G1 X92.502 Y108.327 E6.23062
G1 X92.232 Y108.036 E6.24241
G1 X90.737 Y105.446 E6.3312
G1 X90.63 Y105.154 E6.34043
G1 X90.631 Y104.842 E6.34969
G1 X90.737 Y104.554 E6.3588
G1 X92.232 Y101.964 E6.44759
G1 X92.502 Y101.673 E6.45938
G1 X92.511 Y101.669 E6.45967
G1 X92.511 Y101.669 F6000
G1 X92.742 Y101.952
G1 F1470
G1 X92.912 Y101.883 E6.46512
G1 X93.005 Y101.875 E6.46789
G1 X95.995 Y101.875 E6.55667
G1 X96.23 Y101.929 E6.56383
G1 X96.403 Y102.063 E6.57033
G1 X96.596 Y102.38 E6.58135
G1 X97.954 Y104.732 E6.66199
G1 X98.026 Y105 E6.67023
G1 X97.954 Y105.268 E6.67847
G1 X96.459 Y107.857 E6.76724
G1 X96.326 Y108.01 E6.77326
G1 X96.088 Y108.117 E6.78101
G1 X95.995 Y108.125 E6.78378
G1 X93.005 Y108.125 E6.87256
G1 X92.703 Y108.032 E6.88194
G1 X92.541 Y107.857 E6.88902
G1 X91.046 Y105.268 E6.97779
G1 X90.974 Y105 E6.98603
G1 X91.046 Y104.732 E6.99427
G1 X92.541 Y102.143 E7.08304
G1 X92.691 Y101.981 E7.0896
G1 X92.923 Y102.27 F6000
;TYPE:External perimeter
G1 F1470
G1 X92.974 Y102.235 E7.09144
G1 X93.005 Y102.232 E7.09236
G1 X95.995 Y102.232 E7.18114
G1 X96.131 Y102.295 E7.18559
G1 X97.645 Y104.911 E7.27533
G1 X97.662 Y105.05 E7.27949
G1 X96.15 Y107.679 E7.36954
G1 X96.026 Y107.765 E7.37402
G1 X95.995 Y107.768 E7.37494
G1 X93.005 Y107.768 E7.46372
G1 X92.875 Y107.712 E7.46792
G1 X91.355 Y105.089 E7.55793
G1 X91.334 Y104.968 E7.56158
G1 X91.355 Y104.911 E7.56338
G1 X92.85 Y102.321 E7.65217
G1 X92.874 Y102.304 E7.65304
G1 X93.269 Y102.239 F6000
G1 E2.65304 F2400
G92 E0
G1 X93.269 Y101.996 F6000
G1 X107.034 Y101.996
G1 X166.129 Y112.629
G1 E5 F2400
;TYPE:Perimeter
G1 F2100
G1 X88.871 Y112.629 E7.29389
G1 X88.871 Y97.371 E7.74692
G1 X166.129 Y97.371 E10.04081
G1 X166.129 Y99.565 E10.10595
G1 X166.129 Y112.569 E10.49205
G1 X166.129 Y112.569 F6000
