; generated by PrusaSlicer 2.9.0 on 2026-04-08 at 18:13:31 UTC

; 

; external perimeters extrusion width = 0.45mm
; perimeters extrusion width = 0.45mm
; infill extrusion width = 0.45mm
; solid infill extrusion width = 0.45mm
; top infill extrusion width = 0.40mm
; first layer extrusion width = 0.40mm

M190 S80 ; set bed temperature and wait for it to be reached
M104 S235 ; set temperature
;TYPE:Custom
G28 ; home all axes
G1 Z5 F5000 ; lift nozzle
M109 S235 ; set temperature and wait for it to be reached
G21 ; set units to millimeters
G90 ; use absolute coordinates
M82 ; use absolute distances for extrusion
G92 E0
; Filament gcode
M107
;LAYER_CHANGE
;Z:0.2
;HEIGHT:0.2
G1 E-5 F2400
G1 Z.2 F6000
G1 X73.013 Y62.513
G1 E.00001 F2400
;TYPE:Skirt/Brim
;WIDTH:0.4
G1 F2520
G1 X73.385 Y62.079 E.01697
G1 X75.224 Y61.404 E.07513
G1 X130.752 Y57.141 E1.72868
G1 X135.428 Y56.948 E1.86763
G1 X139.985 Y57.196 E2.00313
G1 X144.497 Y57.875 E2.13861
G1 X148.597 Y58.881 E2.26396
G1 X153.228 Y60.498 E2.4096
G1 X157.368 Y62.418 E2.5451
G1 X161.019 Y64.537 E2.67044
G1 X165.01 Y67.39 E2.8161
G1 X168.442 Y70.397 E2.95158
G1 X171.351 Y73.456 E3.07692
G1 X174.378 Y77.317 E3.22259
G1 X176.827 Y81.167 E3.35807
G1 X178.899 Y85.233 E3.49357
G1 X180.465 Y89.153 E3.6189
G1 X181.764 Y93.528 E3.7544
G1 X182.69 Y98.345 E3.90004
G1 X183.107 Y102.889 E4.03552
G1 X183.107 Y107.111 E4.16088
G1 X182.641 Y111.994 E4.30652
G1 X181.844 Y116.139 E4.43184
G1 X180.577 Y120.523 E4.56733
G1 X178.757 Y125.079 E4.713
G1 X176.827 Y128.833 E4.83833
G1 X174.378 Y132.683 E4.97381
G1 X171.575 Y136.284 E5.1093
G1 X168.442 Y139.603 E5.24482
G1 X165.01 Y142.61 E5.3803
G1 X161.307 Y145.278 E5.51581
G1 X157.368 Y147.582 E5.6513
G1 X152.911 Y149.63 E5.79694
G1 X148.597 Y151.119 E5.93244
G1 X144.161 Y152.191 E6.06794
G1 X139.644 Y152.838 E6.20342
G1 X135.428 Y153.052 E6.32876
G1 X130.868 Y152.866 E6.46426
G1 X75.224 Y148.596 E8.12126
G1 X73.619 Y148.077 E8.17134
G1 X72.425 Y146.885 E8.22143
G1 X71.893 Y145 E8.27958
G1 X71.893 Y65 E10.65488
G1 X72.288 Y63.36 E10.70497
G1 X72.974 Y62.559 E10.73628
G1 X72.974 Y62.559 F6000
G1 X73.24 Y62.805
G1 F2520
G1 X73.73 Y62.274 E10.75773
G1 X75.251 Y61.76 E10.8054
G1 X130.779 Y57.497 E12.45895
G1 X135.41 Y57.305 E12.59657
G1 X139.933 Y57.549 E12.73106
G1 X144.412 Y58.222 E12.86554
G1 X148.512 Y59.228 E12.99089
G1 X153.079 Y60.822 E13.13451
G1 X156.915 Y62.585 E13.25986
G1 X160.84 Y64.845 E13.39434
G1 X164.775 Y67.659 E13.53798
G1 X168.184 Y70.643 E13.6725
G1 X171.092 Y73.702 E13.79782
G1 X173.898 Y77.258 E13.93231
G1 X176.509 Y81.331 E14.07596
G1 X178.568 Y85.365 E14.21043
G1 X180.133 Y89.285 E14.33575
G1 X181.421 Y93.628 E14.47025
G1 X182.335 Y98.379 E14.6139
G1 X182.75 Y102.889 E14.74837
G1 X182.75 Y107.111 E14.87373
G1 X182.291 Y111.927 E15.01737
G1 X181.494 Y116.072 E15.14269
G1 X180.234 Y120.423 E15.27718
G1 X178.44 Y124.916 E15.42082
G1 X176.509 Y128.669 E15.54614
G1 X174.077 Y132.491 E15.68065
G1 X171.294 Y136.064 E15.81512
G1 X168.184 Y139.357 E15.94961
G1 X164.775 Y142.341 E16.08413
G1 X160.84 Y145.155 E16.22777
G1 X156.915 Y147.415 E16.36225
G1 X152.793 Y149.293 E16.49674
G1 X148.512 Y150.772 E16.63122
G1 X144.109 Y151.838 E16.76573
G1 X139.626 Y152.481 E16.9002
G1 X135.41 Y152.695 E17.02554
G1 X130.884 Y152.51 E17.16004
G1 X75.251 Y148.24 E18.81671
G1 X73.735 Y147.729 E18.86421
G1 X72.647 Y146.556 E18.91171
G1 X72.25 Y145 E18.95939
G1 X72.25 Y65 E21.33469
G1 X72.644 Y63.449 E21.3822
G1 X73.199 Y62.849 E21.40647
G1 X73.448 Y63.101 F6000
G1 F2520
G1 X74.073 Y62.484 E21.43255
G1 X75.279 Y62.116 E21.46999
G1 X130.806 Y57.853 E23.12351
G1 X135.392 Y57.661 E23.25979
G1 X139.881 Y57.902 E23.39327
G1 X144.327 Y58.568 E23.52675
G1 X148.427 Y59.575 E23.6521
G1 X152.93 Y61.147 E23.79371
G1 X157.01 Y63.036 E23.9272
G1 X160.661 Y65.154 E24.05252
G1 X164.541 Y67.929 E24.19415
G1 X167.925 Y70.889 E24.32764
G1 X170.833 Y73.948 E24.45296
G1 X173.617 Y77.478 E24.58644
G1 X176.191 Y81.494 E24.72807
G1 X178.122 Y85.248 E24.85341
G1 X179.802 Y89.418 E24.98689
G1 X181.143 Y93.996 E25.12853
G1 X181.94 Y98.141 E25.25385
G1 X182.38 Y102.615 E25.38733
G1 X182.38 Y107.385 E25.52896
G1 X181.94 Y111.859 E25.66244
G1 X181.143 Y116.004 E25.78776
G1 X179.891 Y120.322 E25.92125
G1 X178.122 Y124.752 E26.06288
G1 X176.191 Y128.506 E26.18822
G1 X173.776 Y132.298 E26.3217
G1 X171.013 Y135.844 E26.45517
G1 X167.925 Y139.111 E26.58865
G1 X164.541 Y142.071 E26.72214
G1 X160.892 Y144.697 E26.85562
G1 X156.766 Y147.091 E26.99725
G1 X152.676 Y148.956 E27.13072
G1 X148.427 Y150.425 E27.26421
G1 X144.057 Y151.484 E27.39772
G1 X139.608 Y152.125 E27.53118
G1 X135.117 Y152.34 E27.66468
G1 X130.9 Y152.153 E27.79001
G1 X75.279 Y147.884 E29.44633
G1 X73.857 Y147.381 E29.49111
G1 X72.882 Y146.23 E29.5359
G1 X72.607 Y145 E29.57332
G1 X72.607 Y65 E31.94862
G1 X73 Y63.544 E31.9934
G1 X73.406 Y63.143 E32.01034
G1 X73.406 Y63.143 F6000
G1 X73.633 Y63.4
G1 F2520
G1 X74.412 Y62.71 E32.04124
G1 X75.306 Y62.472 E32.06871
G1 X130.834 Y58.209 E33.72226
G1 X135.374 Y58.018 E33.85718
G1 X139.829 Y58.256 E33.98964
G1 X144.242 Y58.915 E34.12212
G1 X148.341 Y59.922 E34.24744
G1 X152.781 Y61.471 E34.38706
G1 X156.831 Y63.345 E34.51956
G1 X160.482 Y65.463 E34.64488
G1 X164.307 Y68.198 E34.78449
G1 X167.666 Y71.135 E34.91697
G1 X170.574 Y74.194 E35.04229
G1 X173.476 Y77.895 E35.18193
G1 X175.874 Y81.657 E35.31439
G1 X177.904 Y85.63 E35.44686
G1 X179.47 Y89.55 E35.57219
G1 X180.736 Y93.829 E35.70468
G1 X181.624 Y98.447 E35.84431
G1 X182.036 Y102.889 E35.97676
G1 X182.036 Y107.111 E36.10212
G1 X181.589 Y111.792 E36.24174
G1 X180.792 Y115.937 E36.36706
G1 X179.549 Y120.222 E36.49953
G1 X177.805 Y124.589 E36.63915
G1 X175.874 Y128.343 E36.76449
G1 X173.476 Y132.105 E36.89695
G1 X170.732 Y135.623 E37.02942
G1 X167.666 Y138.865 E37.16191
G1 X164.307 Y141.802 E37.29439
G1 X160.482 Y144.537 E37.434
G1 X156.617 Y146.766 E37.56647
G1 X152.558 Y148.619 E37.69895
G1 X148.341 Y150.078 E37.83144
G1 X144.006 Y151.131 E37.96389
G1 X139.589 Y151.768 E38.09639
G1 X135.374 Y151.982 E38.2217
G1 X130.916 Y151.796 E38.35418
G1 X75.306 Y147.528 E40.01017
G1 X73.985 Y147.034 E40.05205
G1 X73.133 Y145.91 E40.09393
G1 X72.964 Y145 E40.12141
G1 X72.964 Y65 E42.49671
G1 X73.357 Y63.645 E42.5386
G1 X73.588 Y63.44 E42.54777
G1 X73.588 Y63.44 F6000
G1 X73.755 Y63.731
G1 F2520
G1 X75.333 Y62.828 E42.60175
G1 X130.861 Y58.565 E44.2553
G1 X135.356 Y58.375 E44.38888
G1 X139.571 Y58.589 E44.51419
G1 X143.954 Y59.222 E44.64568
G1 X148.455 Y60.327 E44.78329
G1 X152.68 Y61.817 E44.91631
G1 X156.651 Y63.653 E45.04621
G1 X160.302 Y65.772 E45.17155
G1 X164.072 Y68.468 E45.30916
G1 X167.407 Y71.381 E45.44064
G1 X170.315 Y74.44 E45.56596
G1 X173.175 Y78.087 E45.70357
G1 X175.556 Y81.821 E45.83506
G1 X177.573 Y85.763 E45.96653
G1 X179.139 Y89.683 E46.09186
G1 X180.393 Y93.929 E46.22331
G1 X181.268 Y98.48 E46.36091
G1 X181.669 Y102.683 E46.48627
G1 X181.678 Y107.111 E46.61774
G1 X181.239 Y111.724 E46.75532
G1 X180.442 Y115.87 E46.88067
G1 X179.206 Y120.122 E47.01214
G1 X177.487 Y124.426 E47.14975
G1 X175.556 Y128.179 E47.27507
G1 X173.175 Y131.913 E47.40656
G1 X170.451 Y135.403 E47.53801
G1 X167.407 Y138.619 E47.66949
G1 X164.072 Y141.532 E47.80097
G1 X160.476 Y144.116 E47.93245
G1 X156.651 Y146.347 E48.06393
G1 X152.44 Y148.282 E48.20153
G1 X148.256 Y149.732 E48.33301
G1 X143.954 Y150.778 E48.46446
G1 X139.571 Y151.411 E48.59595
G1 X135.356 Y151.625 E48.72126
G1 X130.932 Y151.439 E48.85273
G1 X75.333 Y147.172 E50.50839
G1 X74.122 Y146.687 E50.54712
G1 X73.322 Y145 E50.60256
G1 X73.322 Y65 E52.97786
G1 X73.709 Y63.766 E53.01626
G1 E48.01626 F2400
G92 E0
G1 X73.709 Y63.766 F6000
G92 E0
G1 X114.602 Y137.278
G1 E5 F2400
;TYPE:Perimeter
;WIDTH:0.399999
G1 F1470
G1 X114.294 Y137.164 E5.00975
G1 X113.208 Y136.611 E5.04593
G1 X112.892 Y136.381 E5.05753
G1 X111.935 Y135.425 E5.09769
G1 X111.706 Y135.108 E5.1093
G1 X111.092 Y133.903 E5.14945
G1 X110.971 Y133.531 E5.16106
G1 X110.759 Y132.196 E5.20119
G1 X110.759 Y131.804 E5.21283
G1 X110.971 Y130.469 E5.25296
G1 X111.092 Y130.097 E5.26457
G1 X111.706 Y128.892 E5.30472
G1 X111.935 Y128.575 E5.31633
G1 X112.892 Y127.619 E5.35649
G1 X113.208 Y127.389 E5.36809
G1 X114.413 Y126.775 E5.40824
G1 X114.785 Y126.654 E5.41985
G1 X116.121 Y126.443 E5.46001
G1 X116.512 Y126.443 E5.47162
G1 X117.848 Y126.654 E5.51178
G1 X118.22 Y126.775 E5.52339
G1 X119.425 Y127.389 E5.56354
G1 X119.741 Y127.619 E5.57514
G1 X120.698 Y128.575 E5.6153
G1 X120.928 Y128.892 E5.62693
G1 X121.542 Y130.097 E5.66708
G1 X121.662 Y130.469 E5.67869
G1 X121.874 Y131.804 E5.71882
G1 X121.874 Y132.196 E5.73046
G1 X121.662 Y133.531 E5.77059
G1 X121.542 Y133.903 E5.7822
G1 X120.927 Y135.108 E5.82237
G1 X120.698 Y135.425 E5.83398
G1 X119.741 Y136.381 E5.87414
G1 X119.425 Y136.611 E5.88574
G1 X118.22 Y137.225 E5.92589
G1 X117.848 Y137.346 E5.9375
G1 X116.512 Y137.557 E5.97766
G1 X116.121 Y137.557 E5.98927
G1 X114.785 Y137.346 E6.02943
G1 X114.658 Y137.299 E6.03345
G1 X114.658 Y137.299 F6000
G1 X114.71 Y136.943
G1 F1470
G1 X114.456 Y136.846 E6.04152
G1 X113.37 Y136.293 E6.0777
G1 X113.144 Y136.129 E6.08599
G1 X112.188 Y135.172 E6.12615
G1 X112.024 Y134.946 E6.13444
G1 X111.41 Y133.741 E6.17459
G1 X111.323 Y133.476 E6.18287
G1 X111.112 Y132.14 E6.22303
G1 X111.112 Y131.86 E6.23134
G1 X111.323 Y130.524 E6.2715
G1 X111.41 Y130.259 E6.27978
G1 X112.024 Y129.054 E6.31993
G1 X112.188 Y128.828 E6.32822
G1 X113.144 Y127.871 E6.36838
G1 X113.37 Y127.707 E6.37667
G1 X114.575 Y127.093 E6.41682
G1 X114.841 Y127.007 E6.42512
G1 X116.177 Y126.795 E6.46528
G1 X116.456 Y126.795 E6.47356
G1 X117.792 Y127.007 E6.51372
G1 X118.058 Y127.093 E6.52202
G1 X119.263 Y127.707 E6.56217
G1 X119.489 Y127.871 E6.57046
G1 X120.445 Y128.828 E6.61062
G1 X120.609 Y129.054 E6.61891
G1 X121.223 Y130.259 E6.65906
G1 X121.31 Y130.524 E6.66734
G1 X121.521 Y131.86 E6.7075
G1 X121.521 Y132.14 E6.71581
G1 X121.31 Y133.476 E6.75597
G1 X121.223 Y133.741 E6.76425
G1 X120.609 Y134.946 E6.8044
G1 X120.445 Y135.172 E6.81269
G1 X119.489 Y136.129 E6.85285
G1 X119.263 Y136.293 E6.86114
G1 X118.058 Y136.907 E6.90129
G1 X117.792 Y136.993 E6.90959
G1 X116.456 Y137.205 E6.94975
G1 X116.177 Y137.205 E6.95803
G1 X114.841 Y136.993 E6.99819
G1 X114.766 Y136.965 E7.00057
G1 X114.766 Y136.965 F6000
G1 X114.819 Y136.609
G1 F1470
G1 X114.619 Y136.528 E7.00698
G1 X113.532 Y135.975 E7.04319
G1 X113.397 Y135.876 E7.04816
G1 X112.44 Y134.92 E7.08832
G1 X112.342 Y134.784 E7.0933
G1 X111.728 Y133.579 E7.13345
G1 X111.676 Y133.42 E7.13842
G1 X111.465 Y132.084 E7.17858
G1 X111.465 Y131.916 E7.18357
G1 X111.676 Y130.58 E7.22373
G1 X111.728 Y130.421 E7.2287
G1 X112.342 Y129.216 E7.26885
G1 X112.44 Y129.08 E7.27383
G1 X113.397 Y128.124 E7.31399
G1 X113.532 Y128.025 E7.31896
G1 X114.738 Y127.411 E7.35914
G1 X114.897 Y127.36 E7.3641
G1 X116.233 Y127.148 E7.40426
G1 X116.4 Y127.148 E7.40922
G1 X117.736 Y127.36 E7.44938
G1 X117.896 Y127.411 E7.45437
G1 X119.101 Y128.025 E7.49452
G1 X119.236 Y128.124 E7.49949
G1 X120.193 Y129.08 E7.53965
G1 X120.291 Y129.216 E7.54463
G1 X120.905 Y130.421 E7.58478
G1 X120.957 Y130.58 E7.58975
G1 X121.169 Y131.916 E7.62991
G1 X121.083 Y132.627 E7.65117
G1 X120.957 Y133.42 E7.67501
G1 X120.905 Y133.579 E7.67998
G1 X120.291 Y134.784 E7.72013
G1 X119.883 Y135.229 E7.73806
G1 X119.236 Y135.876 E7.76523
G1 X118.276 Y136.395 E7.79763
G1 X117.82 Y136.62 E7.81273
G1 X116.751 Y136.796 E7.8449
G1 X116.233 Y136.852 E7.86037
G1 X114.897 Y136.64 E7.90053
G1 X114.875 Y136.631 E7.90124
G1 X114.875 Y136.631 F6000
G1 X114.927 Y136.275
;TYPE:External perimeter
G1 F1470
G1 X113.695 Y135.656 E7.94218
G1 X112.693 Y134.667 E7.98398
G1 X112.029 Y133.364 E8.0274
G1 X111.817 Y132.028 E8.06756
G1 X112.029 Y130.636 E8.10937
G1 X112.66 Y129.378 E8.15116
G1 X113.695 Y128.344 E8.1946
G1 X114.953 Y127.712 E8.2364
G1 X116.289 Y127.501 E8.27656
G1 X117.68 Y127.712 E8.31833
G1 X118.939 Y128.344 E8.36016
G1 X119.973 Y129.378 E8.40358
G1 X120.604 Y130.636 E8.44537
G1 X120.816 Y131.972 E8.48553
G1 X120.604 Y133.364 E8.52734
G1 X119.973 Y134.622 E8.56913
G1 X118.984 Y135.624 E8.61093
G1 X117.68 Y136.288 E8.65438
G1 X116.344 Y136.499 E8.69454
G1 X114.984 Y136.293 E8.73538
G1 X114.623 Y136.121 F6000
G1 E3.73538 F2400
G92 E0
G1 X80.032 Y134.248 F6000
G1 E5 F2400
;TYPE:Perimeter
G1 F1470
G1 X80.19 Y134.203 E5.00488
G1 X81.301 Y134.1 E5.03801
G1 X81.623 Y134.131 E5.04761
G1 X82.692 Y134.435 E5.08061
G1 X82.986 Y134.581 E5.09036
G1 X83.872 Y135.251 E5.12334
G1 X84.093 Y135.493 E5.13307
G1 X84.678 Y136.438 E5.16607
G1 X84.797 Y136.744 E5.17582
G1 X85.001 Y137.836 E5.2088
G1 X85.001 Y138.164 E5.21854
G1 X84.797 Y139.256 E5.25152
G1 X84.678 Y139.562 E5.26127
G1 X84.093 Y140.507 E5.29427
G1 X83.872 Y140.749 E5.304
G1 X82.986 Y141.419 E5.33698
G1 X82.692 Y141.565 E5.34673
G1 X81.623 Y141.869 E5.37973
G1 X81.297 Y141.9 E5.38945
G1 X80.19 Y141.797 E5.42246
G1 X79.875 Y141.707 E5.43219
G1 X78.88 Y141.212 E5.46519
G1 X78.618 Y141.014 E5.47494
G1 X77.87 Y140.193 E5.50792
G1 X77.697 Y139.914 E5.51767
G1 X77.296 Y138.878 E5.55065
G1 X77.235 Y138.556 E5.56038
G1 X77.235 Y137.444 E5.5934
G1 X77.296 Y137.122 E5.60313
G1 X77.697 Y136.086 E5.63611
G1 X77.87 Y135.807 E5.64586
G1 X78.618 Y134.986 E5.67884
G1 X78.88 Y134.788 E5.68859
G1 X79.875 Y134.293 E5.72159
G1 X79.975 Y134.264 E5.72468
G1 X79.975 Y134.264 F6000
G1 X80.129 Y134.585
G1 F1470
G1 X80.223 Y134.559 E5.72758
G1 X81.332 Y134.456 E5.76065
G1 X81.526 Y134.474 E5.76643
G1 X82.594 Y134.778 E5.7994
G1 X82.771 Y134.866 E5.80527
G1 X83.657 Y135.536 E5.83825
G1 X83.79 Y135.681 E5.84409
G1 X84.375 Y136.626 E5.87709
G1 X84.446 Y136.809 E5.88292
G1 X84.65 Y137.902 E5.91593
G1 X84.65 Y138.098 E5.92175
G1 X84.446 Y139.191 E5.95476
G1 X84.375 Y139.374 E5.96059
G1 X83.79 Y140.319 E5.99359
G1 X83.657 Y140.464 E5.99943
G1 X82.771 Y141.134 E6.03241
G1 X82.594 Y141.222 E6.03828
G1 X81.526 Y141.526 E6.07125
G1 X81.33 Y141.544 E6.07709
G1 X80.223 Y141.441 E6.1101
G1 X80.034 Y141.388 E6.11593
G1 X79.039 Y140.892 E6.14894
G1 X78.882 Y140.774 E6.15477
G1 X78.134 Y139.953 E6.18775
G1 X78.03 Y139.785 E6.19362
G1 X77.629 Y138.749 E6.2266
G1 X77.592 Y138.556 E6.23243
G1 X77.592 Y137.444 E6.26545
G1 X77.629 Y137.251 E6.27128
G1 X78.03 Y136.215 E6.30426
G1 X78.134 Y136.047 E6.31013
G1 X78.882 Y135.226 E6.34311
G1 X79.039 Y135.108 E6.34894
G1 X80.034 Y134.612 E6.38195
G1 X80.071 Y134.602 E6.38309
G1 X80.071 Y134.602 F6000
G1 X80.226 Y134.929
;TYPE:External perimeter
G1 F1470
G1 X80.256 Y134.914 E6.38409
G1 X81.428 Y134.818 E6.419
G1 X82.555 Y135.151 E6.45389
G1 X83.486 Y135.869 E6.4888
G1 X84.095 Y136.875 E6.52372
G1 X84.299 Y138.033 E6.55863
G1 X84.071 Y139.186 E6.59353
G1 X83.442 Y140.179 E6.62843
G1 X82.497 Y140.878 E6.66333
G1 X81.363 Y141.188 E6.69824
G1 X80.193 Y141.068 E6.73316
G1 X79.146 Y140.533 E6.76807
G1 X78.363 Y139.656 E6.80298
G1 X77.961 Y138.62 E6.83597
G1 X77.949 Y137.444 E6.87089
G1 X78.363 Y136.344 E6.90579
G1 X79.146 Y135.467 E6.9407
G1 X80.172 Y134.956 E6.97473
G1 X80.567 Y134.893 F6000
G1 E1.97473 F2400
G92 E0
G1 X80.545 Y134.651 F6000
G1 X84.312 Y128.444
G1 X84.545 Y127.2
G1 X84.312 Y125.956
G1 X83.646 Y124.879
G1 X82.636 Y124.116
G1 X82.839 Y123.708
G1 E5 F2400
;TYPE:Perimeter
G1 F1470
G1 X82.986 Y123.781 E5.00487
G1 X83.872 Y124.451 E5.03785
G1 X84.093 Y124.693 E5.04758
G1 X84.678 Y125.638 E5.08058
G1 X84.797 Y125.944 E5.09033
G1 X85.001 Y127.036 E5.12331
G1 X85.001 Y127.364 E5.13305
G1 X84.797 Y128.456 E5.16603
G1 X84.678 Y128.762 E5.17578
G1 X84.093 Y129.707 E5.20878
G1 X83.872 Y129.949 E5.21851
G1 X82.986 Y130.619 E5.25149
G1 X82.692 Y130.765 E5.26124
G1 X81.623 Y131.069 E5.29424
G1 X81.297 Y131.1 E5.30396
G1 X80.19 Y130.997 E5.33697
G1 X79.875 Y130.907 E5.3467
G1 X78.88 Y130.412 E5.3797
G1 X78.618 Y130.214 E5.38945
G1 X77.87 Y129.393 E5.42243
G1 X77.697 Y129.114 E5.43218
G1 X77.296 Y128.078 E5.46516
G1 X77.235 Y127.756 E5.47489
G1 X77.235 Y126.644 E5.50791
G1 X77.296 Y126.322 E5.51764
G1 X77.697 Y125.286 E5.55062
G1 X77.87 Y125.007 E5.56037
G1 X78.618 Y124.186 E5.59335
G1 X78.88 Y123.988 E5.6031
G1 X79.875 Y123.493 E5.6361
G1 X80.19 Y123.403 E5.64583
