; generated by PrusaSlicer 2.9.0 on 2026-04-08 at 18:23:52 UTC

; 

; external perimeters extrusion width = 0.45mm
; perimeters extrusion width = 0.45mm
; infill extrusion width = 0.45mm
; solid infill extrusion width = 0.45mm
; top infill extrusion width = 0.40mm
; first layer extrusion width = 0.40mm

M190 S80 ; set bed temperature and wait for it to be reached
M104 S235 ; set temperature
;TYPE:Custom
G28 ; home all axes
G1 Z5 F5000 ; lift nozzle
M109 S235 ; set temperature and wait for it to be reached
G21 ; set units to millimeters
G90 ; use absolute coordinates
M82 ; use absolute distances for extrusion
G92 E0
; Filament gcode
M107
;LAYER_CHANGE
;Z:0.2
;HEIGHT:0.2
G1 E-5 F2400
G1 Z.2 F6000
G1 X20.858 Y97.772
G1 E.00001 F2400
;TYPE:Skirt/Brim
;WIDTH:0.4
G1 F2520
G1 X26.947 Y96.473 E.18486
G1 X27.7 Y96.393 E.20734
G1 X242.3 Y96.393 E6.57909
G1 X243.94 Y96.788 E6.62918
G1 X245.221 Y97.885 E6.67926
G1 X245.907 Y100 E6.74528
G1 X245.907 Y106.8 E6.94718
G1 X245.512 Y108.44 E6.99727
G1 X244.415 Y109.721 E7.04735
G1 X243.053 Y110.327 E7.09161
G1 X228.053 Y113.527 E7.547
G1 X227.3 Y113.607 E7.56948
G1 X12.7 Y113.607 E13.94123
G1 X11.06 Y113.212 E13.99132
G1 X9.779 Y112.115 E14.0414
G1 X9.093 Y110 E14.10742
G1 X9.093 Y103.2 E14.30932
G1 X9.488 Y101.56 E14.35941
G1 X10.585 Y100.279 E14.40949
G1 X11.947 Y99.673 E14.45375
G1 X20.799 Y97.784 E14.7225
G1 X20.799 Y97.784 F6000
G1 X20.874 Y98.133
G1 F2520
G1 X27.022 Y96.822 E14.90915
G1 X27.7 Y96.75 E14.92939
G1 X242.3 Y96.75 E21.30114
G1 X243.851 Y97.144 E21.34865
G1 X245.026 Y98.23 E21.39616
G1 X245.55 Y100 E21.45097
G1 X245.55 Y106.8 E21.65287
G1 X245.156 Y108.351 E21.70038
G1 X244.07 Y109.526 E21.74789
G1 X242.978 Y109.978 E21.78298
G1 X227.978 Y113.178 E22.23837
G1 X227.3 Y113.25 E22.25861
G1 X12.7 Y113.25 E28.63036
G1 X11.149 Y112.856 E28.67787
G1 X9.974 Y111.77 E28.72538
G1 X9.45 Y110 E28.78019
G1 X9.45 Y103.2 E28.98209
G1 X9.844 Y101.649 E29.0296
G1 X10.93 Y100.474 E29.07711
G1 X12.022 Y100.022 E29.1122
G1 X20.815 Y98.146 E29.37915
G1 X20.815 Y98.146 F6000
G1 X20.89 Y98.495
G1 F2520
G1 X27.096 Y97.171 E29.56756
G1 X27.7 Y97.107 E29.58559
G1 X242.3 Y97.107 E35.95734
G1 X243.756 Y97.5 E36.00212
G1 X244.816 Y98.573 E36.0469
G1 X245.193 Y100 E36.09072
G1 X245.193 Y106.8 E36.29262
G1 X244.8 Y108.256 E36.3374
G1 X243.727 Y109.316 E36.38218
G1 X242.904 Y109.629 E36.40832
G1 X227.904 Y112.829 E36.86371
G1 X227.3 Y112.893 E36.88174
G1 X12.7 Y112.893 E43.25349
G1 X11.244 Y112.5 E43.29827
G1 X10.184 Y111.427 E43.34305
G1 X9.807 Y110 E43.38687
G1 X9.807 Y103.2 E43.58877
G1 X10.2 Y101.744 E43.63355
G1 X11.273 Y100.684 E43.67833
G1 X12.096 Y100.371 E43.70447
G1 X20.831 Y98.508 E43.96966
G1 X20.831 Y98.508 F6000
G1 X20.905 Y98.857
G1 F2520
G1 X27.171 Y97.52 E44.15989
G1 X27.7 Y97.464 E44.17568
G1 X242.3 Y97.464 E50.54743
G1 X243.655 Y97.856 E50.58931
G1 X244.59 Y98.912 E50.63119
G1 X244.836 Y100 E50.66431
G1 X244.836 Y106.8 E50.86621
G1 X244.444 Y108.155 E50.90809
G1 X242.829 Y109.28 E50.96653
G1 X227.829 Y112.48 E51.42192
G1 X227.3 Y112.536 E51.43771
G1 X12.7 Y112.536 E57.80946
G1 X11.345 Y112.144 E57.85134
G1 X10.41 Y111.088 E57.89322
G1 X10.164 Y110 E57.92634
G1 X10.164 Y103.2 E58.12824
G1 X10.556 Y101.845 E58.17012
G1 X12.171 Y100.72 E58.22856
G1 X20.847 Y98.869 E58.49196
G1 X20.847 Y98.869 F6000
G1 X20.926 Y99.245
G1 F2520
G1 X27.7 Y97.821 E58.69748
G1 X242.3 Y97.821 E65.06923
G1 X243.545 Y98.212 E65.10798
G1 X244.343 Y99.245 E65.14674
G1 X244.479 Y100 E65.16952
G1 X244.479 Y106.8 E65.37142
G1 X244.088 Y108.045 E65.41017
G1 X242.755 Y108.931 E65.45769
G1 X227.3 Y112.179 E65.92659
G1 X12.7 Y112.179 E72.29834
G1 X11.455 Y111.788 E72.33709
G1 X10.657 Y110.755 E72.37585
G1 X10.521 Y110 E72.39863
G1 X10.521 Y103.2 E72.60053
G1 X10.912 Y101.955 E72.63928
G1 X12.245 Y101.069 E72.6868
G1 X20.867 Y99.257 E72.94839
G1 E67.94839 F2400
G92 E0
G1 X20.867 Y99.257 F6000
G92 E0
G1 X14.354 Y104.546
G1 E5 F2400
;TYPE:Perimeter
;WIDTH:0.350223
G1 F1470
G1 X14.354 Y107.321 E5.07091
;WIDTH:0.360668
G1 X14.367 Y107.534 E5.07655
;WIDTH:0.403208
G1 X14.417 Y107.691 E5.08149
;WIDTH:0.445747
G1 X14.467 Y107.849 E5.08704
;WIDTH:0.488287
G1 X14.518 Y108.006 E5.09315
;WIDTH:0.530826
G1 X14.568 Y108.163 E5.09983
G1 X15.073 Y108.382 E5.12216
;WIDTH:0.494176
G1 X15.579 Y108.6 E5.14283
G1 X14.98 Y108.582 E5.16532
;WIDTH:0.530826
G1 X14.137 Y108.563 E5.19953
G1 X14.114 Y108.07 E5.21955
;WIDTH:0.485676
G1 X14.092 Y107.82 E5.22879
;WIDTH:0.440525
G1 X14.069 Y107.571 E5.23706
;WIDTH:0.395374
G1 X14.046 Y107.321 E5.24442
;WIDTH:0.350223
G1 X14.046 Y104.546 E5.31533
G1 X14.294 Y104.546 E5.32167
G1 E.32167 F2400
G92 E0
G1 X14.294 Y104.546 F6000
G1 X15.579 Y108.6
G1 E5 F2400
;WIDTH:0.457526
G1 F1470
G1 X27.821 Y108.6 E5.42204
;WIDTH:0.4769
G1 X28.044 Y108.59 E5.4301
G1 E.4301 F2400
G92 E0
G1 X28.044 Y108.59 F6000
G1 X231.221 Y101.4
G1 E5 F2400
;WIDTH:0.457526
G1 F1470
G1 X231.648 Y101.386 E5.01473
;WIDTH:0.428763
G1 X232.074 Y101.371 E5.02841
;WIDTH:0.399999
G1 X240.929 Y101.371 E5.29133
G1 X240.929 Y103.4 E5.35157
G1 X240.929 Y105.429 E5.41181
G1 X232.471 Y105.429 E5.66294
G1 X232.471 Y102.679 E5.74459
G1 X232.375 Y102.198 E5.75915
G1 X231.971 Y101.679 E5.77868
;WIDTH:0.428763
G1 X231.596 Y101.539 E5.79152
;WIDTH:0.457526
G1 X231.278 Y101.421 E5.80321
G1 E.80321 F2400
G92 E0
G1 X231.278 Y101.421 F6000
G1 X226.318 Y101.821
G1 E5 F2400
;WIDTH:0.399999
G1 F2100
G1 X226.025 Y102.198 E5.01418
G1 X225.929 Y102.679 E5.02874
G1 X225.929 Y108.629 E5.2054
G1 X28.674 Y108.629 E11.06215
;WIDTH:0.43845
G1 X28.359 Y108.61 E11.07253
;WIDTH:0.4769
G1 X28.044 Y108.59 E11.08392
G1 X28.308 Y108.456 E11.0946
;WIDTH:0.43845
G1 X28.571 Y108.321 E11.10432
;WIDTH:0.399999
G1 X28.975 Y107.802 E11.12385
G1 X29.071 Y107.321 E11.13841
G1 X29.071 Y101.371 E11.31507
G1 X226.326 Y101.371 E17.17182
;WIDTH:0.43845
G1 X226.641 Y101.39 E17.1822
;WIDTH:0.4769
G1 X226.956 Y101.41 E17.19359
G1 X226.692 Y101.544 E17.20427
;WIDTH:0.43845
G1 X226.429 Y101.679 E17.21399
;WIDTH:0.399999
G1 X226.355 Y101.774 E17.21757
G1 X226.355 Y101.774 F6000
G1 X226.956 Y101.41
;WIDTH:0.4769
G1 F1470
G1 X227.179 Y101.4 E17.22563
;WIDTH:0.457526
G1 X231.221 Y101.4 E17.36498
G1 E12.36498 F2400
G92 E0
G1 X231.221 Y101.4 F6000
G1 X226.563 Y102.067
G1 E5 F2400
;WIDTH:0.399999
G1 F2100
G1 X226.355 Y102.335 E5.01007
G1 X226.286 Y102.679 E5.02049
G1 X226.286 Y108.986 E5.20775
G1 X13.714 Y108.986 E11.51928
G1 X13.714 Y104.214 E11.66097
G1 X14.686 Y104.214 E11.68983
G1 X14.686 Y107.321 E11.78208
G1 X14.699 Y107.476 E11.7867
G1 X14.893 Y107.893 E11.80036
G1 X15.579 Y108.214 E11.82285
G1 X27.821 Y108.214 E12.18633
G1 X27.976 Y108.201 E12.19095
G1 X28.357 Y108.036 E12.20328
G1 X28.645 Y107.665 E12.21722
G1 X28.714 Y107.321 E12.22764
G1 X28.714 Y101.014 E12.4149
G1 X241.286 Y101.014 E18.72643
G1 X241.286 Y103.4 E18.79727
G1 X241.286 Y105.786 E18.86811
G1 X232.114 Y105.786 E19.14044
G1 X232.114 Y102.679 E19.23269
G1 X232.045 Y102.335 E19.24311
G1 X231.757 Y101.964 E19.25705
G1 X231.221 Y101.786 E19.27382
G1 X227.179 Y101.786 E19.39383
G1 X227.024 Y101.799 E19.39845
G1 X226.643 Y101.964 E19.41078
G1 X226.6 Y102.02 E19.41288
G1 X226.6 Y102.02 F6000
G1 X226.808 Y102.314
G1 F2100
G1 X226.684 Y102.473 E19.41887
G1 X226.643 Y102.679 E19.42511
G1 X226.643 Y109.343 E19.62297
G1 X13.357 Y109.343 E25.9557
G1 X13.357 Y103.857 E26.11859
G1 X15.043 Y103.857 E26.16865
G1 X15.043 Y107.321 E26.2715
G1 X15.167 Y107.664 E26.28233
G1 X15.579 Y107.857 E26.29584
G1 X27.821 Y107.857 E26.65932
G1 X28.143 Y107.75 E26.66939
G1 X28.316 Y107.527 E26.67777
G1 X28.357 Y107.321 E26.68401
G1 X28.357 Y100.657 E26.88187
G1 X241.643 Y100.657 E33.2146
G1 X241.643 Y103.4 E33.29604
G1 X241.643 Y106.143 E33.37748
G1 X231.757 Y106.143 E33.67101
G1 X231.757 Y102.679 E33.77386
G1 X231.716 Y102.473 E33.7801
G1 X231.543 Y102.25 E33.78848
G1 X231.221 Y102.143 E33.79855
G1 X227.179 Y102.143 E33.91856
G1 X226.857 Y102.25 E33.92863
G1 X226.844 Y102.266 E33.92924
G1 X226.844 Y102.266 F6000
G1 X227.054 Y102.571
;TYPE:External perimeter
G1 F1680
G1 X227 Y102.679 E33.93283
G1 X227 Y109.7 E34.14129
G1 X13 Y109.7 E40.49522
G1 X13 Y103.5 E40.67931
G1 X15.4 Y103.5 E40.75057
G1 X15.4 Y107.321 E40.86402
G1 X15.441 Y107.436 E40.86765
G1 X15.579 Y107.5 E40.87217
G1 X27.821 Y107.5 E41.23565
G1 X27.929 Y107.464 E41.23903
G1 X28 Y107.321 E41.24377
G1 X28 Y100.3 E41.45223
G1 X242 Y100.3 E47.80616
G1 X242 Y103.4 E47.8982
G1 X242 Y106.5 E47.99024
G1 X231.4 Y106.5 E48.30497
G1 X231.4 Y102.679 E48.41842
G1 X231.329 Y102.536 E48.42316
G1 X231.221 Y102.5 E48.42654
G1 X227.179 Y102.5 E48.54655
G1 X227.091 Y102.529 E48.5493
G1 X227.008 Y102.92 F6000
G1 X226.149 Y101.874
;TYPE:Solid infill
;WIDTH:0.40007
G1 F1680
G1 X225.914 Y101.639 E48.55917
G1 X225.409 Y101.639 E48.57417
G1 X225.814 Y102.044 E48.59118
G1 X225.777 Y102.091 E48.59296
G1 X225.707 Y102.442 E48.60359
G1 X224.904 Y101.639 E48.63731
G1 X224.399 Y101.639 E48.65231
G1 X225.661 Y102.901 E48.70531
G1 X225.661 Y103.406 E48.72031
G1 X223.894 Y101.639 E48.79452
G1 X223.389 Y101.639 E48.80952
G1 X225.661 Y103.911 E48.90494
G1 X225.661 Y104.416 E48.91994
G1 X222.884 Y101.639 E49.03657
G1 X222.379 Y101.639 E49.05157
G1 X225.661 Y104.921 E49.18941
G1 X225.661 Y105.427 E49.20444
G1 X221.873 Y101.639 E49.36353
G1 X221.368 Y101.639 E49.37853
G1 X225.661 Y105.932 E49.55883
G1 X225.661 Y106.437 E49.57383
G1 X220.863 Y101.639 E49.77534
G1 X220.358 Y101.639 E49.79034
G1 X225.661 Y106.942 E50.01306
G1 X225.661 Y107.447 E50.02806
G1 X219.853 Y101.639 E50.27198
G1 X219.348 Y101.639 E50.28698
G1 X225.661 Y107.952 E50.55211
G1 X225.661 Y108.361 E50.56426
G1 X225.565 Y108.361 E50.56711
G1 X218.843 Y101.639 E50.84942
G1 X218.338 Y101.639 E50.86442
G1 X225.06 Y108.361 E51.14673
G1 X224.555 Y108.361 E51.16173
G1 X217.833 Y101.639 E51.44404
G1 X217.328 Y101.639 E51.45904
G1 X224.05 Y108.361 E51.74135
G1 X223.545 Y108.361 E51.75635
G1 X216.823 Y101.639 E52.03866
G1 X216.317 Y101.639 E52.05369
G1 X223.039 Y108.361 E52.336
G1 X222.534 Y108.361 E52.351
G1 X215.812 Y101.639 E52.63331
G1 X215.307 Y101.639 E52.64831
G1 X222.029 Y108.361 E52.93062
G1 X221.524 Y108.361 E52.94562
G1 X214.802 Y101.639 E53.22793
G1 X214.297 Y101.639 E53.24293
G1 X221.019 Y108.361 E53.52524
G1 X220.514 Y108.361 E53.54024
G1 X213.792 Y101.639 E53.82255
G1 X213.287 Y101.639 E53.83755
G1 X220.009 Y108.361 E54.11986
G1 X219.504 Y108.361 E54.13486
G1 X212.782 Y101.639 E54.41717
G1 X212.277 Y101.639 E54.43217
G1 X218.999 Y108.361 E54.71448
G1 X218.494 Y108.361 E54.72948
G1 X211.772 Y101.639 E55.01179
G1 X211.267 Y101.639 E55.02679
G1 X217.989 Y108.361 E55.3091
G1 X217.483 Y108.361 E55.32413
G1 X210.762 Y101.639 E55.60642
G1 X210.256 Y101.639 E55.62145
G1 X216.978 Y108.361 E55.90376
G1 X216.473 Y108.361 E55.91876
G1 X209.751 Y101.639 E56.20107
G1 X209.246 Y101.639 E56.21607
G1 X215.968 Y108.361 E56.49838
G1 X215.463 Y108.361 E56.51338
G1 X208.741 Y101.639 E56.79569
G1 X208.236 Y101.639 E56.81069
G1 X214.958 Y108.361 E57.093
G1 X214.453 Y108.361 E57.108
G1 X207.731 Y101.639 E57.39031
G1 X207.226 Y101.639 E57.40531
G1 X213.948 Y108.361 E57.68762
G1 X213.443 Y108.361 E57.70262
G1 X206.721 Y101.639 E57.98493
G1 X206.216 Y101.639 E57.99993
G1 X212.938 Y108.361 E58.28224
G1 X212.433 Y108.361 E58.29724
G1 X205.711 Y101.639 E58.57955
G1 X205.206 Y101.639 E58.59455
G1 X211.928 Y108.361 E58.87686
G1 X211.422 Y108.361 E58.89189
G1 X204.701 Y101.639 E59.17418
G1 X204.195 Y101.639 E59.18921
G1 X210.917 Y108.361 E59.47152
G1 X210.412 Y108.361 E59.48652
G1 X203.69 Y101.639 E59.76883
G1 X203.185 Y101.639 E59.78383
G1 X209.907 Y108.361 E60.06614
G1 X209.402 Y108.361 E60.08114
G1 X202.68 Y101.639 E60.36345
G1 X202.175 Y101.639 E60.37845
G1 X208.897 Y108.361 E60.66076
G1 X208.392 Y108.361 E60.67576
G1 X201.67 Y101.639 E60.95807
G1 X201.165 Y101.639 E60.97307
G1 X207.887 Y108.361 E61.25538
G1 X207.382 Y108.361 E61.27038
G1 X200.66 Y101.639 E61.55269
G1 X200.155 Y101.639 E61.56769
G1 X206.877 Y108.361 E61.85
G1 X206.372 Y108.361 E61.865
G1 X199.65 Y101.639 E62.14731
G1 X199.145 Y101.639 E62.16231
G1 X205.866 Y108.361 E62.4446
G1 X205.361 Y108.361 E62.4596
G1 X198.639 Y101.639 E62.74191
G1 X198.134 Y101.639 E62.75691
G1 X204.856 Y108.361 E63.03922
G1 X204.351 Y108.361 E63.05422
G1 X197.629 Y101.639 E63.33653
G1 X197.124 Y101.639 E63.35153
G1 X203.846 Y108.361 E63.63384
G1 X203.341 Y108.361 E63.64884
G1 X196.619 Y101.639 E63.93115
G1 X196.114 Y101.639 E63.94615
G1 X202.836 Y108.361 E64.22846
G1 X202.331 Y108.361 E64.24346
G1 X195.609 Y101.639 E64.52577
G1 X195.104 Y101.639 E64.54077
G1 X201.826 Y108.361 E64.82308
G1 X201.321 Y108.361 E64.83808
G1 X194.599 Y101.639 E65.12039
G1 X194.094 Y101.639 E65.13539
G1 X200.816 Y108.361 E65.4177
G1 X200.311 Y108.361 E65.4327
G1 X193.589 Y101.639 E65.71501
G1 X193.084 Y101.639 E65.73001
G1 X199.805 Y108.361 E66.0123
G1 X199.3 Y108.361 E66.0273
G1 X192.578 Y101.639 E66.30961
G1 X192.073 Y101.639 E66.32461
G1 X198.795 Y108.361 E66.60692
G1 X198.29 Y108.361 E66.62192
G1 X191.568 Y101.639 E66.90423
G1 X191.063 Y101.639 E66.91923
G1 X197.785 Y108.361 E67.20154
G1 X197.28 Y108.361 E67.21654
G1 X190.558 Y101.639 E67.49885
G1 X190.053 Y101.639 E67.51385
G1 X196.775 Y108.361 E67.79616
G1 X196.27 Y108.361 E67.81116
G1 X189.548 Y101.639 E68.09347
G1 X189.043 Y101.639 E68.10847
G1 X195.765 Y108.361 E68.39078
G1 X195.26 Y108.361 E68.40578
G1 X188.538 Y101.639 E68.68809
G1 X188.033 Y101.639 E68.70309
G1 X194.755 Y108.361 E68.9854
G1 X194.249 Y108.361 E69.00043
G1 X187.528 Y101.639 E69.28272
G1 X187.022 Y101.639 E69.29775
G1 X193.744 Y108.361 E69.58006
G1 X193.239 Y108.361 E69.59506
G1 X186.517 Y101.639 E69.87737
G1 X186.012 Y101.639 E69.89237
G1 X192.734 Y108.361 E70.17468
G1 X192.229 Y108.361 E70.18968
G1 X185.507 Y101.639 E70.47199
G1 X185.002 Y101.639 E70.48699
G1 X191.724 Y108.361 E70.7693
G1 X191.219 Y108.361 E70.7843
G1 X184.497 Y101.639 E71.06661
G1 X183.992 Y101.639 E71.08161
G1 X190.714 Y108.361 E71.36392
G1 X190.209 Y108.361 E71.37892
G1 X183.487 Y101.639 E71.66123
G1 X182.982 Y101.639 E71.67623
G1 X189.704 Y108.361 E71.95854
G1 X189.199 Y108.361 E71.97354
G1 X182.477 Y101.639 E72.25585
G1 X181.972 Y101.639 E72.27085
G1 X188.694 Y108.361 E72.55316
G1 X188.188 Y108.361 E72.56819
G1 X181.467 Y101.639 E72.85048
G1 X180.961 Y101.639 E72.86551
G1 X187.683 Y108.361 E73.14782
G1 X187.178 Y108.361 E73.16282
G1 X180.456 Y101.639 E73.44513
G1 X179.951 Y101.639 E73.46013
G1 X186.673 Y108.361 E73.74244
G1 X186.168 Y108.361 E73.75744
G1 X179.446 Y101.639 E74.03975
G1 X178.941 Y101.639 E74.05475
G1 X185.663 Y108.361 E74.33706
G1 X185.158 Y108.361 E74.35206
G1 X178.436 Y101.639 E74.63437
G1 X177.931 Y101.639 E74.64937
G1 X184.653 Y108.361 E74.93168
G1 X184.148 Y108.361 E74.94668
G1 X177.426 Y101.639 E75.22899
G1 X176.921 Y101.639 E75.24399
G1 X183.643 Y108.361 E75.5263
G1 X183.138 Y108.361 E75.5413
G1 X176.416 Y101.639 E75.82361
G1 X175.911 Y101.639 E75.83861
G1 X182.633 Y108.361 E76.12092
G1 X182.127 Y108.361 E76.13595
G1 X175.405 Y101.639 E76.41826
G1 X174.9 Y101.639 E76.43326
G1 X181.622 Y108.361 E76.71557
G1 X181.117 Y108.361 E76.73057
G1 X174.395 Y101.639 E77.01288
G1 X173.89 Y101.639 E77.02788
G1 X180.612 Y108.361 E77.31019
G1 X180.107 Y108.361 E77.32519
G1 X173.385 Y101.639 E77.6075
G1 X172.88 Y101.639 E77.6225
G1 X179.602 Y108.361 E77.90481
G1 X179.097 Y108.361 E77.91981
G1 X172.375 Y101.639 E78.20212
G1 X171.87 Y101.639 E78.21712
G1 X178.592 Y108.361 E78.49943
G1 X178.087 Y108.361 E78.51443
G1 X171.365 Y101.639 E78.79674
G1 X170.86 Y101.639 E78.81174
G1 X177.582 Y108.361 E79.09405
G1 X177.077 Y108.361 E79.10905
G1 X170.355 Y101.639 E79.39136
G1 X169.85 Y101.639 E79.40636
G1 X176.571 Y108.361 E79.68865
G1 X176.066 Y108.361 E79.70365
G1 X169.344 Y101.639 E79.98596
G1 X168.839 Y101.639 E80.00096
G1 X175.561 Y108.361 E80.28327
G1 X175.056 Y108.361 E80.29827
G1 X168.334 Y101.639 E80.58058
G1 X167.829 Y101.639 E80.59558
G1 X174.551 Y108.361 E80.87789
G1 X174.046 Y108.361 E80.89289
G1 X167.324 Y101.639 E81.1752
G1 X166.819 Y101.639 E81.1902
G1 X173.541 Y108.361 E81.47251
G1 X173.036 Y108.361 E81.48751
G1 X166.314 Y101.639 E81.76982
