; generated by PrusaSlicer 2.9.0 on 2026-04-08 at 19:53:25 UTC

; 

; external perimeters extrusion width = 0.45mm
; perimeters extrusion width = 0.45mm
; infill extrusion width = 0.45mm
; solid infill extrusion width = 0.45mm
; top infill extrusion width = 0.40mm
; first layer extrusion width = 0.40mm

M190 S80 ; set bed temperature and wait for it to be reached
M104 S235 ; set temperature
;TYPE:Custom
G28 ; home all axes
G1 Z5 F5000 ; lift nozzle
M109 S235 ; set temperature and wait for it to be reached
G21 ; set units to millimeters
G90 ; use absolute coordinates
M82 ; use absolute distances for extrusion
G92 E0
; Filament gcode
M107
;LAYER_CHANGE
;Z:0.2
;HEIGHT:0.2
G1 E-5 F2400
G1 Z.2 F6000
G1 X83.036 Y87.98
G1 E.00001 F2400
;TYPE:Skirt/Brim
;WIDTH:0.4
G1 F2520
G1 X84.009 Y87.329 E.03476
G1 X85.309 Y86.791 E.07653
G1 X86.875 Y86.505 E.1238
G1 X137.099 Y82.505 E1.61974
G1 X165.925 Y82.493 E2.47562
G1 X166.903 Y82.628 E2.50493
G1 X168.322 Y83.053 E2.54891
G1 X169.644 Y83.969 E2.59666
G1 X170.459 Y84.866 E2.63264
G1 X170.94 Y85.593 E2.65852
G1 X172.387 Y88.487 E2.75459
G1 X172.768 Y90.1 E2.8038
G1 X172.768 Y119.9 E3.6886
G1 X172.387 Y121.513 E3.73781
G1 X170.94 Y124.407 E3.83388
G1 X170.459 Y125.134 E3.85976
G1 X169.644 Y126.031 E3.89574
G1 X168.322 Y126.947 E3.94349
G1 X166.923 Y127.369 E3.98688
G1 X165.937 Y127.506 E4.01644
G1 X137.111 Y127.495 E4.87232
G1 X86.875 Y123.495 E6.36861
G1 X85.309 Y123.209 E6.41588
G1 X84.009 Y122.671 E6.45765
G1 X83.036 Y122.02 E6.49241
G1 X82.041 Y121.025 E6.53419
G1 X81.39 Y120.052 E6.56895
G1 X80.852 Y118.752 E6.61072
G1 X80.554 Y116.9 E6.66642
G1 X80.554 Y93.1 E7.37307
G1 X80.852 Y91.248 E7.42877
G1 X81.39 Y89.948 E7.47054
G1 X82.041 Y88.975 E7.5053
G1 X82.993 Y88.022 E7.5453
G1 X82.993 Y88.022 F6000
G1 X83.234 Y88.277
G1 F2520
G1 X84.208 Y87.626 E7.58008
G1 X85.379 Y87.141 E7.61771
G1 X86.903 Y86.86 E7.66372
G1 X137.127 Y82.861 E9.15966
G1 X165.925 Y82.85 E10.01471
G1 X166.806 Y82.972 E10.04112
G1 X168.189 Y83.385 E10.08397
G1 X169.38 Y84.21 E10.12699
G1 X170.187 Y85.098 E10.16262
G1 X170.621 Y85.752 E10.18592
G1 X172.068 Y88.647 E10.28202
G1 X172.411 Y90.1 E10.32635
G1 X172.411 Y119.9 E11.21115
G1 X172.068 Y121.353 E11.25548
G1 X170.621 Y124.248 E11.35158
G1 X170.187 Y124.902 E11.37488
G1 X169.38 Y125.79 E11.41051
G1 X168.189 Y126.615 E11.45353
G1 X166.825 Y127.025 E11.49582
G1 X165.937 Y127.149 E11.52244
G1 X137.139 Y127.14 E12.37749
G1 X86.903 Y123.14 E13.87378
G1 X85.379 Y122.859 E13.91979
G1 X84.208 Y122.374 E13.95742
G1 X83.234 Y121.723 E13.9922
G1 X82.338 Y120.827 E14.02982
G1 X81.687 Y119.854 E14.06458
G1 X81.202 Y118.682 E14.10224
G1 X80.911 Y116.9 E14.15585
G1 X80.911 Y93.1 E14.8625
G1 X81.202 Y91.318 E14.91611
G1 X81.687 Y90.146 E14.95377
G1 X82.338 Y89.173 E14.98853
G1 X83.192 Y88.319 E15.02439
G1 X83.192 Y88.319 F6000
G1 X83.432 Y88.574
G1 F2520
G1 X84.406 Y87.923 E15.05917
G1 X85.449 Y87.491 E15.09269
G1 X86.931 Y87.216 E15.13744
G1 X137.156 Y83.217 E16.6334
G1 X165.925 Y83.207 E17.48759
G1 X166.709 Y83.316 E17.51109
G1 X168.056 Y83.716 E17.55281
G1 X169.117 Y84.451 E17.59113
G1 X169.916 Y85.329 E17.62638
G1 X170.301 Y85.912 E17.64712
G1 X171.748 Y88.806 E17.74319
G1 X172.054 Y90.1 E17.78267
G1 X172.054 Y119.9 E18.66747
G1 X171.748 Y121.194 E18.70695
G1 X170.301 Y124.088 E18.80302
G1 X169.916 Y124.671 E18.82376
G1 X169.117 Y125.549 E18.85901
G1 X168.056 Y126.284 E18.89733
G1 X166.727 Y126.682 E18.93852
G1 X165.937 Y126.792 E18.9622
G1 X137.168 Y126.784 E19.81639
G1 X86.931 Y122.784 E21.31271
G1 X85.449 Y122.509 E21.35746
G1 X84.406 Y122.077 E21.39098
G1 X83.433 Y121.426 E21.42574
G1 X82.635 Y120.628 E21.45925
G1 X81.984 Y119.655 E21.49401
G1 X81.552 Y118.612 E21.52753
G1 X81.268 Y116.9 E21.57906
G1 X81.268 Y93.1 E22.28571
G1 X81.552 Y91.388 E22.33724
G1 X81.984 Y90.345 E22.37076
G1 X82.635 Y89.372 E22.40552
G1 X83.39 Y88.616 E22.43724
G1 X83.631 Y88.871 F6000
G1 F2520
G1 X84.604 Y88.22 E22.472
G1 X85.518 Y87.841 E22.50138
G1 X86.96 Y87.572 E22.54493
G1 X137.184 Y83.573 E24.04087
G1 X165.925 Y83.564 E24.89423
G1 X166.612 Y83.659 E24.91482
G1 X167.924 Y84.048 E24.95545
G1 X168.853 Y84.692 E24.98901
G1 X169.644 Y85.561 E25.0239
G1 X169.982 Y86.072 E25.04209
G1 X171.429 Y88.966 E25.13816
G1 X171.697 Y90.1 E25.17276
G1 X171.697 Y119.9 E26.05756
G1 X171.429 Y121.034 E26.09216
G1 X169.982 Y123.928 E26.18823
G1 X169.644 Y124.439 E26.20642
G1 X168.853 Y125.308 E26.24131
G1 X167.924 Y125.952 E26.27487
G1 X166.63 Y126.338 E26.31496
G1 X165.937 Y126.435 E26.33574
G1 X137.196 Y126.428 E27.1891
G1 X86.96 Y122.428 E28.68539
G1 X85.518 Y122.159 E28.72894
G1 X84.604 Y121.78 E28.75832
G1 X83.631 Y121.13 E28.79306
G1 X82.931 Y120.43 E28.82245
G1 X82.281 Y119.457 E28.85719
G1 X81.903 Y118.543 E28.88656
G1 X81.625 Y116.9 E28.93604
G1 X81.625 Y93.1 E29.64269
G1 X81.903 Y91.457 E29.69217
G1 X82.281 Y90.543 E29.72154
G1 X82.931 Y89.57 E29.75628
G1 X83.588 Y88.913 E29.78387
G1 X83.588 Y88.913 F6000
G1 X83.829 Y89.167
G1 F2520
G1 X84.803 Y88.517 E29.81864
G1 X85.588 Y88.192 E29.84387
G1 X86.988 Y87.928 E29.88617
G1 X137.248 Y83.927 E31.38318
G1 X166.074 Y83.927 E32.23906
G1 X167.791 Y84.379 E32.29178
G1 X168.59 Y84.932 E32.32063
G1 X169.344 Y85.76 E32.35388
G1 X169.662 Y86.231 E32.37075
G1 X171.11 Y89.126 E32.46686
G1 X171.34 Y90.1 E32.49657
G1 X171.34 Y119.9 E33.38137
G1 X171.11 Y120.874 E33.41108
G1 X169.662 Y123.769 E33.50719
G1 X169.372 Y124.207 E33.52279
G1 X168.59 Y125.068 E33.55732
G1 X167.791 Y125.62 E33.58615
G1 X166.532 Y125.995 E33.62515
G1 X165.925 Y126.079 E33.64334
G1 X137.212 Y126.071 E34.49587
G1 X86.988 Y122.072 E35.99181
G1 X85.588 Y121.808 E36.03411
G1 X84.803 Y121.483 E36.05934
G1 X83.829 Y120.833 E36.09411
G1 X83.228 Y120.232 E36.11935
G1 X82.578 Y119.258 E36.15412
G1 X82.253 Y118.473 E36.17935
G1 X81.983 Y116.9 E36.22674
G1 X81.983 Y93.1 E36.93339
G1 X82.253 Y91.527 E36.98078
G1 X82.578 Y90.742 E37.00601
G1 X83.228 Y89.768 E37.04078
G1 X83.787 Y89.21 E37.06423
G1 E32.06423 F2400
G92 E0
G1 X83.787 Y89.21 F6000
G92 E0
G1 X146.35 Y92.794
G1 E5 F2400
;TYPE:External perimeter
;WIDTH:0.399998
G1 F1680
G1 X146.385 Y92.811 E5.00116
G1 X146.421 Y92.919 E5.00454
G1 X146.421 Y117.081 E5.72194
G1 X146.36 Y117.216 E5.72634
G1 X146.243 Y117.26 E5.73005
G1 X135.08 Y117.26 E6.06149
G1 X134.978 Y117.228 E6.06466
G1 X134.901 Y117.081 E6.06959
G1 X134.901 Y112.043 E6.21917
;WIDTH:0.444478
G1 X134.88 Y111.246 E6.24579
;WIDTH:0.441459
G1 X134.88 Y98.762 E6.65949
G1 X134.901 Y97.965 E6.68591
;WIDTH:0.399999
G1 X134.901 Y92.919 E6.83573
G1 X134.978 Y92.772 E6.84066
;WIDTH:0.399998
G1 X135.08 Y92.74 E6.84383
G1 X146.243 Y92.74 E7.17527
G1 X146.297 Y92.767 E7.17706
G1 X146.416 Y93.149 F6000
G1 E2.17706 F2400
G92 E0
G1 X151.021 Y101.697 F6000
G1 E5 F2400
;TYPE:Perimeter
;WIDTH:0.399999
G1 F1470
G1 X151.117 Y101.547 E5.00529
G1 X152.026 Y100.499 E5.04648
G1 X152.294 Y100.266 E5.05702
G1 X153.461 Y99.516 E5.09821
G1 X153.785 Y99.368 E5.10879
G1 X155.116 Y98.978 E5.14997
G1 X155.468 Y98.927 E5.16053
G1 X156.855 Y98.927 E5.20171
G1 X157.207 Y98.978 E5.21227
G1 X158.537 Y99.368 E5.25342
G1 X158.861 Y99.516 E5.264
G1 X160.028 Y100.266 E5.30519
G1 X160.297 Y100.499 E5.31576
G1 X161.205 Y101.547 E5.35693
G1 X161.397 Y101.846 E5.36748
G1 X161.973 Y103.108 E5.40867
G1 X162.073 Y103.449 E5.41922
G1 X162.271 Y104.822 E5.46041
G1 X162.271 Y105.178 E5.47098
G1 X162.073 Y106.551 E5.51217
G1 X161.973 Y106.892 E5.52272
G1 X161.397 Y108.154 E5.56391
G1 X161.205 Y108.453 E5.57446
G1 X160.297 Y109.501 E5.61563
G1 X160.028 Y109.734 E5.6262
G1 X158.861 Y110.484 E5.66739
G1 X158.537 Y110.632 E5.67797
G1 X157.207 Y111.022 E5.71912
G1 X156.855 Y111.073 E5.72968
G1 X155.468 Y111.073 E5.77086
G1 X155.116 Y111.022 E5.78142
G1 X153.785 Y110.632 E5.8226
G1 X153.461 Y110.484 E5.83318
G1 X152.294 Y109.734 E5.87437
G1 X152.026 Y109.501 E5.88491
G1 X151.117 Y108.453 E5.9261
G1 X150.925 Y108.154 E5.93665
G1 X150.349 Y106.892 E5.97784
G1 X150.249 Y106.551 E5.98839
G1 X150.051 Y105.178 E6.02958
G1 X150.051 Y104.822 E6.04015
G1 X150.249 Y103.449 E6.08134
G1 X150.349 Y103.108 E6.09189
G1 X150.925 Y101.846 E6.13308
G1 X150.989 Y101.747 E6.13658
G1 X150.989 Y101.747 F6000
G1 X151.319 Y101.888
G1 F1470
G1 X151.387 Y101.781 E6.14034
G1 X152.295 Y100.733 E6.18151
G1 X152.487 Y100.566 E6.18907
G1 X153.654 Y99.817 E6.23024
G1 X153.885 Y99.711 E6.23779
G1 X155.216 Y99.32 E6.27898
G1 X155.468 Y99.284 E6.28654
G1 X156.855 Y99.284 E6.32772
G1 X157.106 Y99.32 E6.33525
G1 X158.437 Y99.711 E6.37644
G1 X158.668 Y99.817 E6.38399
G1 X159.835 Y100.566 E6.42516
G1 X160.027 Y100.733 E6.43272
G1 X160.935 Y101.781 E6.47389
G1 X161.072 Y101.995 E6.48143
G1 X161.648 Y103.256 E6.52259
G1 X161.72 Y103.5 E6.53014
G1 X161.917 Y104.873 E6.57132
G1 X161.917 Y105.127 E6.57886
G1 X161.72 Y106.5 E6.62004
G1 X161.648 Y106.744 E6.62759
G1 X161.072 Y108.005 E6.66875
G1 X160.935 Y108.219 E6.67629
G1 X160.027 Y109.267 E6.71746
G1 X159.835 Y109.434 E6.72502
G1 X158.668 Y110.183 E6.76619
G1 X158.437 Y110.289 E6.77374
G1 X157.106 Y110.68 E6.81493
G1 X156.855 Y110.716 E6.82246
G1 X155.468 Y110.716 E6.86364
G1 X155.216 Y110.68 E6.8712
G1 X153.885 Y110.289 E6.91239
G1 X153.654 Y110.183 E6.91994
G1 X152.487 Y109.434 E6.96111
G1 X152.295 Y109.267 E6.96867
G1 X151.387 Y108.219 E7.00984
G1 X151.25 Y108.005 E7.01738
G1 X150.674 Y106.744 E7.05854
G1 X150.602 Y106.5 E7.06609
G1 X150.405 Y105.127 E7.10727
G1 X150.405 Y104.873 E7.11481
G1 X150.602 Y103.5 E7.15599
G1 X150.674 Y103.256 E7.16354
G1 X151.25 Y101.995 E7.2047
G1 X151.286 Y101.938 E7.2067
G1 X151.286 Y101.938 F6000
G1 X151.616 Y102.079
G1 F1470
G1 X151.657 Y102.015 E7.20896
G1 X152.565 Y100.967 E7.25013
G1 X152.681 Y100.867 E7.25468
G1 X153.847 Y100.117 E7.29584
G1 X153.986 Y100.054 E7.30037
G1 X155.317 Y99.663 E7.34156
G1 X155.468 Y99.641 E7.34609
G1 X156.855 Y99.641 E7.38727
G1 X157.005 Y99.663 E7.39177
G1 X158.336 Y100.054 E7.43296
G1 X158.475 Y100.117 E7.43749
G1 X159.642 Y100.867 E7.47868
G1 X159.757 Y100.967 E7.4832
G1 X160.665 Y102.015 E7.52437
G1 X160.747 Y102.143 E7.52888
G1 X161.324 Y103.405 E7.57008
G1 X161.367 Y103.551 E7.5746
G1 X161.564 Y104.924 E7.61578
G1 X161.564 Y105.076 E7.62029
G1 X161.367 Y106.449 E7.66147
G1 X161.324 Y106.595 E7.66599
G1 X160.747 Y107.857 E7.70719
G1 X160.665 Y107.985 E7.7117
G1 X159.757 Y109.033 E7.75287
G1 X159.642 Y109.133 E7.75739
G1 X158.475 Y109.883 E7.79858
G1 X158.336 Y109.946 E7.80311
G1 X157.005 Y110.337 E7.8443
G1 X156.855 Y110.359 E7.8488
G1 X155.468 Y110.359 E7.88998
G1 X155.317 Y110.337 E7.89451
G1 X153.986 Y109.946 E7.9357
G1 X153.847 Y109.883 E7.94023
G1 X152.681 Y109.133 E7.98139
G1 X152.565 Y109.033 E7.98594
G1 X151.657 Y107.985 E8.02711
G1 X151.575 Y107.857 E8.03162
G1 X150.999 Y106.595 E8.07281
G1 X150.956 Y106.449 E8.07733
G1 X150.758 Y105.076 E8.11852
G1 X150.758 Y104.924 E8.12303
G1 X150.956 Y103.551 E8.16422
G1 X150.999 Y103.405 E8.16874
G1 X151.575 Y102.143 E8.20993
G1 X151.583 Y102.129 E8.21041
G1 X151.583 Y102.129 F6000
G1 X151.917 Y102.272
;TYPE:External perimeter
G1 F1470
G1 X151.927 Y102.249 E8.21115
G1 X152.874 Y101.167 E8.25384
G1 X154.04 Y100.417 E8.295
G1 X155.468 Y99.998 E8.33919
G1 X156.905 Y100.006 E8.38186
G1 X158.282 Y100.417 E8.42453
G1 X159.449 Y101.167 E8.46572
G1 X160.395 Y102.249 E8.50839
G1 X161.013 Y103.602 E8.55255
G1 X161.211 Y104.975 E8.59374
G1 X161.013 Y106.398 E8.6364
G1 X160.395 Y107.751 E8.68056
G1 X159.487 Y108.799 E8.72173
G1 X158.282 Y109.583 E8.76441
G1 X156.905 Y109.994 E8.80708
G1 X155.417 Y109.994 E8.85126
G1 X154.04 Y109.583 E8.89393
G1 X152.874 Y108.833 E8.93509
G1 X151.927 Y107.751 E8.97778
G1 X151.309 Y106.398 E9.02194
G1 X151.112 Y104.975 E9.06459
G1 X151.309 Y103.602 E9.10577
G1 X151.892 Y102.326 E9.14742
G1 X152.139 Y102.012 F6000
G1 E4.14742 F2400
G92 E0
G1 X151.957 Y101.854 F6000
G1 X146.657 Y105.151
G1 X146.657 Y117.496
G1 X134.665 Y117.496
G1 X133.83 Y112.495
G1 E5 F2400
;TYPE:Perimeter
G1 F2100
G1 X133.83 Y117.081 E5.13616
G1 X133.933 Y117.579 E5.15126
G1 X134.368 Y118.108 E5.1716
;WIDTH:0.397961
G1 X134.606 Y118.233 E5.17954
G1 X135.08 Y118.33 E5.19382
;WIDTH:0.399999
G1 X146.243 Y118.331 E5.52526
G1 X146.458 Y118.312 E5.53167
G1 X146.831 Y118.184 E5.54338
G1 X147.064 Y118.023 E5.55179
G1 X147.242 Y117.831 E5.55956
G1 X147.442 Y117.431 E5.57284
G1 X147.492 Y117.081 E5.58334
G1 X147.492 Y93.356 E6.28776
G1 X147.481 Y92.753 E6.30567
G1 X147.366 Y92.371 E6.31751
G1 X147.064 Y91.977 E6.33225
G1 X146.831 Y91.816 E6.34066
G1 X146.55 Y91.707 E6.34961
G1 X146.243 Y91.669 E6.35879
G1 X135.903 Y91.669 E6.6658
G1 X134.813 Y91.703 E6.69818
;WIDTH:0.397961
G1 X134.368 Y91.892 E6.71245
;WIDTH:0.399999
G1 X133.933 Y92.421 E6.73279
G1 X133.83 Y92.919 E6.74789
G1 X133.83 Y97.512 E6.88426
G1 X85.532 Y97.512 E8.31829
G1 X85.532 Y93.235 E8.44528
G1 X85.681 Y92.487 E8.46793
G1 X86.028 Y91.967 E8.48649
G1 X86.548 Y91.62 E8.50505
G1 X87.296 Y91.471 E8.5277
G1 X134.236 Y91.47 E9.92141
;WIDTH:0.397961
G1 X134.503 Y91.437 E9.92935
G1 X134.948 Y91.248 E9.94362
;WIDTH:0.399999
G1 X135.354 Y90.78 E9.96202
G1 X136.75 Y87.987 E10.05473
G1 X137.095 Y87.61 E10.0699
G1 X137.58 Y87.471 E10.08488
G1 X165.742 Y87.471 E10.92104
G1 X166.227 Y87.61 E10.93602
G1 X166.572 Y87.987 E10.95119
G1 X167.79 Y90.424 E11.03208
G1 X167.79 Y91.336 E11.05916
G1 X167.79 Y119.576 E11.89764
G1 X166.573 Y122.009 E11.97841
G1 X166.219 Y122.394 E11.99394
G1 X165.743 Y122.529 E12.00863
G1 X137.58 Y122.529 E12.84482
G1 X137.095 Y122.39 E12.8598
G1 X136.75 Y122.012 E12.875
G1 X135.354 Y119.22 E12.96768
G1 X134.948 Y118.752 E12.98608
;WIDTH:0.397961
G1 X134.71 Y118.627 E12.99402
G1 X134.236 Y118.53 E13.0083
;WIDTH:0.399999
G1 X87.296 Y118.529 E14.40201
G1 X86.548 Y118.38 E14.42466
G1 X86.028 Y118.033 E14.44322
G1 X85.681 Y117.513 E14.46178
G1 X85.532 Y116.765 E14.48443
G1 X85.532 Y112.495 E14.61121
G1 X133.77 Y112.495 E16.04346
G1 X133.77 Y112.495 F6000
G1 X134.187 Y112.138
G1 F2100
G1 X134.187 Y117.081 E16.19022
G1 X134.261 Y117.437 E16.20102
G1 X134.571 Y117.815 E16.21553
G1 X134.74 Y117.907 E16.22124
G1 X135.08 Y117.974 E16.23153
G1 X146.243 Y117.974 E16.56297
G1 X146.397 Y117.961 E16.56756
G1 X146.663 Y117.869 E16.57592
G1 X146.957 Y117.617 E16.58742
G1 X147.1 Y117.331 E16.59691
G1 X147.135 Y117.081 E16.60441
G1 X147.127 Y92.8 E17.32534
G1 X147.045 Y92.527 E17.3338
G1 X146.83 Y92.246 E17.34431
G1 X146.462 Y92.053 E17.35665
G1 X146.243 Y92.026 E17.3632
G1 X135.903 Y92.026 E17.67021
G1 X134.888 Y92.047 E17.70035
G1 X134.571 Y92.185 E17.71062
G1 X134.261 Y92.563 E17.72513
G1 X134.187 Y92.919 E17.73593
G1 X134.187 Y97.869 E17.8829
G1 X85.175 Y97.869 E19.33813
G1 X85.175 Y93.2 E19.47676
G1 X85.345 Y92.348 E19.50256
G1 X85.771 Y91.71 E19.52534
G1 X86.409 Y91.284 E19.54812
G1 X87.261 Y91.114 E19.57392
G1 X133.309 Y91.114 E20.94114
G1 X134.427 Y91.093 E20.97434
G1 X134.745 Y90.955 E20.98463
G1 X135.035 Y90.621 E20.99776
G1 X136.453 Y87.783 E21.09196
G1 X136.899 Y87.294 E21.11161
G1 X137.53 Y87.114 E21.13109
G1 X165.792 Y87.114 E21.97022
G1 X166.423 Y87.294 E21.9897
G1 X166.869 Y87.783 E22.00935
G1 X168.147 Y90.339 E22.0942
G1 X168.147 Y91.336 E22.1238
G1 X168.147 Y119.661 E22.9648
G1 X166.87 Y122.214 E23.04956
G1 X166.413 Y122.71 E23.06958
G1 X165.793 Y122.886 E23.08872
G1 X137.53 Y122.886 E23.92788
G1 X136.899 Y122.706 E23.94736
G1 X136.453 Y122.217 E23.96701
G1 X135.035 Y119.379 E24.06121
G1 X134.745 Y119.045 E24.07434
G1 X134.576 Y118.953 E24.08005
G1 X134.236 Y118.886 E24.09034
G1 X87.261 Y118.886 E25.48509
G1 X86.409 Y118.716 E25.51089
G1 X85.771 Y118.29 E25.53367
G1 X85.345 Y117.652 E25.55645
G1 X85.175 Y116.8 E25.58225
G1 X85.175 Y112.138 E25.72067
G1 X134.127 Y112.138 E27.17412
G1 X134.127 Y112.138 F6000
G1 X134.544 Y111.562
G1 F2100
G1 X134.544 Y117.081 E27.33799
G1 X134.588 Y117.295 E27.34448
G1 X134.774 Y117.522 E27.35319
G1 X134.876 Y117.577 E27.35663
G1 X135.08 Y117.617 E27.3628
G1 X146.243 Y117.617 E27.69424
G1 X146.335 Y117.609 E27.69698
G1 X146.595 Y117.485 E27.70553
G1 X146.724 Y117.316 E27.71184
G1 X146.778 Y117.081 E27.719
G1 X146.773 Y92.847 E28.43854
G1 X146.671 Y92.597 E28.44656
G1 X146.495 Y92.446 E28.45345
