; generated by PrusaSlicer 2.9.0 on 2026-04-10 at 02:01:51 UTC

; 

; external perimeters extrusion width = 0.45mm
; perimeters extrusion width = 0.45mm
; infill extrusion width = 0.45mm
; solid infill extrusion width = 0.45mm
; top infill extrusion width = 0.40mm
; first layer extrusion width = 0.20mm

M190 S80 ; set bed temperature and wait for it to be reached
M104 S235 ; set temperature
;TYPE:Custom
G28 ; home all axes
G1 Z5 F5000 ; lift nozzle
M109 S235 ; set temperature and wait for it to be reached
G21 ; set units to millimeters
G90 ; use absolute coordinates
M82 ; use absolute distances for extrusion
G92 E0
; Filament gcode
M107
;LAYER_CHANGE
;Z:0.1
;HEIGHT:0.1
G1 E-5 F2400
G1 Z.1 F6000
G1 X66.866 Y66.866
G1 E.00001 F2400
;TYPE:Skirt/Brim
;WIDTH:0.2
G1 F2520
G1 X77.686 Y56.046 E.11358
G1 X78.219 Y55.609 E.1187
G1 X79.192 Y54.958 E.12739
G1 X80.46 Y54.433 E.13758
G1 X81.608 Y54.205 E.14627
G1 X82.981 Y54.205 E.15646
G1 X84.129 Y54.433 E.16515
G1 X85.397 Y54.958 E.17534
G1 X86.698 Y55.857 E.18708
G1 X125.044 Y88.546 E.5611
G1 X145.426 Y108.912 E.77498
G1 X146.009 Y109.683 E.78215
G1 X146.697 Y110.953 E.79287
G1 X146.986 Y112.515 E.80466
G1 X146.928 Y113.726 E.81366
G1 X146.759 Y114.559 E.81997
G1 X145.736 Y117.629 E.84399
G1 X144.886 Y119.004 E.85599
G1 X123.814 Y140.075 E1.07719
G1 X122.439 Y140.925 E1.08919
G1 X119.369 Y141.948 E1.11321
G1 X118.537 Y142.118 E1.11951
G1 X117.326 Y142.175 E1.12851
G1 X115.764 Y141.886 E1.1403
G1 X114.502 Y141.204 E1.15095
G1 X113.727 Y140.619 E1.15816
G1 X93.361 Y120.238 E1.37203
G1 X60.667 Y81.887 E1.74611
G1 X59.769 Y80.586 E1.75784
G1 X59.244 Y79.318 E1.76803
G1 X59.015 Y78.17 E1.77672
G1 X59.015 Y76.798 E1.7869
G1 X59.244 Y75.65 E1.79559
G1 X59.769 Y74.382 E1.80578
G1 X60.857 Y72.875 E1.81958
G1 X66.824 Y66.908 E1.88222
G1 X66.824 Y66.908 F6000
G1 X66.95 Y67.035
G1 F2520
G1 X77.812 Y56.172 E1.99625
G1 X78.318 Y55.757 E2.00111
G1 X79.291 Y55.107 E2.0098
G1 X80.495 Y54.608 E2.01947
G1 X81.643 Y54.38 E2.02816
G1 X82.946 Y54.38 E2.03783
G1 X84.094 Y54.608 E2.04652
G1 X85.298 Y55.107 E2.05619
G1 X86.582 Y55.992 E2.06777
G1 X124.928 Y88.682 E2.4418
G1 X145.3 Y109.038 E2.65557
G1 X145.853 Y109.77 E2.66238
G1 X146.533 Y111.023 E2.67296
G1 X146.807 Y112.507 E2.68416
G1 X146.75 Y113.712 E2.69311
G1 X146.59 Y114.502 E2.69909
G1 X145.566 Y117.572 E2.72311
G1 X144.76 Y118.877 E2.7345
G1 X123.688 Y139.949 E2.9557
G1 X122.383 Y140.756 E2.96709
G1 X119.313 Y141.779 E2.99111
G1 X118.522 Y141.94 E2.9971
G1 X117.318 Y141.997 E3.00605
G1 X115.834 Y141.722 E3.01725
G1 X114.589 Y141.048 E3.02776
G1 X113.853 Y140.493 E3.0346
G1 X93.497 Y120.122 E3.24836
G1 X60.803 Y81.771 E3.62244
G1 X59.917 Y80.487 E3.63402
G1 X59.419 Y79.283 E3.64369
G1 X59.19 Y78.135 E3.65238
G1 X59.19 Y76.833 E3.66204
G1 X59.419 Y75.684 E3.67074
G1 X59.917 Y74.481 E3.6804
G1 X60.983 Y73.002 E3.69393
G1 X66.907 Y67.077 E3.75612
G1 X66.907 Y67.077 F6000
G1 X67.034 Y67.203
G1 F2520
G1 X77.938 Y56.299 E3.87058
G1 X78.417 Y55.906 E3.87518
G1 X79.39 Y55.255 E3.88387
G1 X80.53 Y54.783 E3.89303
G1 X81.678 Y54.555 E3.90172
G1 X82.911 Y54.555 E3.91087
G1 X84.059 Y54.783 E3.91956
G1 X85.198 Y55.255 E3.92871
G1 X86.466 Y56.128 E3.94014
G1 X124.812 Y88.818 E4.31417
G1 X145.173 Y109.165 E4.52784
G1 X145.697 Y109.857 E4.53428
G1 X146.369 Y111.094 E4.54473
G1 X146.629 Y112.499 E4.55534
G1 X146.572 Y113.698 E4.56425
G1 X146.42 Y114.446 E4.56992
G1 X145.397 Y117.516 E4.59394
G1 X144.633 Y118.751 E4.60472
G1 X123.562 Y139.823 E4.82592
G1 X122.326 Y140.586 E4.8367
G1 X119.256 Y141.61 E4.86072
G1 X118.508 Y141.762 E4.86639
G1 X117.31 Y141.818 E4.87529
G1 X115.904 Y141.558 E4.8859
G1 X114.675 Y140.893 E4.89627
G1 X113.98 Y140.367 E4.90274
G1 X93.633 Y120.006 E5.11641
G1 X60.939 Y81.656 E5.49048
G1 X60.066 Y80.388 E5.50191
G1 X59.594 Y79.249 E5.51106
G1 X59.365 Y78.101 E5.51975
G1 X59.365 Y76.867 E5.52891
G1 X59.594 Y75.719 E5.5376
G1 X60.066 Y74.58 E5.54675
G1 X61.109 Y73.128 E5.56002
G1 X66.991 Y67.246 E5.62177
G1 X66.991 Y67.246 F6000
G1 X67.117 Y67.372
G1 F2520
G1 X78.065 Y56.425 E5.73669
G1 X78.516 Y56.054 E5.74102
G1 X79.49 Y55.404 E5.74971
G1 X80.565 Y54.958 E5.75835
G1 X81.713 Y54.73 E5.76704
G1 X82.876 Y54.73 E5.77567
G1 X84.024 Y54.958 E5.78436
G1 X85.099 Y55.404 E5.793
G1 X86.35 Y56.264 E5.80427
G1 X124.696 Y88.954 E6.1783
G1 X145.047 Y109.291 E6.39186
G1 X145.541 Y109.944 E6.39794
G1 X146.204 Y111.164 E6.40825
G1 X146.45 Y112.491 E6.41827
G1 X146.394 Y113.683 E6.42713
G1 X146.251 Y114.389 E6.43248
G1 X145.227 Y117.459 E6.4565
G1 X144.507 Y118.625 E6.46667
G1 X123.435 Y139.697 E6.68787
G1 X122.27 Y140.417 E6.69804
G1 X119.2 Y141.44 E6.72206
G1 X118.494 Y141.584 E6.72741
G1 X117.302 Y141.64 E6.73627
G1 X115.974 Y141.394 E6.7463
G1 X114.762 Y140.737 E6.75653
G1 X114.106 Y140.241 E6.76263
G1 X93.768 Y119.89 E6.9762
G1 X61.075 Y81.54 E7.35027
G1 X60.214 Y80.289 E7.36154
G1 X59.769 Y79.214 E7.37018
G1 X59.541 Y78.066 E7.37887
G1 X59.541 Y76.902 E7.38751
G1 X59.769 Y75.754 E7.3962
G1 X60.214 Y74.679 E7.40484
G1 X61.235 Y73.254 E7.41785
G1 X67.075 Y67.414 E7.47916
G1 X67.075 Y67.414 F6000
G1 X67.201 Y67.541
G1 F2520
G1 X78.191 Y56.551 E7.59453
G1 X78.616 Y56.202 E7.59861
G1 X79.589 Y55.552 E7.6073
G1 X80.599 Y55.134 E7.61541
G1 X81.747 Y54.905 E7.6241
G1 X82.841 Y54.905 E7.63222
G1 X83.989 Y55.134 E7.64091
G1 X85 Y55.552 E7.64903
G1 X86.234 Y56.4 E7.66014
G1 X124.581 Y89.09 E8.03417
G1 X144.921 Y109.417 E8.24762
G1 X145.386 Y110.032 E8.25334
G1 X146.04 Y111.234 E8.2635
G1 X146.272 Y112.483 E8.27293
G1 X146.216 Y113.669 E8.28174
G1 X146.081 Y114.333 E8.28677
G1 X145.058 Y117.403 E8.31079
G1 X144.381 Y118.499 E8.32035
G1 X123.309 Y139.57 E8.54155
G1 X122.213 Y140.248 E8.55112
G1 X119.143 Y141.271 E8.57514
G1 X118.48 Y141.406 E8.58016
G1 X117.294 Y141.462 E8.58897
G1 X116.045 Y141.23 E8.5984
G1 X114.849 Y140.581 E8.6085
G1 X114.232 Y140.114 E8.61424
G1 X93.904 Y119.775 E8.82769
G1 X61.211 Y81.424 E9.20176
G1 X60.363 Y80.189 E9.21288
G1 X59.944 Y79.179 E9.221
G1 X59.716 Y78.031 E9.22969
G1 X59.716 Y76.937 E9.23781
G1 X59.944 Y75.789 E9.2465
G1 X60.363 Y74.778 E9.25462
G1 X61.362 Y73.38 E9.26737
G1 X67.159 Y67.583 E9.32822
G1 X67.159 Y67.583 F6000
G1 X67.297 Y67.722
G1 F2520
G1 X78.715 Y56.351 E9.44783
G1 X79.688 Y55.701 E9.45652
G1 X80.634 Y55.309 E9.46412
G1 X81.782 Y55.08 E9.47281
G1 X82.806 Y55.08 E9.48041
G1 X83.955 Y55.309 E9.48911
G1 X84.901 Y55.701 E9.49671
G1 X86.119 Y56.536 E9.50767
G1 X124.465 Y89.226 E9.8817
G1 X144.795 Y109.543 E10.09505
G1 X145.23 Y110.119 E10.10041
G1 X145.876 Y111.305 E10.11043
G1 X146.094 Y112.475 E10.11926
G1 X146.038 Y113.655 E10.12803
G1 X145.912 Y114.276 E10.13273
G1 X144.889 Y117.346 E10.15675
G1 X144.255 Y118.372 E10.1657
G1 X123.183 Y139.444 E10.3869
G1 X122.157 Y140.078 E10.39585
G1 X119.087 Y141.102 E10.41987
G1 X118.465 Y141.228 E10.42458
G1 X117.286 Y141.283 E10.43334
G1 X116.115 Y141.066 E10.44218
G1 X114.936 Y140.425 E10.45214
G1 X114.358 Y139.988 E10.45752
G1 X94.04 Y119.659 E10.67087
G1 X61.346 Y81.308 E11.04495
G1 X60.511 Y80.09 E11.05591
G1 X60.119 Y79.144 E11.06351
G1 X59.891 Y77.996 E11.0722
G1 X59.891 Y76.972 E11.0798
G1 X60.119 Y75.824 E11.08849
G1 X60.511 Y74.878 E11.09609
G1 X61.488 Y73.507 E11.10859
G1 X67.254 Y67.764 E11.169
G1 X67.254 Y67.764 F6000
G1 X67.379 Y67.89
G1 F2520
G1 X78.814 Y56.499 E11.28881
G1 X79.787 Y55.849 E11.2975
G1 X80.669 Y55.484 E11.30459
G1 X81.817 Y55.255 E11.31328
G1 X82.772 Y55.255 E11.32037
G1 X83.92 Y55.484 E11.32906
G1 X84.802 Y55.849 E11.33615
G1 X86.003 Y56.672 E11.34696
G1 X124.349 Y89.362 E11.72099
G1 X144.668 Y109.67 E11.93423
G1 X145.074 Y110.206 E11.93922
G1 X145.712 Y111.375 E11.94911
G1 X145.915 Y112.467 E11.95735
G1 X145.86 Y113.641 E11.96607
G1 X145.743 Y114.22 E11.97045
G1 X144.719 Y117.29 E11.99447
G1 X144.128 Y118.246 E12.00281
G1 X123.057 Y139.318 E12.22401
G1 X122.1 Y139.909 E12.23236
G1 X119.03 Y140.932 E12.25638
G1 X118.451 Y141.05 E12.26077
G1 X117.278 Y141.105 E12.26949
G1 X116.185 Y140.902 E12.27774
G1 X115.023 Y140.269 E12.28756
G1 X114.485 Y139.862 E12.29257
G1 X94.176 Y119.543 E12.50582
G1 X61.482 Y81.192 E12.8799
G1 X60.66 Y79.991 E12.8907
G1 X60.294 Y79.109 E12.89779
G1 X60.066 Y77.961 E12.90648
G1 X60.066 Y77.007 E12.91356
G1 X60.294 Y75.859 E12.92225
G1 X60.66 Y74.977 E12.92934
G1 X61.614 Y73.633 E12.94157
G1 X67.337 Y67.932 E13.00153
G1 X67.462 Y68.058 F6000
G1 F2520
G1 X78.913 Y56.648 E13.12152
G1 X79.886 Y55.998 E13.13021
G1 X80.704 Y55.659 E13.13678
G1 X81.852 Y55.431 E13.14547
G1 X82.737 Y55.431 E13.15204
G1 X83.885 Y55.659 E13.16073
G1 X84.702 Y55.998 E13.1673
G1 X85.887 Y56.808 E13.17795
G1 X124.233 Y89.498 E13.55198
G1 X144.542 Y109.796 E13.76512
G1 X144.918 Y110.293 E13.76975
G1 X145.548 Y111.445 E13.7795
G1 X145.737 Y112.459 E13.78716
G1 X145.682 Y113.627 E13.79584
G1 X145.573 Y114.163 E13.7999
G1 X144.55 Y117.233 E13.82392
G1 X144.002 Y118.12 E13.83166
G1 X122.93 Y139.192 E14.05286
G1 X122.044 Y139.739 E14.06059
G1 X118.974 Y140.763 E14.08461
G1 X118.437 Y140.872 E14.08868
G1 X117.27 Y140.927 E14.09735
G1 X116.256 Y140.737 E14.10501
G1 X115.11 Y140.113 E14.1147
G1 X114.611 Y139.736 E14.11934
G1 X94.312 Y119.427 E14.33248
G1 X61.618 Y81.076 E14.70656
G1 X60.808 Y79.892 E14.71721
G1 X60.469 Y79.074 E14.72378
G1 X60.241 Y77.926 E14.73247
G1 X60.241 Y77.041 E14.73904
G1 X60.469 Y75.893 E14.74773
G1 X60.808 Y75.076 E14.7543
G1 X61.74 Y73.759 E14.76628
G1 X67.42 Y68.1 E14.8258
G1 X67.42 Y68.1 F6000
G1 X67.536 Y68.216
G1 F2520
G1 X78.696 Y57.056 E14.94295
G1 X79.986 Y56.146 E14.95467
G1 X80.739 Y55.834 E14.96072
G1 X81.887 Y55.606 E14.96941
G1 X82.702 Y55.606 E14.97546
G1 X83.85 Y55.834 E14.98415
G1 X84.603 Y56.146 E14.9902
G1 X85.771 Y56.944 E15.0007
G1 X124.117 Y89.633 E15.37472
G1 X144.416 Y109.922 E15.58776
G1 X144.762 Y110.38 E15.59202
G1 X145.384 Y111.515 E15.60163
G1 X145.559 Y112.451 E15.6087
G1 X145.504 Y113.612 E15.61733
G1 X145.404 Y114.107 E15.62108
G1 X144.381 Y117.177 E15.6451
G1 X143.876 Y117.994 E15.65223
G1 X122.804 Y139.065 E15.87343
G1 X121.987 Y139.57 E15.88056
G1 X118.917 Y140.593 E15.90458
G1 X118.423 Y140.694 E15.90832
G1 X117.262 Y140.748 E15.91695
G1 X116.326 Y140.573 E15.92402
G1 X115.197 Y139.957 E15.93357
G1 X114.737 Y139.609 E15.93785
G1 X94.448 Y119.311 E16.15088
G1 X61.754 Y80.961 E16.52495
G1 X60.956 Y79.793 E16.53545
G1 X60.644 Y79.04 E16.5415
G1 X60.416 Y77.892 E16.55019
G1 X60.416 Y77.076 E16.55625
G1 X60.644 Y75.928 E16.56494
G1 X60.956 Y75.175 E16.57099
G1 X61.867 Y73.885 E16.58271
G1 X67.493 Y68.259 E16.64177
G1 E11.64177 F2400
G92 E0
G1 X67.493 Y68.259 F6000
G92 E0
G1 X98.949 Y111.492
G1 E5 F2400
;TYPE:Perimeter
;WIDTH:0.199999
G1 F1680
G1 X98.958 Y111.398 E5.0007
G1 X99.018 Y111.306 E5.00152
G1 X102.509 Y107.816 E5.03816
;WIDTH:0.24219
G1 X103.058 Y107.236 E5.04549
G1 X112.015 Y98.279 E5.16173
G1 X112.595 Y97.729 E5.16907
;WIDTH:0.199999
G1 X116.117 Y94.208 E5.20604
G1 X116.208 Y94.148 E5.20685
G1 X116.431 Y94.16 E5.20851
G1 X124.402 Y102.114 E5.2921
G1 X124.48 Y102.285 E5.2935
G1 X124.426 Y102.466 E5.2949
G1 X124.088 Y102.807 E5.29846
G1 X109.679 Y117.216 E5.44972
G1 X107.303 Y119.592 E5.47466
G1 X107.152 Y119.667 E5.47591
G1 X106.96 Y119.621 E5.47738
G1 X99.018 Y111.685 E5.56072
G1 X98.948 Y111.551 E5.56184
G1 X98.948 Y111.551 F6000
G1 X99.132 Y111.502
;TYPE:External perimeter
G1 F1344
G1 X99.124 Y111.463 E5.56214
G1 X116.243 Y94.334 E5.7419
G1 X116.354 Y94.322 E5.74273
G1 X124.276 Y102.24 E5.82587
G1 X124.291 Y102.346 E5.82666
G1 X109.553 Y117.089 E5.9814
G1 X107.177 Y119.465 E6.00634
G1 X107.088 Y119.488 E6.00702
G1 X99.146 Y111.56 E6.09032
G1 X99.367 Y111.227 F6000
G1 E1.09032 F2400
G92 E0
G1 X99.31 Y111.171 F6000
G1 X98.985 Y111.496
G1 X107.114 Y119.624
G1 X117.315 Y116.695
G1 E5 F2400
;TYPE:Perimeter
G1 F1050
G1 X117.334 Y116.608 E5.00066
G1 X117.818 Y115.311 E5.01094
G1 X117.903 Y115.155 E5.01226
G1 X118.732 Y114.047 E5.02253
G1 X118.858 Y113.922 E5.02385
G1 X119.966 Y113.092 E5.03413
G1 X120.122 Y113.007 E5.03545
G1 X121.418 Y112.523 E5.04572
G1 X121.592 Y112.486 E5.04704
G1 X122.972 Y112.387 E5.05731
G1 X123.15 Y112.4 E5.05863
G1 X124.502 Y112.694 E5.0689
G1 X124.669 Y112.756 E5.07022
G1 X125.883 Y113.419 E5.08049
G1 X126.026 Y113.526 E5.08182
G1 X127.004 Y114.504 E5.09209
G1 X127.111 Y114.647 E5.09342
G1 X127.774 Y115.861 E5.10369
G1 X127.836 Y116.028 E5.10501
G1 X128.13 Y117.38 E5.11528
G1 X128.143 Y117.557 E5.1166
G1 X128.044 Y118.938 E5.12688
G1 X128.006 Y119.112 E5.1282
G1 X127.523 Y120.408 E5.13847
G1 X127.438 Y120.564 E5.13979
G1 X126.608 Y121.672 E5.15007
G1 X126.483 Y121.798 E5.15139
G1 X125.375 Y122.627 E5.16166
G1 X125.219 Y122.712 E5.16298
G1 X123.922 Y123.196 E5.17326
G1 X123.748 Y123.234 E5.17458
G1 X122.368 Y123.332 E5.18485
G1 X122.191 Y123.32 E5.18617
G1 X120.838 Y123.026 E5.19645
G1 X120.672 Y122.963 E5.19777
G1 X119.457 Y122.3 E5.20804
G1 X119.315 Y122.194 E5.20936
G1 X118.336 Y121.215 E5.21964
G1 X118.198 Y121.015 E5.22144
G1 X117.566 Y119.858 E5.23123
G1 X117.504 Y119.692 E5.23255
G1 X117.21 Y118.339 E5.24283
G1 X117.197 Y118.162 E5.24415
G1 X117.296 Y116.782 E5.25442
G1 X117.302 Y116.753 E5.25464
G1 X117.302 Y116.753 F6000
G1 X117.488 Y116.732
G1 F1050
G1 X117.501 Y116.67 E5.25511
G1 X117.985 Y115.374 E5.26538
G1 X118.046 Y115.262 E5.26633
G1 X118.875 Y114.154 E5.2766
G1 X118.965 Y114.065 E5.27754
G1 X120.073 Y113.235 E5.28782
G1 X120.184 Y113.174 E5.28876
G1 X121.481 Y112.691 E5.29903
G1 X121.605 Y112.664 E5.29997
G1 X122.985 Y112.565 E5.31024
G1 X123.112 Y112.574 E5.31119
G1 X124.464 Y112.868 E5.32146
G1 X124.583 Y112.913 E5.3224
G1 X125.798 Y113.576 E5.33267
G1 X125.899 Y113.652 E5.33361
G1 X126.878 Y114.63 E5.34388
G1 X126.954 Y114.732 E5.34482
G1 X127.617 Y115.947 E5.35509
G1 X127.662 Y116.066 E5.35603
G1 X127.956 Y117.418 E5.3663
G1 X127.965 Y117.545 E5.36725
G1 X127.866 Y118.925 E5.37752
G1 X127.839 Y119.049 E5.37846
G1 X127.356 Y120.346 E5.38873
G1 X127.295 Y120.457 E5.38967
G1 X126.465 Y121.565 E5.39995
G1 X126.376 Y121.655 E5.40089
G1 X125.268 Y122.484 E5.41116
G1 X125.156 Y122.545 E5.41211
G1 X123.86 Y123.029 E5.42238
G1 X123.735 Y123.056 E5.42333
G1 X122.355 Y123.154 E5.4336
G1 X122.228 Y123.145 E5.43455
G1 X120.876 Y122.851 E5.44482
G1 X120.757 Y122.807 E5.44576
G1 X119.543 Y122.144 E5.45603
G1 X119.441 Y122.067 E5.45698
G1 X118.462 Y121.089 E5.46725
G1 X118.355 Y120.93 E5.46867
G1 X117.723 Y119.773 E5.47846
G1 X117.679 Y119.654 E5.4794
G1 X117.385 Y118.301 E5.48968
G1 X117.375 Y118.175 E5.49062
G1 X117.474 Y116.794 E5.5009
G1 X117.475 Y116.791 E5.50092
G1 X117.666 Y116.77 F6000
G1 F1050
G1 X117.669 Y116.733 E5.5012
G1 X118.152 Y115.436 E5.51147
G1 X119.072 Y114.207 E5.52287
G1 X120.247 Y113.342 E5.5337
G1 X121.543 Y112.858 E5.54397
G1 X123.074 Y112.749 E5.55536
G1 X124.498 Y113.069 E5.56619
G1 X125.712 Y113.733 E5.57646
G1 X126.752 Y114.757 E5.58729
G1 X127.487 Y116.104 E5.59868
G1 X127.787 Y117.532 E5.60951
G1 X127.688 Y118.912 E5.61978
G1 X127.152 Y120.35 E5.63117
G1 X126.269 Y121.512 E5.642
G1 X125.094 Y122.378 E5.65283
G1 X123.797 Y122.861 E5.6631
G1 X122.266 Y122.971 E5.67449
G1 X120.843 Y122.65 E5.68532
G1 X119.567 Y121.941 E5.69616
G1 X118.589 Y120.963 E5.70643
G1 X117.853 Y119.616 E5.71782
G1 X117.554 Y118.187 E5.72866
G1 X117.661 Y116.83 E5.73876
G1 X117.661 Y116.83 F6000
G1 X117.835 Y116.808
;TYPE:External perimeter
G1 F1050
G1 X117.836 Y116.795 E5.73886
G1 X118.319 Y115.498 E5.74913
G1 X119.179 Y114.35 E5.75978
G1 X120.309 Y113.509 E5.77024
G1 X121.606 Y113.025 E5.78052
G1 X123.036 Y112.923 E5.79116
G1 X124.412 Y113.226 E5.80162
G1 X125.627 Y113.889 E5.81189
G1 X126.625 Y114.883 E5.82235
G1 X127.313 Y116.142 E5.833
G1 X127.609 Y117.519 E5.84345
G1 X127.51 Y118.9 E5.85373
G1 X127.021 Y120.221 E5.86419
G1 X126.162 Y121.369 E5.87483
G1 X125.031 Y122.211 E5.8853
G1 X123.735 Y122.694 E5.89557
G1 X122.304 Y122.796 E5.90622
G1 X120.928 Y122.493 E5.91668
G1 X119.714 Y121.83 E5.92695
G1 X118.715 Y120.836 E5.93741
G1 X118.028 Y119.578 E5.94805
G1 X117.732 Y118.2 E5.95851
G1 X117.83 Y116.867 E5.96843
G1 X117.953 Y116.487 F6000
G1 E.96843 F2400
G92 E0
G1 X117.887 Y116.462 F6000
G1 X107.114 Y119.624
G1 X98.985 Y111.496
