; generated by PrusaSlicer 2.8.1+win64 on 2026-04-07 at 12:51:10 UTC

; 

; external perimeters extrusion width = 0.45mm
; perimeters extrusion width = 0.45mm
; infill extrusion width = 0.45mm
; solid infill extrusion width = 0.45mm
; top infill extrusion width = 0.40mm
; first layer extrusion width = 0.40mm

M190 S80 ; set bed temperature and wait for it to be reached
M104 S235 ; set temperature
;TYPE:Custom
G28 ; home all axes
G1 Z5 F5000 ; lift nozzle
M109 S235 ; set temperature and wait for it to be reached
G21 ; set units to millimeters
G90 ; use absolute coordinates
M82 ; use absolute distances for extrusion
G92 E0
; Filament gcode
M107
;LAYER_CHANGE
;Z:0.2
;HEIGHT:0.2
G1 E-5 F2400
G1 Z.2 F6000
G1 X99.463 Y96.926
G1 E0 F2400
;TYPE:Skirt/Brim
;WIDTH:0.4
G1 F2520
G1 X101.505 Y96.293 E.06348
G1 X154.155 Y96.293 E1.62673
G1 X155.795 Y96.688 E1.67682
G1 X157.076 Y97.785 E1.7269
G1 X157.762 Y99.9 E1.79292
G1 X157.762 Y110.1 E2.09577
G1 X157.367 Y111.74 E2.14586
G1 X156.27 Y113.021 E2.19594
G1 X154.155 Y113.707 E2.26196
G1 X101.505 Y113.707 E3.82521
G1 X99.864 Y113.312 E3.87533
G1 X98.334 Y111.82 E3.93878
G1 X97.264 Y109.568 E4.01281
G1 X96.631 Y107.141 E4.08728
G1 X96.463 Y105.329 E4.14131
G1 X96.631 Y102.859 E4.21482
G1 X97.174 Y100.727 E4.28014
G1 X97.472 Y99.91 E4.30596
G1 X98.334 Y98.18 E4.36335
G1 X99.423 Y96.971 E4.41166
G1 X99.423 Y96.971 F6000
G1 X99.693 Y97.22
G1 F2520
G1 X99.734 Y97.175 E4.41347
G1 X101.505 Y96.65 E4.46832
G1 X154.155 Y96.65 E6.03157
G1 X155.706 Y97.044 E6.07908
G1 X156.881 Y98.13 E6.12659
G1 X157.405 Y99.9 E6.1814
G1 X157.405 Y110.1 E6.48425
G1 X157.011 Y111.651 E6.53176
G1 X155.925 Y112.826 E6.57927
G1 X154.155 Y113.35 E6.63408
G1 X101.505 Y113.35 E8.19733
G1 X99.954 Y112.956 E8.24484
G1 X98.648 Y111.65 E8.29968
G1 X97.605 Y109.463 E8.37162
G1 X96.986 Y107.106 E8.44398
G1 X96.819 Y105.296 E8.49795
G1 X96.986 Y102.894 E8.56944
G1 X97.517 Y100.824 E8.63289
G1 X97.792 Y100.068 E8.65678
G1 X98.648 Y98.35 E8.71377
G1 X99.652 Y97.264 E8.75768
G1 X99.652 Y97.264 F6000
G1 X99.918 Y97.517
G1 F2520
G1 X100.002 Y97.428 E8.76131
G1 X101.505 Y97.007 E8.80765
G1 X154.155 Y97.007 E10.3709
G1 X155.611 Y97.4 E10.41568
G1 X156.671 Y98.473 E10.46046
G1 X157.048 Y99.9 E10.50428
G1 X157.048 Y110.1 E10.80713
G1 X156.655 Y111.556 E10.85191
G1 X155.582 Y112.616 E10.89669
G1 X154.155 Y112.993 E10.94051
G1 X101.505 Y112.993 E12.50376
G1 X100.049 Y112.6 E12.54854
G1 X98.962 Y111.48 E12.59488
G1 X97.946 Y109.357 E12.66476
G1 X97.342 Y107.07 E12.73499
G1 X97.174 Y105.264 E12.78884
G1 X97.342 Y102.93 E12.85832
G1 X97.861 Y100.921 E12.91993
G1 X98.113 Y100.225 E12.94191
G1 X98.962 Y98.52 E12.99846
G1 X99.876 Y97.56 E13.03782
G1 X99.876 Y97.56 F6000
G1 X100.137 Y97.818
G1 F2520
G1 X100.267 Y97.687 E13.0433
G1 X101.505 Y97.364 E13.08129
G1 X154.155 Y97.364 E14.64454
G1 X155.51 Y97.756 E14.68642
G1 X156.445 Y98.812 E14.7283
G1 X156.691 Y99.9 E14.76142
G1 X156.691 Y110.1 E15.06427
G1 X156.299 Y111.455 E15.10615
G1 X155.243 Y112.39 E15.14803
G1 X154.155 Y112.636 E15.18115
G1 X101.505 Y112.636 E16.7444
G1 X100.15 Y112.244 E16.78628
G1 X99.276 Y111.309 E16.82428
G1 X98.287 Y109.251 E16.89207
G1 X97.697 Y107.034 E16.96019
G1 X97.53 Y105.231 E17.01395
G1 X97.674 Y103.2 E17.0744
G1 X97.779 Y102.534 E17.09442
G1 X98.287 Y100.749 E17.14952
G1 X99.276 Y98.691 E17.21731
G1 X100.095 Y97.861 E17.25193
G1 X100.095 Y97.861 F6000
G1 X100.35 Y98.124
G1 F2520
G1 X100.527 Y97.953 E17.25924
G1 X101.505 Y97.721 E17.28908
G1 X154.155 Y97.721 E18.85233
G1 X155.4 Y98.112 E18.89108
G1 X156.198 Y99.145 E18.92984
G1 X156.334 Y99.9 E18.95262
G1 X156.334 Y110.1 E19.25547
G1 X155.943 Y111.345 E19.29422
G1 X154.911 Y112.143 E19.33295
G1 X154.155 Y112.279 E19.35576
G1 X101.505 Y112.279 E20.91901
G1 X100.26 Y111.888 E20.95776
G1 X99.59 Y111.139 E20.9876
G1 X98.628 Y109.145 E21.05333
G1 X98.052 Y106.998 E21.11933
G1 X97.886 Y105.199 E21.17297
G1 X98.029 Y103.232 E21.23153
G1 X98.123 Y102.631 E21.24959
G1 X98.628 Y100.855 E21.30441
G1 X99.59 Y98.861 E21.37014
G1 X100.307 Y98.166 E21.39979
G1 E16.39979 F2400
G92 E0
G1 X100.307 Y98.166 F6000
G92 E0
G1 X107.271 Y103.2
G1 E5 F2400
;TYPE:External perimeter
;WIDTH:0.399999
G1 F1470
G1 X107.298 Y103.236 E5.00134
G1 X107.305 Y103.284 E5.00278
G1 X107.305 Y106.716 E5.10468
G1 X107.271 Y106.82 E5.10793
G1 X107.216 Y106.87 E5.11014
G1 X104.244 Y108.586 E5.21204
G1 X104.155 Y108.61 E5.21478
G1 X104.066 Y108.586 E5.21752
G1 X102.093 Y107.447 E5.28516
;WIDTH:0.418747
G1 X101.09 Y106.878 E5.3212
;WIDTH:0.454487
G1 X100.986 Y106.772 E5.32628
;WIDTH:0.46755
G1 X100.971 Y106.679 E5.32961
;WIDTH:0.506341
G1 X100.952 Y105.84 E5.36195
;WIDTH:0.545131
G1 X100.932 Y105 E5.39704
G1 X100.952 Y104.16 E5.43213
;WIDTH:0.506341
G1 X100.971 Y103.321 E5.46447
;WIDTH:0.46755
G1 X100.974 Y103.284 E5.46578
;WIDTH:0.462483
G1 X101.033 Y103.205 E5.46922
;WIDTH:0.435299
G1 X101.092 Y103.126 E5.47244
;WIDTH:0.408114
G1 X102.093 Y102.553 E5.50746
;WIDTH:0.399999
G1 X104.066 Y101.414 E5.5751
G1 X104.155 Y101.39 E5.57784
G1 X104.244 Y101.414 E5.58058
G1 X107.216 Y103.13 E5.68248
G1 X107.234 Y103.153 E5.68335
G1 X107.298 Y103.548 F6000
G1 E.68335 F2400
G92 E0
G1 X152.784 Y101.271 F6000
G1 E5 F2400
;TYPE:Perimeter
G1 F2100
G1 X152.784 Y105 E5.11072
G1 X152.784 Y108.729 E5.22144
G1 X106.139 Y108.729 E6.60639
G1 X107.751 Y107.798 E6.66166
G1 X108.14 Y107.446 E6.67724
G1 X108.329 Y107.056 E6.69011
G1 X108.376 Y106.716 E6.7003
G1 X108.376 Y103.284 E6.8022
G1 X108.329 Y102.944 E6.81239
G1 X108.14 Y102.554 E6.82526
G1 X107.751 Y102.202 E6.84084
G1 X106.139 Y101.271 E6.89611
G1 X152.724 Y101.271 E8.27928
G1 X152.724 Y101.271 F6000
G1 X153.141 Y100.914
G1 F2100
G1 X153.141 Y105 E8.4006
G1 X153.141 Y109.086 E8.52192
G1 X104.806 Y109.086 E9.95705
G1 X107.573 Y107.489 E10.05191
G1 X107.851 Y107.237 E10.06305
G1 X107.985 Y106.959 E10.07221
G1 X108.019 Y106.716 E10.0795
G1 X108.019 Y103.284 E10.1814
G1 X107.985 Y103.041 E10.18869
G1 X107.851 Y102.763 E10.19785
G1 X107.573 Y102.511 E10.20899
G1 X104.806 Y100.914 E10.30385
G1 X153.081 Y100.914 E11.73719
G1 E6.73719 F2400
G92 E0
G1 X153.081 Y100.914 F6000
G1 X103.248 Y109.017
G1 E5 F2400
;WIDTH:0.536744
G1 F1470
G1 X102.174 Y109.017 E5.0441
G1 X101.743 Y108.148 E5.08393
G1 X103.196 Y108.987 E5.15282
G1 E.15282 F2400
G92 E0
G1 X103.196 Y108.987 F6000
G1 X103.196 Y109.564
G1 X100.629 Y106.711
G1 X100.821 Y102.751
G1 X100.996 Y102.439
G1 X101.829 Y100.436
G1 X103.248 Y100.436
G1 X103.248 Y100.983
G1 E5 F2400
;WIDTH:0.536741
G1 F1470
G1 X101.743 Y101.852 E5.07136
G1 X102.174 Y100.983 E5.11119
G1 X103.188 Y100.983 E5.15283
G1 E.15283 F2400
G92 E0
G1 X103.188 Y100.983 F6000
G1 X153.498 Y100.557
G1 E5 F2400
;WIDTH:0.399999
G1 F2100
G1 X153.498 Y105 E5.13192
G1 X153.498 Y109.443 E5.26384
G1 X108.001 Y109.443 E6.6147
;WIDTH:0.418915
G1 X104.57 Y109.433 E6.72197
;WIDTH:0.465399
G1 X104.29 Y109.41 E6.73184
G1 X104.015 Y109.427 E6.74152
;WIDTH:0.432699
G1 X103.74 Y109.443 E6.75045
;WIDTH:0.399999
G1 X101.91 Y109.443 E6.80478
G1 X101.324 Y108.261 E6.84395
G1 X101.036 Y107.249 E6.87519
G1 X103.887 Y108.895 E6.97293
;WIDTH:0.429768
G1 X104.021 Y108.946 E6.97754
;WIDTH:0.459537
G1 X104.155 Y108.997 E6.98251
;WIDTH:0.465399
G1 X104.253 Y108.991 E6.98596
G1 X104.428 Y108.903 E6.99284
;WIDTH:0.418915
G1 X107.394 Y107.179 E7.1001
;WIDTH:0.399999
G1 X107.561 Y107.029 E7.10676
G1 X107.642 Y106.862 E7.11227
G1 X107.662 Y106.716 E7.11665
G1 X107.662 Y103.284 E7.21855
G1 X107.642 Y103.138 E7.22293
G1 X107.561 Y102.971 E7.22844
G1 X107.394 Y102.821 E7.2351
G1 X104.423 Y101.105 E7.33697
;WIDTH:0.429766
G1 X104.289 Y101.054 E7.34158
;WIDTH:0.459532
G1 X104.155 Y101.003 E7.34655
;WIDTH:0.465394
G1 X104.057 Y101.009 E7.35
G1 X103.882 Y101.097 E7.35688
;WIDTH:0.418914
G1 X102.663 Y101.812 E7.40106
;WIDTH:0.399999
G1 X101.036 Y102.751 E7.45684
G1 X101.324 Y101.739 E7.48808
G1 X101.91 Y100.557 E7.52725
G1 X102.327 Y100.557 E7.53963
;WIDTH:0.418914
G1 X103.74 Y100.567 E7.58381
;WIDTH:0.465394
G1 X104.02 Y100.59 E7.59368
G1 X104.295 Y100.573 E7.60336
;WIDTH:0.432697
G1 X104.57 Y100.557 E7.61229
;WIDTH:0.399999
G1 X153.438 Y100.557 E9.06324
G1 X153.855 Y100.2 F6000
;TYPE:External perimeter
G1 F1680
G1 X153.855 Y105 E9.20576
G1 X153.855 Y109.8 E9.34828
G1 X101.688 Y109.8 E10.89718
G1 X100.97 Y108.322 E10.94597
;WIDTH:0.418747
G1 X100.664 Y107.21 E10.98201
;WIDTH:0.46755
G1 X100.548 Y106.699 E11.00051
;WIDTH:0.506341
G1 X100.489 Y105.861 E11.03288
;WIDTH:0.545131
G1 X100.431 Y105.023 E11.06796
G1 X100.489 Y104.139 E11.10495
;WIDTH:0.506341
G1 X100.548 Y103.301 E11.13732
;WIDTH:0.46755
G1 X100.604 Y103.035 E11.14692
;WIDTH:0.437832
G1 X100.659 Y102.788 E11.15523
;WIDTH:0.408114
G1 X100.97 Y101.678 E11.19023
;WIDTH:0.399999
G1 X101.688 Y100.2 E11.23902
G1 X153.795 Y100.2 E12.78614
G1 X153.854 Y100.596 F6000
G1 X152.677 Y102.106
;TYPE:Solid infill
;WIDTH:0.402721
G1 F1680
G1 X152.11 Y101.539 E12.81013
G1 X151.601 Y101.539 E12.82536
G1 X152.516 Y102.454 E12.86407
G1 X152.516 Y102.963 E12.8793
G1 X151.092 Y101.539 E12.93955
G1 X150.583 Y101.539 E12.95478
G1 X152.516 Y103.472 E13.03656
G1 X152.516 Y103.981 E13.05179
G1 X150.074 Y101.539 E13.15511
G1 X149.566 Y101.539 E13.17031
G1 X152.516 Y104.489 E13.29512
G1 X152.516 Y104.998 E13.31035
G1 X149.057 Y101.539 E13.4567
G1 X148.548 Y101.539 E13.47193
G1 X152.516 Y105.507 E13.63982
G1 X152.516 Y106.016 E13.65505
G1 X148.039 Y101.539 E13.84447
G1 X147.53 Y101.539 E13.8597
G1 X152.516 Y106.525 E14.07066
G1 X152.516 Y107.034 E14.08589
G1 X147.021 Y101.539 E14.31838
G1 X146.513 Y101.539 E14.33358
G1 X152.516 Y107.542 E14.58757
G1 X152.516 Y108.051 E14.6028
G1 X146.004 Y101.539 E14.87832
G1 X145.495 Y101.539 E14.89355
G1 X152.417 Y108.461 E15.18642
G1 X151.908 Y108.461 E15.20165
G1 X144.986 Y101.539 E15.49452
G1 X144.477 Y101.539 E15.50975
G1 X151.399 Y108.461 E15.80262
G1 X150.89 Y108.461 E15.81785
G1 X143.968 Y101.539 E16.11072
G1 X143.46 Y101.539 E16.12592
G1 X150.381 Y108.461 E16.41877
G1 X149.873 Y108.461 E16.43397
G1 X142.951 Y101.539 E16.72684
G1 X142.442 Y101.539 E16.74207
G1 X149.364 Y108.461 E17.03494
G1 X148.855 Y108.461 E17.05017
G1 X141.933 Y101.539 E17.34304
G1 X141.424 Y101.539 E17.35827
G1 X148.346 Y108.461 E17.65114
G1 X147.837 Y108.461 E17.66637
G1 X140.915 Y101.539 E17.95924
G1 X140.407 Y101.539 E17.97444
G1 X147.328 Y108.461 E18.26729
G1 X146.82 Y108.461 E18.28249
G1 X139.898 Y101.539 E18.57536
G1 X139.389 Y101.539 E18.59059
G1 X146.311 Y108.461 E18.88346
G1 X145.802 Y108.461 E18.89869
G1 X138.88 Y101.539 E19.19156
G1 X138.371 Y101.539 E19.20679
G1 X145.293 Y108.461 E19.49966
G1 X144.784 Y108.461 E19.51489
G1 X137.862 Y101.539 E19.80776
G1 X137.354 Y101.539 E19.82296
G1 X144.275 Y108.461 E20.11581
G1 X143.767 Y108.461 E20.13101
G1 X136.845 Y101.539 E20.42388
G1 X136.336 Y101.539 E20.43911
G1 X143.258 Y108.461 E20.73198
G1 X142.749 Y108.461 E20.74721
G1 X135.827 Y101.539 E21.04008
G1 X135.318 Y101.539 E21.05531
G1 X142.24 Y108.461 E21.34818
G1 X141.731 Y108.461 E21.36341
G1 X134.809 Y101.539 E21.65628
G1 X134.301 Y101.539 E21.67148
G1 X141.222 Y108.461 E21.96433
G1 X140.714 Y108.461 E21.97953
G1 X133.792 Y101.539 E22.2724
G1 X133.283 Y101.539 E22.28763
G1 X140.205 Y108.461 E22.5805
G1 X139.696 Y108.461 E22.59573
G1 X132.774 Y101.539 E22.8886
G1 X132.265 Y101.539 E22.90383
G1 X139.187 Y108.461 E23.1967
G1 X138.678 Y108.461 E23.21193
G1 X131.756 Y101.539 E23.5048
G1 X131.247 Y101.539 E23.52003
G1 X138.169 Y108.461 E23.8129
G1 X137.661 Y108.461 E23.8281
G1 X130.739 Y101.539 E24.12097
G1 X130.23 Y101.539 E24.1362
G1 X137.152 Y108.461 E24.42907
G1 X136.643 Y108.461 E24.4443
G1 X129.721 Y101.539 E24.73717
G1 X129.212 Y101.539 E24.7524
G1 X136.134 Y108.461 E25.04527
G1 X135.625 Y108.461 E25.0605
G1 X128.703 Y101.539 E25.35337
G1 X128.194 Y101.539 E25.3686
G1 X135.116 Y108.461 E25.66147
G1 X134.608 Y108.461 E25.67667
G1 X127.686 Y101.539 E25.96954
G1 X127.177 Y101.539 E25.98477
G1 X134.099 Y108.461 E26.27764
G1 X133.59 Y108.461 E26.29287
G1 X126.668 Y101.539 E26.58574
G1 X126.159 Y101.539 E26.60097
G1 X133.081 Y108.461 E26.89384
G1 X132.572 Y108.461 E26.90907
G1 X125.65 Y101.539 E27.20194
G1 X125.141 Y101.539 E27.21717
G1 X132.063 Y108.461 E27.51004
G1 X131.555 Y108.461 E27.52524
G1 X124.633 Y101.539 E27.81811
G1 X124.124 Y101.539 E27.83334
G1 X131.046 Y108.461 E28.12621
G1 X130.537 Y108.461 E28.14144
G1 X123.615 Y101.539 E28.43431
G1 X123.106 Y101.539 E28.44954
G1 X130.028 Y108.461 E28.74241
G1 X129.519 Y108.461 E28.75764
G1 X122.597 Y101.539 E29.05051
G1 X122.088 Y101.539 E29.06574
G1 X129.01 Y108.461 E29.35861
G1 X128.502 Y108.461 E29.37381
G1 X121.58 Y101.539 E29.66668
G1 X121.071 Y101.539 E29.68191
G1 X127.993 Y108.461 E29.97478
G1 X127.484 Y108.461 E29.99001
G1 X120.562 Y101.539 E30.28288
G1 X120.053 Y101.539 E30.29811
G1 X126.975 Y108.461 E30.59098
G1 X126.466 Y108.461 E30.60621
G1 X119.544 Y101.539 E30.89908
G1 X119.035 Y101.539 E30.91431
G1 X125.957 Y108.461 E31.20718
G1 X125.449 Y108.461 E31.22238
G1 X118.527 Y101.539 E31.51525
G1 X118.018 Y101.539 E31.53048
G1 X124.94 Y108.461 E31.82335
G1 X124.431 Y108.461 E31.83858
G1 X117.509 Y101.539 E32.13145
G1 X117 Y101.539 E32.14668
G1 X123.922 Y108.461 E32.43955
G1 X123.413 Y108.461 E32.45478
G1 X116.491 Y101.539 E32.74765
G1 X115.982 Y101.539 E32.76288
G1 X122.904 Y108.461 E33.05575
G1 X122.395 Y108.461 E33.07098
G1 X115.474 Y101.539 E33.36383
G1 X114.965 Y101.539 E33.37906
G1 X121.887 Y108.461 E33.67193
G1 X121.378 Y108.461 E33.68716
G1 X114.456 Y101.539 E33.98003
G1 X113.947 Y101.539 E33.99526
G1 X120.869 Y108.461 E34.28813
G1 X120.36 Y108.461 E34.30336
G1 X113.438 Y101.539 E34.59623
G1 X112.929 Y101.539 E34.61146
G1 X119.851 Y108.461 E34.90433
G1 X119.342 Y108.461 E34.91956
G1 X112.421 Y101.539 E35.21241
G1 X111.912 Y101.539 E35.22764
G1 X118.834 Y108.461 E35.52051
G1 X118.325 Y108.461 E35.53574
G1 X111.403 Y101.539 E35.82861
G1 X110.894 Y101.539 E35.84384
G1 X117.816 Y108.461 E36.13671
G1 X117.307 Y108.461 E36.15194
G1 X110.385 Y101.539 E36.44481
G1 X109.876 Y101.539 E36.46004
G1 X116.798 Y108.461 E36.75291
G1 X116.289 Y108.461 E36.76814
G1 X109.368 Y101.539 E37.06099
G1 X108.859 Y101.539 E37.07622
G1 X115.781 Y108.461 E37.36909
G1 X115.272 Y108.461 E37.38432
G1 X108.35 Y101.539 E37.67719
G1 X107.841 Y101.539 E37.69242
G1 X114.763 Y108.461 E37.98529
G1 X114.254 Y108.461 E38.00052
G1 X107.172 Y101.378 E38.30018
G1 E33.30018 F2400
G92 E0
G1 X107.172 Y101.378 F6000
G1 X107.338 Y108.16
G1 E5 F2400
G1 F1680
G1 X107.639 Y108.461 E5.01274
G1 X108.148 Y108.461 E5.02797
G1 X107.779 Y108.091 E5.0436
G1 X107.893 Y108.025 E5.04754
G1 X108.066 Y107.87 E5.05449
G1 X108.657 Y108.461 E5.0795
G1 X109.166 Y108.461 E5.09473
G1 X108.333 Y107.628 E5.12997
G1 X108.508 Y107.295 E5.14122
G1 X109.675 Y108.461 E5.19057
G1 X110.183 Y108.461 E5.20577
G1 X108.62 Y106.897 E5.27192
G1 X108.644 Y106.722 E5.2772
G1 X108.644 Y106.413 E5.28644
G1 X110.692 Y108.461 E5.37309
G1 X111.201 Y108.461 E5.38832
G1 X108.644 Y105.904 E5.49651
G1 X108.644 Y105.395 E5.51174
G1 X111.71 Y108.461 E5.64146
G1 X112.219 Y108.461 E5.65669
G1 X108.644 Y104.886 E5.80795
G1 X108.644 Y104.377 E5.82318
G1 X112.728 Y108.461 E5.99597
G1 X113.236 Y108.461 E6.01117
G1 X108.644 Y103.869 E6.20546
G1 X108.644 Y103.36 E6.22069
G1 X113.906 Y108.622 E6.44332
M106 S216.75
;LAYER_CHANGE
;Z:0.4
;HEIGHT:0.2
G1 Z.4 F6000
M104 S225 ; set temperature
M140 S70 ; set bed temperature
G1 E1.44332 F2400
G92 E0
G1 X113.906 Y108.622 Z.4 F6000
G1 X107.191 Y103.247
G1 E5 F2400
;TYPE:External perimeter
;WIDTH:0.449999
G1 F2100
G1 X107.222 Y103.287 E5.00171
G1 X107.23 Y106.658 E5.11581
G1 X107.192 Y106.777 E5.12004
G1 X107.128 Y106.834 E5.12294
G1 X104.257 Y108.492 E5.23516
G1 X104.155 Y108.519 E5.23873
G1 X104.053 Y108.492 E5.2423
G1 X101.182 Y106.834 E5.35452
G1 X101.081 Y106.677 E5.36084
G1 X101.082 Y103.318 E5.47454
G1 X101.182 Y103.166 E5.4807
G1 X104.053 Y101.508 E5.59292
G1 X104.155 Y101.481 E5.59649
G1 X104.257 Y101.508 E5.60006
G1 X107.128 Y103.166 E5.71228
G1 X107.154 Y103.199 E5.7137
G1 X107.217 Y103.595 F6000
G1 X152.709 Y101.146
;TYPE:Perimeter
G1 F3000
G1 X152.709 Y105 E5.84415
