; generated by PrusaSlicer 2.9.0 on 2026-04-08 at 18:24:38 UTC

; 

; external perimeters extrusion width = 0.45mm
; perimeters extrusion width = 0.45mm
; infill extrusion width = 0.45mm
; solid infill extrusion width = 0.45mm
; top infill extrusion width = 0.40mm
; first layer extrusion width = 0.40mm

M190 S80 ; set bed temperature and wait for it to be reached
M104 S235 ; set temperature
;TYPE:Custom
G28 ; home all axes
G1 Z5 F5000 ; lift nozzle
M109 S235 ; set temperature and wait for it to be reached
G21 ; set units to millimeters
G90 ; use absolute coordinates
M82 ; use absolute distances for extrusion
G92 E0
; Filament gcode
M107
;LAYER_CHANGE
;Z:0.2
;HEIGHT:0.2
G1 E-5 F2400
G1 Z.2 F6000
G1 X12.7 Y96.393
G1 E.00001 F2400
;TYPE:Skirt/Brim
;WIDTH:0.4
G1 F2520
G1 X227.3 Y96.393 E6.37175
G1 X228.053 Y96.473 E6.39423
G1 X243.053 Y99.673 E6.84962
G1 X244.574 Y100.4 E6.89967
G1 X245.598 Y101.741 E6.94977
G1 X245.907 Y103.2 E6.99405
G1 X245.907 Y110 E7.19595
G1 X245.512 Y111.64 E7.24604
G1 X244.415 Y112.921 E7.29612
G1 X242.3 Y113.607 E7.36214
G1 X27.7 Y113.607 E13.73389
G1 X26.947 Y113.527 E13.75637
G1 X11.947 Y110.327 E14.21176
G1 X10.426 Y109.6 E14.26181
G1 X9.402 Y108.259 E14.31191
G1 X9.093 Y106.8 E14.35619
G1 X9.093 Y100 E14.55809
G1 X9.488 Y98.36 E14.60818
G1 X10.585 Y97.079 E14.65826
G1 X12.643 Y96.412 E14.72249
G1 X12.643 Y96.412 F6000
G1 X12.7 Y96.75
G1 F2520
G1 X227.3 Y96.75 E21.09424
G1 X227.978 Y96.822 E21.11448
G1 X242.978 Y100.022 E21.56987
G1 X244.412 Y100.73 E21.61735
G1 X245.335 Y102.038 E21.66488
G1 X245.55 Y103.2 E21.69997
G1 X245.55 Y110 E21.90187
G1 X245.156 Y111.551 E21.94938
G1 X244.07 Y112.726 E21.99689
G1 X242.3 Y113.25 E22.0517
G1 X27.7 Y113.25 E28.42345
G1 X27.022 Y113.178 E28.44369
G1 X12.022 Y109.978 E28.89908
G1 X10.588 Y109.27 E28.94656
G1 X9.665 Y107.962 E28.99409
G1 X9.45 Y106.8 E29.02918
G1 X9.45 Y100 E29.23108
G1 X9.844 Y98.449 E29.27859
G1 X10.93 Y97.274 E29.3261
G1 X12.642 Y96.767 E29.37911
G1 X12.642 Y96.767 F6000
G1 X12.7 Y97.107
G1 F2520
G1 X227.3 Y97.107 E35.75086
G1 X227.904 Y97.171 E35.76889
G1 X242.904 Y100.371 E36.22428
G1 X244.245 Y101.059 E36.26903
G1 X245.059 Y102.329 E36.31382
G1 X245.193 Y103.2 E36.33999
G1 X245.193 Y110 E36.54189
G1 X244.8 Y111.456 E36.58667
G1 X243.727 Y112.516 E36.63145
G1 X242.3 Y112.893 E36.67527
G1 X27.7 Y112.893 E43.04702
G1 X27.096 Y112.829 E43.06505
G1 X12.096 Y109.629 E43.52044
G1 X10.755 Y108.941 E43.56519
G1 X9.941 Y107.671 E43.60998
G1 X9.807 Y106.8 E43.63615
G1 X9.807 Y100 E43.83805
G1 X10.2 Y98.544 E43.88283
G1 X11.273 Y97.484 E43.92761
G1 X12.642 Y97.123 E43.96965
G1 X12.642 Y97.123 F6000
G1 X12.7 Y97.464
G1 F2520
G1 X227.3 Y97.464 E50.3414
G1 X227.829 Y97.52 E50.35719
G1 X242.829 Y100.72 E50.81258
G1 X244.072 Y101.386 E50.85445
G1 X244.836 Y103.2 E50.91289
G1 X244.836 Y110 E51.11479
G1 X244.444 Y111.355 E51.15667
G1 X243.388 Y112.29 E51.19855
G1 X242.3 Y112.536 E51.23167
G1 X27.7 Y112.536 E57.60342
G1 X27.171 Y112.48 E57.61921
G1 X12.171 Y109.28 E58.0746
G1 X10.928 Y108.614 E58.11647
G1 X10.164 Y106.8 E58.17491
G1 X10.164 Y100 E58.37681
G1 X10.557 Y98.645 E58.4187
G1 X11.612 Y97.71 E58.46056
G1 X12.641 Y97.478 E58.49188
G1 X12.641 Y97.478 F6000
G1 X12.7 Y97.821
G1 F2520
G1 X227.755 Y97.869 E64.87714
G1 X242.755 Y101.069 E65.33253
G1 X243.891 Y101.711 E65.37127
G1 X244.479 Y103.2 E65.4188
G1 X244.479 Y110 E65.6207
G1 X244.088 Y111.245 E65.65945
G1 X243.055 Y112.043 E65.69821
G1 X242.3 Y112.179 E65.72099
G1 X27.7 Y112.179 E72.09274
G1 X12.245 Y108.931 E72.56164
G1 X11.109 Y108.289 E72.60038
G1 X10.521 Y106.8 E72.64791
G1 X10.521 Y100 E72.84981
G1 X10.912 Y98.755 E72.88856
G1 X11.945 Y97.957 E72.92732
G1 X12.641 Y97.832 E72.94832
G1 E67.94832 F2400
G92 E0
G92 E0
G1 X22.918 Y101.821 F6000
G1 E5 F2400
;TYPE:Perimeter
;WIDTH:0.399999
G1 F1470
G1 X22.625 Y102.198 E5.01418
G1 X22.529 Y102.679 E5.02874
G1 X22.529 Y105.429 E5.11039
G1 X14.071 Y105.429 E5.36152
G1 X14.071 Y101.371 E5.48201
G1 X22.926 Y101.371 E5.74493
;WIDTH:0.43845
G1 X23.241 Y101.39 E5.75531
;WIDTH:0.4769
G1 X23.556 Y101.41 E5.7667
G1 X23.292 Y101.544 E5.77738
;WIDTH:0.43845
G1 X23.029 Y101.679 E5.7871
;WIDTH:0.399999
G1 X22.955 Y101.774 E5.79068
G1 X22.955 Y101.774 F6000
G1 X23.556 Y101.41
;WIDTH:0.4769
G1 F1470
G1 X23.779 Y101.4 E5.79874
;WIDTH:0.457526
G1 X27.821 Y101.4 E5.93809
G1 F2100
G1 X28.248 Y101.386 E5.95282
;WIDTH:0.428763
G1 X28.674 Y101.371 E5.9665
;WIDTH:0.399999
G1 X225.929 Y101.371 E11.82325
G1 X225.929 Y107.321 E11.99991
G1 X226.025 Y107.802 E12.01447
G1 X226.429 Y108.321 E12.034
;WIDTH:0.428763
G1 X226.804 Y108.461 E12.04684
;WIDTH:0.457526
G1 X227.179 Y108.6 E12.06063
G1 X226.752 Y108.614 E12.07536
;WIDTH:0.428763
G1 X226.326 Y108.629 E12.08904
;WIDTH:0.399999
G1 X29.071 Y108.629 E17.94579
G1 X29.071 Y102.679 E18.12245
G1 X28.975 Y102.198 E18.13701
G1 X28.571 Y101.679 E18.15654
;WIDTH:0.428763
G1 X28.196 Y101.539 E18.16938
;WIDTH:0.457526
G1 X27.878 Y101.421 E18.18107
G1 E13.18107 F2400
G92 E0
G1 X27.878 Y101.421 F6000
G1 X226.764 Y107.736
G1 X239.836 Y107.736
G1 X240.646 Y104.546
G1 E5 F2400
;WIDTH:0.350222
G1 F1470
G1 X240.954 Y104.546 E5.00787
G1 X240.954 Y104.7 E5.01181
G1 X240.954 Y107.321 E5.07878
;WIDTH:0.360667
G1 X240.948 Y107.561 E5.08512
;WIDTH:0.403207
G1 X240.927 Y107.812 E5.09267
;WIDTH:0.445747
G1 X240.906 Y108.062 E5.10107
;WIDTH:0.488287
G1 X240.885 Y108.313 E5.1104
;WIDTH:0.530826
G1 X240.863 Y108.563 E5.12058
G1 X240.132 Y108.577 E5.15024
;WIDTH:0.503863
G1 X239.644 Y108.59 E5.16895
G1 X240.038 Y108.377 E5.18612
;WIDTH:0.530826
G1 X240.432 Y108.163 E5.20431
G1 X240.482 Y108.006 E5.21099
;WIDTH:0.488287
G1 X240.533 Y107.849 E5.2171
;WIDTH:0.445747
G1 X240.583 Y107.691 E5.22265
;WIDTH:0.403207
G1 X240.633 Y107.534 E5.22759
;WIDTH:0.360667
G1 X240.646 Y107.321 E5.23323
;WIDTH:0.350222
G1 X240.646 Y104.606 E5.3026
G1 E.3026 F2400
G92 E0
G1 X240.646 Y104.606 F6000
G1 X239.836 Y107.736
G1 X227.179 Y108.6
G1 E5 F2400
;WIDTH:0.457526
G1 F1470
G1 X239.421 Y108.6 E5.42204
;WIDTH:0.4769
G1 X239.644 Y108.59 E5.4301
G1 E.4301 F2400
G92 E0
G1 X239.644 Y108.59 F6000
G1 X23.163 Y102.067
G1 E5 F2400
;WIDTH:0.399999
G1 F2100
G1 X22.955 Y102.335 E5.01007
G1 X22.886 Y102.679 E5.02049
G1 X22.886 Y105.786 E5.11274
G1 X13.714 Y105.786 E5.38507
G1 X13.714 Y101.014 E5.52676
G1 X226.286 Y101.014 E11.83829
G1 X226.286 Y107.321 E12.02555
G1 X226.355 Y107.665 E12.03597
G1 X226.643 Y108.036 E12.04991
G1 X227.179 Y108.214 E12.06668
G1 X239.421 Y108.214 E12.43016
G1 X239.576 Y108.201 E12.43478
G1 X240.107 Y107.893 E12.45301
G1 X240.301 Y107.476 E12.46667
G1 X240.314 Y107.321 E12.47129
G1 X240.314 Y104.214 E12.56354
G1 X241.286 Y104.214 E12.5924
G1 X241.286 Y104.7 E12.60683
G1 X241.286 Y108.986 E12.73409
G1 X28.714 Y108.986 E19.04562
G1 X28.714 Y102.679 E19.23288
G1 X28.645 Y102.335 E19.2433
G1 X28.357 Y101.964 E19.25724
G1 X27.821 Y101.786 E19.27401
G1 X23.779 Y101.786 E19.39402
G1 X23.624 Y101.799 E19.39864
G1 X23.243 Y101.964 E19.41097
G1 X23.2 Y102.02 E19.41307
G1 X23.2 Y102.02 F6000
G1 X23.408 Y102.314
G1 F2100
G1 X23.284 Y102.473 E19.41906
G1 X23.243 Y102.679 E19.4253
G1 X23.243 Y106.143 E19.52815
G1 X13.357 Y106.143 E19.82168
G1 X13.357 Y100.657 E19.98457
G1 X226.643 Y100.657 E26.3173
G1 X226.643 Y107.321 E26.51516
G1 X226.684 Y107.527 E26.5214
G1 X226.857 Y107.75 E26.52978
G1 X227.179 Y107.857 E26.53985
G1 X239.514 Y107.849 E26.90609
G1 X239.833 Y107.664 E26.91704
G1 X239.957 Y107.321 E26.92787
G1 X239.957 Y103.857 E27.03072
G1 X241.643 Y103.857 E27.08078
G1 X241.643 Y104.7 E27.10581
G1 X241.643 Y109.343 E27.24367
G1 X28.357 Y109.343 E33.5764
G1 X28.357 Y102.679 E33.77426
G1 X28.316 Y102.473 E33.7805
G1 X28.143 Y102.25 E33.78888
G1 X27.821 Y102.143 E33.79895
G1 X23.779 Y102.143 E33.91896
G1 X23.457 Y102.25 E33.92903
G1 X23.444 Y102.266 E33.92964
G1 X23.444 Y102.266 F6000
G1 X23.654 Y102.571
;TYPE:External perimeter
G1 F1680
G1 X23.6 Y102.679 E33.93323
G1 X23.6 Y106.5 E34.04668
G1 X13 Y106.5 E34.36141
G1 X13 Y100.3 E34.5455
G1 X227 Y100.3 E40.89943
G1 X227 Y107.321 E41.10789
G1 X227.071 Y107.464 E41.11263
G1 X227.179 Y107.5 E41.11601
G1 X239.421 Y107.5 E41.47949
G1 X239.559 Y107.436 E41.48401
G1 X239.6 Y107.321 E41.48764
G1 X239.6 Y103.5 E41.60109
G1 X242 Y103.5 E41.67235
G1 X242 Y104.7 E41.70798
G1 X242 Y109.7 E41.85644
G1 X28 Y109.7 E48.21037
G1 X28 Y102.679 E48.41883
G1 X27.929 Y102.536 E48.42357
G1 X27.821 Y102.5 E48.42695
G1 X23.779 Y102.5 E48.54696
G1 X23.691 Y102.529 E48.54971
G1 X23.608 Y102.92 F6000
G1 X22.744 Y101.88
;TYPE:Solid infill
;WIDTH:0.405292
G1 F1680
G1 X22.503 Y101.639 E48.55998
G1 X21.991 Y101.639 E48.57541
G1 X22.406 Y102.054 E48.59309
G1 X22.377 Y102.091 E48.59451
G1 X22.302 Y102.463 E48.60594
G1 X21.478 Y101.639 E48.64105
G1 X20.966 Y101.639 E48.65648
G1 X22.261 Y102.934 E48.71166
G1 X22.261 Y103.447 E48.72712
G1 X20.453 Y101.639 E48.80416
G1 X19.941 Y101.639 E48.81959
G1 X22.261 Y103.959 E48.91845
G1 X22.261 Y104.472 E48.93391
G1 X19.428 Y101.639 E49.05463
G1 X18.916 Y101.639 E49.07006
G1 X22.261 Y104.984 E49.2126
G1 X22.261 Y105.161 E49.21793
G1 X21.925 Y105.161 E49.22805
G1 X18.403 Y101.639 E49.37813
G1 X17.891 Y101.639 E49.39356
G1 X21.413 Y105.161 E49.54364
G1 X20.9 Y105.161 E49.5591
G1 X17.378 Y101.639 E49.70918
G1 X16.866 Y101.639 E49.72461
G1 X20.388 Y105.161 E49.87469
G1 X19.875 Y105.161 E49.89015
G1 X16.353 Y101.639 E50.04023
G1 X15.841 Y101.639 E50.05566
G1 X19.363 Y105.161 E50.20574
G1 X18.85 Y105.161 E50.2212
G1 X15.328 Y101.639 E50.37128
G1 X14.816 Y101.639 E50.38671
G1 X18.338 Y105.161 E50.53679
G1 X17.825 Y105.161 E50.55225
G1 X14.339 Y101.675 E50.7008
G1 X14.339 Y102.187 E50.71623
G1 X17.313 Y105.161 E50.84296
G1 X16.8 Y105.161 E50.85842
G1 X14.339 Y102.7 E50.96329
G1 X14.339 Y103.212 E50.97872
G1 X16.288 Y105.161 E51.06177
G1 X15.776 Y105.161 E51.0772
G1 X14.339 Y103.724 E51.13843
G1 X14.339 Y104.237 E51.15389
G1 X15.263 Y105.161 E51.19326
G1 X14.751 Y105.161 E51.20869
G1 X14.178 Y104.589 E51.23309
G1 E46.23309 F2400
G92 E0
G1 X14.178 Y104.589 F6000
G1 X23.364 Y102.264
G1 X28.236 Y102.264
G1 X29.178 Y107.799
G1 E5 F2400
;WIDTH:0.400435
G1 F1680
G1 X29.74 Y108.361 E5.02363
G1 X30.246 Y108.361 E5.03867
G1 X29.339 Y107.454 E5.0768
G1 X29.339 Y106.948 E5.09184
G1 X30.752 Y108.361 E5.15124
G1 X31.257 Y108.361 E5.16625
G1 X29.339 Y106.443 E5.24688
G1 X29.339 Y105.937 E5.26192
G1 X31.763 Y108.361 E5.36383
G1 X32.268 Y108.361 E5.37884
G1 X29.339 Y105.432 E5.50198
G1 X29.339 Y104.926 E5.51702
G1 X32.774 Y108.361 E5.66143
G1 X33.28 Y108.361 E5.67647
G1 X29.339 Y104.42 E5.84215
G1 X29.339 Y103.915 E5.85716
G1 X33.785 Y108.361 E6.04407
G1 X34.291 Y108.361 E6.05911
G1 X29.339 Y103.409 E6.2673
G1 X29.339 Y102.904 E6.28231
G1 X34.797 Y108.361 E6.51175
G1 X35.302 Y108.361 E6.52676
G1 X29.271 Y102.33 E6.78031
G1 X29.223 Y102.091 E6.78756
G1 X28.872 Y101.639 E6.80457
G1 X29.086 Y101.639 E6.81093
G1 X35.808 Y108.361 E7.09353
G1 X36.313 Y108.361 E7.10854
G1 X29.591 Y101.639 E7.39114
G1 X30.097 Y101.639 E7.40618
G1 X36.819 Y108.361 E7.68878
G1 X37.325 Y108.361 E7.70382
G1 X30.603 Y101.639 E7.98642
G1 X31.108 Y101.639 E8.00143
G1 X37.83 Y108.361 E8.28403
G1 X38.336 Y108.361 E8.29907
G1 X31.614 Y101.639 E8.58167
G1 X32.119 Y101.639 E8.59668
G1 X38.841 Y108.361 E8.87928
G1 X39.347 Y108.361 E8.89432
G1 X32.625 Y101.639 E9.17692
G1 X33.131 Y101.639 E9.19196
G1 X39.853 Y108.361 E9.47456
G1 X40.358 Y108.361 E9.48957
G1 X33.636 Y101.639 E9.77217
G1 X34.142 Y101.639 E9.78721
G1 X40.864 Y108.361 E10.06981
G1 X41.369 Y108.361 E10.08482
G1 X34.647 Y101.639 E10.36742
G1 X35.153 Y101.639 E10.38246
G1 X41.875 Y108.361 E10.66506
G1 X42.381 Y108.361 E10.6801
G1 X35.659 Y101.639 E10.9627
G1 X36.164 Y101.639 E10.97771
G1 X42.886 Y108.361 E11.26031
G1 X43.392 Y108.361 E11.27535
G1 X36.67 Y101.639 E11.55795
G1 X37.175 Y101.639 E11.57296
G1 X43.897 Y108.361 E11.85556
G1 X44.403 Y108.361 E11.8706
G1 X37.681 Y101.639 E12.1532
G1 X38.187 Y101.639 E12.16824
G1 X44.909 Y108.361 E12.45084
G1 X45.414 Y108.361 E12.46585
G1 X38.692 Y101.639 E12.74845
G1 X39.198 Y101.639 E12.76349
G1 X45.92 Y108.361 E13.04609
G1 X46.425 Y108.361 E13.0611
G1 X39.703 Y101.639 E13.3437
G1 X40.209 Y101.639 E13.35874
G1 X46.931 Y108.361 E13.64134
G1 X47.437 Y108.361 E13.65638
G1 X40.715 Y101.639 E13.93898
G1 X41.22 Y101.639 E13.95399
G1 X47.942 Y108.361 E14.23659
G1 X48.448 Y108.361 E14.25163
G1 X41.726 Y101.639 E14.53423
G1 X42.231 Y101.639 E14.54924
G1 X48.953 Y108.361 E14.83184
G1 X49.459 Y108.361 E14.84688
G1 X42.737 Y101.639 E15.12948
G1 X43.243 Y101.639 E15.14452
G1 X49.965 Y108.361 E15.42712
G1 X50.47 Y108.361 E15.44213
G1 X43.748 Y101.639 E15.72473
G1 X44.254 Y101.639 E15.73977
G1 X50.976 Y108.361 E16.02237
G1 X51.481 Y108.361 E16.03738
G1 X44.759 Y101.639 E16.31998
G1 X45.265 Y101.639 E16.33502
G1 X51.987 Y108.361 E16.61762
G1 X52.493 Y108.361 E16.63266
G1 X45.771 Y101.639 E16.91526
G1 X46.276 Y101.639 E16.93027
G1 X52.998 Y108.361 E17.21287
G1 X53.504 Y108.361 E17.22791
G1 X46.782 Y101.639 E17.51051
G1 X47.287 Y101.639 E17.52552
G1 X54.009 Y108.361 E17.80812
G1 X54.515 Y108.361 E17.82316
G1 X47.793 Y101.639 E18.10576
G1 X48.299 Y101.639 E18.1208
G1 X55.021 Y108.361 E18.4034
G1 X55.526 Y108.361 E18.41841
G1 X48.804 Y101.639 E18.70101
G1 X49.31 Y101.639 E18.71605
G1 X56.032 Y108.361 E18.99865
G1 X56.537 Y108.361 E19.01366
G1 X49.815 Y101.639 E19.29626
G1 X50.321 Y101.639 E19.3113
G1 X57.043 Y108.361 E19.5939
G1 X57.549 Y108.361 E19.60894
G1 X50.827 Y101.639 E19.89154
G1 X51.332 Y101.639 E19.90655
G1 X58.054 Y108.361 E20.18915
G1 X58.56 Y108.361 E20.20419
G1 X51.838 Y101.639 E20.48679
G1 X52.343 Y101.639 E20.5018
G1 X59.065 Y108.361 E20.7844
G1 X59.571 Y108.361 E20.79944
G1 X52.849 Y101.639 E21.08204
G1 X53.355 Y101.639 E21.09708
G1 X60.077 Y108.361 E21.37968
G1 X60.582 Y108.361 E21.39469
G1 X53.86 Y101.639 E21.67729
G1 X54.366 Y101.639 E21.69233
G1 X61.088 Y108.361 E21.97493
G1 X61.593 Y108.361 E21.98994
G1 X54.872 Y101.639 E22.27252
G1 X55.377 Y101.639 E22.28753
G1 X62.099 Y108.361 E22.57013
G1 X62.605 Y108.361 E22.58517
G1 X55.883 Y101.639 E22.86777
G1 X56.388 Y101.639 E22.88278
G1 X63.11 Y108.361 E23.16538
G1 X63.616 Y108.361 E23.18042
G1 X56.894 Y101.639 E23.46302
G1 X57.4 Y101.639 E23.47806
G1 X64.121 Y108.361 E23.76064
G1 X64.627 Y108.361 E23.77568
G1 X57.905 Y101.639 E24.05828
G1 X58.411 Y101.639 E24.07332
G1 X65.133 Y108.361 E24.35592
G1 X65.638 Y108.361 E24.37093
G1 X58.916 Y101.639 E24.65353
G1 X59.422 Y101.639 E24.66857
G1 X66.144 Y108.361 E24.95117
G1 X66.649 Y108.361 E24.96618
G1 X59.928 Y101.639 E25.24876
G1 X60.433 Y101.639 E25.26377
G1 X67.155 Y108.361 E25.54637
G1 X67.661 Y108.361 E25.56141
G1 X60.939 Y101.639 E25.84401
G1 X61.444 Y101.639 E25.85902
G1 X68.166 Y108.361 E26.14162
G1 X68.672 Y108.361 E26.15666
G1 X61.95 Y101.639 E26.43926
G1 X62.456 Y101.639 E26.4543
G1 X69.177 Y108.361 E26.73688
G1 X69.683 Y108.361 E26.75192
G1 X62.961 Y101.639 E27.03452
G1 X63.467 Y101.639 E27.04956
G1 X70.189 Y108.361 E27.33216
G1 X70.694 Y108.361 E27.34717
G1 X63.972 Y101.639 E27.62977
G1 X64.478 Y101.639 E27.64481
G1 X71.2 Y108.361 E27.92741
G1 X71.705 Y108.361 E27.94242
G1 X64.984 Y101.639 E28.225
G1 X65.489 Y101.639 E28.24001
G1 X72.211 Y108.361 E28.52261
G1 X72.717 Y108.361 E28.53765
G1 X65.995 Y101.639 E28.82025
G1 X66.5 Y101.639 E28.83526
G1 X73.222 Y108.361 E29.11786
G1 X73.728 Y108.361 E29.1329
G1 X67.006 Y101.639 E29.4155
G1 X67.512 Y101.639 E29.43054
G1 X74.234 Y108.361 E29.71314
G1 X74.739 Y108.361 E29.72815
G1 X68.017 Y101.639 E30.01075
G1 X68.523 Y101.639 E30.02579
G1 X75.245 Y108.361 E30.30839
G1 X75.75 Y108.361 E30.3234
G1 X69.028 Y101.639 E30.606
G1 X69.534 Y101.639 E30.62104
G1 X76.256 Y108.361 E30.90364
G1 X76.762 Y108.361 E30.91868
G1 X70.04 Y101.639 E31.20128
G1 X70.545 Y101.639 E31.21629
G1 X77.267 Y108.361 E31.49889
G1 X77.773 Y108.361 E31.51393
G1 X71.051 Y101.639 E31.79653
G1 X71.556 Y101.639 E31.81154
G1 X78.278 Y108.361 E32.09414
G1 X78.784 Y108.361 E32.10918
G1 X72.062 Y101.639 E32.39178
G1 X72.568 Y101.639 E32.40682
G1 X79.29 Y108.361 E32.68942
G1 X79.795 Y108.361 E32.70443
G1 X73.073 Y101.639 E32.98703
