; generated by PrusaSlicer 2.9.0 on 2026-04-10 at 19:04:44 UTC

; 

; external perimeters extrusion width = 0.45mm
; perimeters extrusion width = 0.45mm
; infill extrusion width = 0.45mm
; solid infill extrusion width = 0.45mm
; top infill extrusion width = 0.40mm
; first layer extrusion width = 0.40mm

M190 S80 ; set bed temperature and wait for it to be reached
M104 S235 ; set temperature
;TYPE:Custom
G28 ; home all axes
G1 Z5 F5000 ; lift nozzle
M109 S235 ; set temperature and wait for it to be reached
G21 ; set units to millimeters
G90 ; use absolute coordinates
M82 ; use absolute distances for extrusion
G92 E0
; Filament gcode
M107
;LAYER_CHANGE
;Z:0.2
;HEIGHT:0.2
G1 E-5 F2400
G1 Z.2 F6000
G1 X110.255 Y99.585
G1 E.00001 F2400
;TYPE:Skirt/Brim
;WIDTH:0.4
G1 F2520
G1 X111.369 Y98.679 E.04263
G1 X115.179 Y96.479 E.17326
G1 X116.521 Y95.967 E.21591
G1 X117.639 Y95.82 E.24939
G1 X122.038 Y95.82 E.38
G1 X123.156 Y95.967 E.41348
G1 X124.499 Y96.479 E.45615
G1 X128.308 Y98.679 E.58675
G1 X129.203 Y99.365 E.62023
G1 X130.11 Y100.48 E.66291
G1 X132.309 Y104.29 E.79352
G1 X132.821 Y105.632 E.83617
G1 X132.968 Y106.75 E.86965
G1 X132.968 Y111.149 E1.00026
G1 X132.821 Y112.267 E1.03374
G1 X132.309 Y113.61 E1.07641
G1 X130.11 Y117.419 E1.207
G1 X129.423 Y118.314 E1.2405
G1 X128.308 Y119.221 E1.28318
G1 X124.499 Y121.42 E1.41377
G1 X123.156 Y121.932 E1.45644
G1 X122.038 Y122.079 E1.48992
G1 X117.639 Y122.079 E1.62053
G1 X116.521 Y121.932 E1.65401
G1 X115.179 Y121.42 E1.69666
G1 X111.369 Y119.221 E1.82727
G1 X110.474 Y118.534 E1.86077
G1 X109.568 Y117.419 E1.90343
G1 X107.369 Y113.61 E2.03402
G1 X106.856 Y112.267 E2.07671
G1 X106.709 Y111.149 E2.11019
G1 X106.709 Y106.75 E2.2408
G1 X106.856 Y105.632 E2.27428
G1 X107.369 Y104.29 E2.31694
G1 X109.568 Y100.48 E2.44755
G1 X110.218 Y99.633 E2.47925
G1 X110.499 Y99.848 F6000
G1 F2520
G1 X110.507 Y99.838 E2.47963
G1 X111.548 Y98.988 E2.51953
G1 X115.357 Y96.789 E2.65012
G1 X116.614 Y96.312 E2.69004
G1 X117.639 Y96.177 E2.72074
G1 X122.038 Y96.177 E2.85135
G1 X123.064 Y96.312 E2.88208
G1 X124.32 Y96.789 E2.92197
G1 X128.13 Y98.988 E3.05258
G1 X128.951 Y99.618 E3.08331
G1 X129.8 Y100.659 E3.12319
G1 X132 Y104.468 E3.25379
G1 X132.476 Y105.724 E3.29367
G1 X132.611 Y106.75 E3.3244
G1 X132.611 Y111.149 E3.45501
G1 X132.476 Y112.175 E3.48574
G1 X132 Y113.431 E3.52562
G1 X129.8 Y117.241 E3.65625
G1 X129.17 Y118.062 E3.68698
G1 X128.13 Y118.911 E3.72684
G1 X124.32 Y121.111 E3.85747
G1 X123.064 Y121.587 E3.89735
G1 X122.038 Y121.722 E3.92808
G1 X117.639 Y121.722 E4.05869
G1 X116.614 Y121.587 E4.08939
G1 X115.357 Y121.111 E4.1293
G1 X111.548 Y118.911 E4.2599
G1 X110.727 Y118.281 E4.29063
G1 X109.877 Y117.241 E4.33051
G1 X107.678 Y113.431 E4.46112
G1 X107.201 Y112.175 E4.50101
G1 X107.066 Y111.149 E4.53174
G1 X107.066 Y106.75 E4.66235
G1 X107.201 Y105.724 E4.69308
G1 X107.678 Y104.468 E4.73297
G1 X109.877 Y100.659 E4.86356
G1 X110.462 Y99.896 E4.89211
G1 X110.462 Y99.896 F6000
G1 X110.743 Y100.112
G1 F2520
G1 X110.76 Y100.09 E4.89294
G1 X111.726 Y99.297 E4.93005
G1 X115.536 Y97.098 E5.06066
G1 X116.706 Y96.657 E5.09778
G1 X117.639 Y96.534 E5.12572
G1 X122.038 Y96.534 E5.25633
G1 X122.972 Y96.657 E5.2843
G1 X124.142 Y97.098 E5.32142
G1 X127.951 Y99.297 E5.45201
G1 X128.698 Y99.87 E5.47996
G1 X129.491 Y100.837 E5.51709
G1 X131.69 Y104.647 E5.6477
G1 X132.131 Y105.817 E5.68482
G1 X132.254 Y106.75 E5.71276
G1 X132.254 Y111.149 E5.84337
G1 X132.131 Y112.083 E5.87134
G1 X131.69 Y113.253 E5.90846
G1 X129.491 Y117.062 E6.03905
G1 X128.918 Y117.809 E6.067
G1 X127.951 Y118.602 E6.10413
G1 X124.142 Y120.801 E6.23472
G1 X122.972 Y121.242 E6.27184
G1 X122.038 Y121.365 E6.29981
G1 X117.639 Y121.365 E6.43042
G1 X116.706 Y121.242 E6.45836
G1 X115.536 Y120.801 E6.49548
G1 X111.726 Y118.602 E6.62609
G1 X110.979 Y118.029 E6.65404
G1 X110.186 Y117.062 E6.69117
G1 X107.987 Y113.253 E6.82176
G1 X107.546 Y112.083 E6.85888
G1 X107.423 Y111.149 E6.88685
G1 X107.423 Y106.75 E7.01746
G1 X107.546 Y105.817 E7.0454
G1 X107.987 Y104.647 E7.08252
G1 X110.186 Y100.837 E7.21313
G1 X110.707 Y100.159 E7.23852
G1 X110.707 Y100.159 F6000
G1 X110.988 Y100.375
G1 F2520
G1 X111.012 Y100.343 E7.23971
G1 X111.905 Y99.606 E7.27409
G1 X115.714 Y97.407 E7.40468
G1 X116.798 Y97.002 E7.43904
G1 X117.639 Y96.891 E7.46423
G1 X122.038 Y96.891 E7.59484
G1 X122.879 Y97.002 E7.62003
G1 X123.963 Y97.407 E7.65439
G1 X127.773 Y99.606 E7.785
G1 X128.446 Y100.123 E7.8102
G1 X129.182 Y101.016 E7.84456
G1 X131.381 Y104.825 E7.97515
G1 X131.786 Y105.909 E8.00951
G1 X131.897 Y106.75 E8.0347
G1 X131.897 Y111.149 E8.16531
G1 X131.786 Y111.99 E8.1905
G1 X131.381 Y113.074 E8.22486
G1 X129.182 Y116.883 E8.35545
G1 X128.666 Y117.557 E8.38065
G1 X127.773 Y118.293 E8.41501
G1 X123.963 Y120.492 E8.54562
G1 X122.879 Y120.897 E8.57998
G1 X122.038 Y121.008 E8.60517
G1 X117.639 Y121.008 E8.73578
G1 X116.798 Y120.897 E8.76097
G1 X115.714 Y120.492 E8.79533
G1 X111.905 Y118.293 E8.92592
G1 X111.232 Y117.776 E8.95112
G1 X110.496 Y116.883 E8.98548
G1 X108.296 Y113.074 E9.11608
G1 X107.891 Y111.99 E9.15044
G1 X107.78 Y111.149 E9.17563
G1 X107.78 Y106.75 E9.30624
G1 X107.891 Y105.909 E9.33143
G1 X108.296 Y104.825 E9.36579
G1 X110.496 Y101.016 E9.49639
G1 X110.951 Y100.422 E9.51861
G1 X110.951 Y100.422 F6000
G1 X111.232 Y100.638
G1 F2520
G1 X111.265 Y100.595 E9.52022
G1 X112.083 Y99.916 E9.55178
G1 X115.893 Y97.716 E9.68241
G1 X116.891 Y97.347 E9.714
G1 X117.639 Y97.248 E9.7364
G1 X122.038 Y97.248 E9.86701
G1 X122.787 Y97.347 E9.88944
G1 X123.785 Y97.716 E9.92103
G1 X127.594 Y99.916 E10.05163
G1 X128.193 Y100.375 E10.07404
G1 X128.873 Y101.194 E10.10565
G1 X131.072 Y105.004 E10.23626
G1 X131.441 Y106.002 E10.26785
G1 X131.54 Y106.75 E10.29025
G1 X131.54 Y111.149 E10.42086
G1 X131.441 Y111.898 E10.44329
G1 X131.072 Y112.896 E10.47488
G1 X128.873 Y116.705 E10.60547
G1 X128.413 Y117.304 E10.62789
G1 X127.594 Y117.984 E10.6595
G1 X123.785 Y120.183 E10.79009
G1 X122.787 Y120.552 E10.82168
G1 X122.038 Y120.651 E10.84411
G1 X117.639 Y120.651 E10.97472
G1 X116.891 Y120.552 E10.99712
G1 X115.893 Y120.183 E11.02871
G1 X112.083 Y117.984 E11.15932
G1 X111.484 Y117.524 E11.18174
G1 X110.805 Y116.705 E11.21333
G1 X108.606 Y112.896 E11.34392
G1 X108.236 Y111.898 E11.37552
G1 X108.137 Y111.149 E11.39795
G1 X108.137 Y106.75 E11.52856
G1 X108.236 Y106.002 E11.55096
G1 X108.606 Y105.004 E11.58256
G1 X110.805 Y101.194 E11.71317
G1 X111.195 Y100.685 E11.73221
G1 X111.195 Y100.685 F6000
G1 X111.476 Y100.901
G1 F2520
G1 X111.517 Y100.848 E11.7342
G1 X112.262 Y100.225 E11.76304
G1 X116.071 Y98.026 E11.89363
G1 X116.983 Y97.692 E11.92247
G1 X117.639 Y97.605 E11.94212
G1 X122.038 Y97.605 E12.07273
G1 X122.694 Y97.692 E12.09238
G1 X123.606 Y98.026 E12.12122
G1 X127.415 Y100.225 E12.25181
G1 X127.941 Y100.628 E12.27148
G1 X128.563 Y101.373 E12.3003
G1 X130.763 Y105.182 E12.4309
G1 X131.097 Y106.094 E12.45974
G1 X131.183 Y106.75 E12.47938
G1 X131.183 Y111.149 E12.60999
G1 X131.097 Y111.805 E12.62963
G1 X130.763 Y112.717 E12.65847
G1 X128.563 Y116.526 E12.78907
G1 X128.161 Y117.052 E12.80873
G1 X127.415 Y117.674 E12.83757
G1 X123.606 Y119.874 E12.96817
G1 X122.694 Y120.207 E12.997
G1 X122.038 Y120.294 E13.01665
G1 X117.639 Y120.294 E13.14726
G1 X116.983 Y120.207 E13.16691
G1 X116.071 Y119.874 E13.19574
G1 X112.262 Y117.674 E13.32634
G1 X111.737 Y117.271 E13.34599
G1 X111.114 Y116.526 E13.37483
G1 X108.915 Y112.717 E13.50542
G1 X108.581 Y111.805 E13.53426
G1 X108.495 Y111.149 E13.5539
G1 X108.495 Y106.75 E13.68451
G1 X108.581 Y106.094 E13.70415
G1 X108.915 Y105.182 E13.73299
G1 X111.114 Y101.373 E13.86358
G1 X111.44 Y100.949 E13.87946
G1 X111.44 Y100.949 F6000
G1 X111.721 Y101.164
G1 F2520
G1 X111.769 Y101.1 E13.88184
G1 X112.441 Y100.534 E13.90793
G1 X116.25 Y98.335 E14.03852
G1 X117.076 Y98.037 E14.06459
G1 X117.639 Y97.963 E14.08145
G1 X122.038 Y97.963 E14.21206
G1 X122.602 Y98.037 E14.22895
G1 X123.428 Y98.335 E14.25502
G1 X127.237 Y100.534 E14.38561
G1 X127.688 Y100.88 E14.40249
G1 X128.254 Y101.552 E14.42858
G1 X130.454 Y105.361 E14.55918
G1 X130.752 Y106.187 E14.58525
G1 X130.826 Y106.75 E14.60211
G1 X130.826 Y111.149 E14.73272
G1 X130.752 Y111.713 E14.74961
G1 X130.454 Y112.539 E14.77568
G1 X128.254 Y116.348 E14.90628
G1 X127.908 Y116.799 E14.92316
G1 X127.237 Y117.365 E14.94922
G1 X123.428 Y119.564 E15.07981
G1 X122.602 Y119.863 E15.10589
G1 X122.038 Y119.937 E15.12278
G1 X117.639 Y119.937 E15.25339
G1 X117.076 Y119.863 E15.27025
G1 X116.25 Y119.564 E15.29633
G1 X112.441 Y117.365 E15.42692
G1 X111.989 Y117.019 E15.44382
G1 X111.423 Y116.348 E15.46988
G1 X109.224 Y112.539 E15.60047
G1 X108.926 Y111.713 E15.62654
G1 X108.852 Y111.149 E15.64343
G1 X108.852 Y106.75 E15.77404
G1 X108.926 Y106.187 E15.7909
G1 X109.224 Y105.361 E15.81697
G1 X111.423 Y101.552 E15.94756
G1 X111.684 Y101.212 E15.96029
G1 E10.96029 F2400
G92 E0
G1 X111.684 Y101.212 F6000
G92 E0
G1 X119.839 Y112.713
G1 E5 F2400
;TYPE:Perimeter
;WIDTH:0.399999
G1 F1470
G1 X119.73 Y112.719 E5.00324
G1 X118.764 Y112.534 E5.03244
G1 X118.278 Y112.38 E5.04758
G1 X117.684 Y111.99 E5.06868
G1 X117.17 Y111.618 E5.08752
G1 X116.468 Y110.61 E5.12399
G1 X116.281 Y110.159 E5.13849
G1 X116.089 Y109.194 E5.1677
G1 X116.07 Y108.841 E5.1782
G1 X116.254 Y107.875 E5.2074
G1 X116.408 Y107.389 E5.22254
G1 X116.798 Y106.795 E5.24364
G1 X117.17 Y106.281 E5.26248
G1 X118.179 Y105.579 E5.29898
G1 X118.629 Y105.392 E5.31345
G1 X119.595 Y105.2 E5.34269
G1 X119.948 Y105.181 E5.35319
G1 X120.913 Y105.365 E5.38236
G1 X121.385 Y105.511 E5.39703
G1 X122.318 Y106.126 E5.43021
G1 X122.663 Y106.471 E5.4447
G1 X123.21 Y107.29 E5.47394
G1 X123.396 Y107.74 E5.4884
G1 X123.588 Y108.706 E5.51764
G1 X123.608 Y109.059 E5.52814
G1 X123.423 Y110.024 E5.55731
G1 X123.277 Y110.496 E5.57198
G1 X122.879 Y111.104 E5.59356
G1 X122.507 Y111.618 E5.6124
G1 X121.499 Y112.321 E5.64889
G1 X121.048 Y112.507 E5.66337
G1 X120.083 Y112.699 E5.69258
G1 X119.899 Y112.709 E5.69805
G1 X119.899 Y112.709 F6000
G1 X119.839 Y112.349
G1 F1470
G1 X119.665 Y112.349 E5.70322
G1 X118.699 Y112.157 E5.73246
G1 X118.377 Y112.024 E5.7428
G1 X117.558 Y111.477 E5.77204
G1 X117.312 Y111.23 E5.78239
G1 X116.765 Y110.411 E5.81163
G1 X116.631 Y110.09 E5.82196
G1 X116.439 Y109.124 E5.8512
G1 X116.439 Y108.776 E5.86153
G1 X116.631 Y107.81 E5.89077
G1 X116.765 Y107.488 E5.90113
G1 X117.312 Y106.669 E5.93037
G1 X117.558 Y106.423 E5.9407
G1 X118.377 Y105.876 E5.96994
G1 X118.699 Y105.742 E5.9803
G1 X119.665 Y105.55 E6.00954
G1 X120.013 Y105.55 E6.01987
G1 X120.979 Y105.742 E6.04911
G1 X121.301 Y105.876 E6.05947
G1 X122.119 Y106.423 E6.08869
G1 X122.366 Y106.669 E6.09904
G1 X122.913 Y107.488 E6.12828
G1 X123.046 Y107.81 E6.13862
G1 X123.238 Y108.776 E6.16786
G1 X123.238 Y109.124 E6.17819
G1 X123.046 Y110.09 E6.20743
G1 X122.913 Y110.411 E6.21775
G1 X122.583 Y110.906 E6.23541
G1 X122.255 Y111.366 E6.25218
G1 X121.301 Y112.024 E6.28659
G1 X120.979 Y112.157 E6.29693
G1 X120.013 Y112.349 E6.32617
G1 X119.899 Y112.349 E6.32955
G1 X119.899 Y112.349 F6000
G1 X119.839 Y111.999
G1 F1470
G1 X119.734 Y111.999 E6.33267
G1 X118.768 Y111.807 E6.36191
G1 X118.575 Y111.727 E6.36811
G1 X117.757 Y111.18 E6.39733
G1 X117.609 Y111.032 E6.40354
G1 X117.062 Y110.213 E6.43278
G1 X116.955 Y109.885 E6.44302
G1 X116.79 Y109.054 E6.46818
G1 X116.79 Y108.845 E6.47439
G1 X116.982 Y107.879 E6.50363
G1 X117.062 Y107.686 E6.50983
G1 X117.609 Y106.867 E6.53907
G1 X117.757 Y106.72 E6.54526
G1 X118.575 Y106.173 E6.57448
G1 X118.904 Y106.066 E6.58475
G1 X119.734 Y105.901 E6.60988
G1 X119.943 Y105.901 E6.61609
G1 X120.909 Y106.093 E6.64533
G1 X121.102 Y106.173 E6.65153
G1 X121.921 Y106.72 E6.68077
G1 X122.069 Y106.867 E6.68696
G1 X122.616 Y107.686 E6.7162
G1 X122.723 Y108.015 E6.72647
G1 X122.888 Y108.845 E6.7516
G1 X122.888 Y109.054 E6.75781
G1 X122.696 Y110.02 E6.78705
G1 X122.616 Y110.213 E6.79325
G1 X122.286 Y110.707 E6.81089
G1 X122.002 Y111.113 E6.8256
G1 X121.102 Y111.727 E6.85795
G1 X120.774 Y111.834 E6.86819
G1 X119.943 Y111.999 E6.89335
G1 X119.899 Y111.999 E6.89466
G1 X119.899 Y111.999 F6000
G1 X119.838 Y111.642
;TYPE:External perimeter
G1 F1470
G1 X118.973 Y111.483 E6.92077
G1 X118.774 Y111.43 E6.92688
G1 X117.955 Y110.883 E6.95612
G1 X117.608 Y110.387 E6.97409
G1 X117.332 Y109.95 E6.98944
G1 X117.14 Y108.985 E7.01865
G1 X117.305 Y108.084 E7.04585
G1 X117.359 Y107.885 E7.05197
G1 X117.906 Y107.066 E7.08121
G1 X118.401 Y106.718 E7.09918
G1 X118.838 Y106.443 E7.11451
G1 X119.804 Y106.251 E7.14375
G1 X120.704 Y106.416 E7.17092
G1 X120.904 Y106.47 E7.17707
G1 X121.723 Y107.017 E7.20631
G1 X122.319 Y107.885 E7.23757
G1 X122.538 Y108.915 E7.26884
G1 X122.373 Y109.815 E7.29601
G1 X122.319 Y110.015 E7.30216
G1 X121.989 Y110.509 E7.3198
G1 X121.723 Y110.883 E7.33343
G1 X120.904 Y111.43 E7.36267
G1 X119.897 Y111.644 E7.39324
G1 X119.502 Y111.579 F6000
G1 E2.39324 F2400
G92 E0
G1 X119.454 Y111.819 F6000
G1 X119.839 Y111.896
G1 X120.966 Y111.672
G1 X126.578 Y108.95
G1 E5 F2400
;TYPE:Perimeter
G1 F2100
G1 X126.598 Y109.247 E5.00884
G1 X126.773 Y110.269 E5.03963
G1 X127.069 Y110.887 E5.05998
G1 X126.504 Y111.274 E5.08031
G1 X125.7 Y112.255 E5.11797
G1 X125.44 Y112.86 E5.13752
G1 X125.185 Y113.559 E5.15961
G1 X125.132 Y114.243 E5.17998
G1 X124.696 Y114.26 E5.19294
G1 X124.304 Y114.34 E5.20482
G1 X123.384 Y114.689 E5.23404
G1 X123.037 Y114.89 E5.24595
G1 X122.164 Y115.615 E5.27964
G1 X121.776 Y116.18 E5.29999
G1 X121.39 Y115.978 E5.31293
G1 X120.972 Y115.844 E5.32596
G1 X119.948 Y115.682 E5.35674
G1 X119.542 Y115.709 E5.36882
G1 X118.52 Y115.884 E5.39961
G1 X117.901 Y116.18 E5.41998
G1 X117.514 Y115.615 E5.44031
G1 X116.533 Y114.811 E5.47797
G1 X115.929 Y114.551 E5.49749
G1 X115.229 Y114.295 E5.51962
G1 X114.546 Y114.243 E5.53996
G1 X114.528 Y113.807 E5.55292
G1 X114.448 Y113.415 E5.5648
G1 X114.099 Y112.495 E5.59402
G1 X113.899 Y112.148 E5.60591
G1 X113.174 Y111.274 E5.63963
G1 X112.609 Y110.887 E5.65996
G1 X112.811 Y110.501 E5.6729
G1 X112.944 Y110.083 E5.68592
G1 X113.107 Y109.059 E5.71671
G1 X113.08 Y108.653 E5.72879
G1 X112.904 Y107.631 E5.75958
G1 X112.609 Y107.012 E5.77994
G1 X113.174 Y106.625 E5.80027
G1 X113.977 Y105.644 E5.83791
G1 X114.238 Y105.039 E5.85747
G1 X114.493 Y104.34 E5.87956
G1 X114.546 Y103.657 E5.8999
G1 X114.981 Y103.639 E5.91283
G1 X115.374 Y103.559 E5.92474
G1 X116.294 Y103.21 E5.95396
G1 X116.641 Y103.01 E5.96585
G1 X117.514 Y102.285 E5.99954
G1 X117.901 Y101.72 E6.01987
G1 X118.287 Y101.922 E6.03281
G1 X118.706 Y102.055 E6.04586
G1 X119.73 Y102.218 E6.07665
G1 X120.136 Y102.191 E6.08873
G1 X121.158 Y102.015 E6.11952
G1 X121.776 Y101.72 E6.13985
G1 X122.164 Y102.285 E6.1602
G1 X123.144 Y103.088 E6.19782
G1 X123.749 Y103.348 E6.21737
G1 X124.448 Y103.604 E6.23947
G1 X125.132 Y103.657 E6.25984
G1 X125.149 Y104.092 E6.27277
G1 X125.23 Y104.485 E6.28468
G1 X125.578 Y105.405 E6.31388
G1 X125.779 Y105.752 E6.32579
G1 X126.504 Y106.625 E6.35948
G1 X127.069 Y107.012 E6.37981
G1 X126.867 Y107.398 E6.39275
G1 X126.734 Y107.817 E6.4058
G1 X126.571 Y108.841 E6.43659
G1 X126.574 Y108.89 E6.43805
G1 X126.94 Y108.95 F6000
G1 F2100
G1 X126.935 Y109.093 E6.4423
G1 X127.086 Y110.025 E6.47033
G1 X127.183 Y110.335 E6.47997
G1 X127.538 Y111.013 E6.50269
G1 X126.892 Y111.422 E6.52539
G1 X126.678 Y111.611 E6.53387
G1 X126.055 Y112.374 E6.56312
G1 X125.912 Y112.622 E6.57162
G1 X125.574 Y113.512 E6.59989
G1 X125.506 Y113.822 E6.60931
G1 X125.475 Y114.586 E6.63201
G1 X124.711 Y114.617 E6.65471
G1 X124.431 Y114.674 E6.66319
G1 X123.511 Y115.023 E6.69241
G1 X123.263 Y115.166 E6.70091
G1 X122.638 Y115.677 E6.72488
G1 X122.311 Y116.003 E6.73859
G1 X121.902 Y116.649 E6.76129
G1 X121.225 Y116.294 E6.78399
G1 X120.953 Y116.203 E6.79251
G1 X120.079 Y116.061 E6.8188
G1 X119.696 Y116.045 E6.83018
G1 X118.763 Y116.197 E6.85825
G1 X118.453 Y116.294 E6.86789
G1 X117.776 Y116.649 E6.89059
G1 X117.367 Y116.003 E6.91329
G1 X117.177 Y115.789 E6.92179
G1 X116.415 Y115.166 E6.95101
G1 X116.167 Y115.023 E6.95951
G1 X115.276 Y114.685 E6.9878
G1 X114.967 Y114.617 E6.99719
G1 X114.202 Y114.586 E7.01992
G1 X114.171 Y113.822 E7.04262
G1 X114.114 Y113.541 E7.05113
