; generated by PrusaSlicer 2.9.0 on 2026-04-12 at 09:05:21 UTC

; 

; external perimeters extrusion width = 0.45mm
; perimeters extrusion width = 0.45mm
; infill extrusion width = 0.45mm
; solid infill extrusion width = 0.45mm
; top infill extrusion width = 0.40mm
; first layer extrusion width = 0.40mm

M190 S80 ; set bed temperature and wait for it to be reached
M104 S235 ; set temperature
;TYPE:Custom
G28 ; home all axes
G1 Z5 F5000 ; lift nozzle
M109 S235 ; set temperature and wait for it to be reached
G21 ; set units to millimeters
G90 ; use absolute coordinates
M82 ; use absolute distances for extrusion
G92 E0
; Filament gcode
M107
;LAYER_CHANGE
;Z:0.2
;HEIGHT:0.2
G1 E-5 F2400
G1 Z.2 F6000
G1 X101.055 Y98.409
G1 E.00001 F2400
;TYPE:Skirt/Brim
;WIDTH:0.4
G1 F2520
G1 X102.271 Y97.581 E.04368
G1 X102.833 Y97.391 E.06129
G1 X103.767 Y97.268 E.08926
G1 X150.767 Y97.268 E1.48475
G1 X151.7 Y97.391 E1.51269
G1 X152.262 Y97.581 E1.5303
G1 X153.478 Y98.409 E1.57398
G1 X154.26 Y99.579 E1.61576
G1 X154.45 Y100.141 E1.63337
G1 X154.573 Y101.013 E1.65952
G1 X154.683 Y107.45 E1.85067
G1 X154.573 Y117.537 E2.15018
G1 X154.45 Y118.408 E2.1763
G1 X154.26 Y118.971 E2.19394
G1 X153.478 Y120.141 E2.23572
G1 X152.262 Y120.968 E2.27938
G1 X151.7 Y121.159 E2.297
G1 X150.767 Y121.282 E2.32494
G1 X103.767 Y121.282 E3.72043
G1 X102.833 Y121.159 E3.7484
G1 X102.271 Y120.968 E3.76602
G1 X101.1 Y120.187 E3.80781
G1 X100.273 Y118.971 E3.85147
G1 X100.083 Y118.408 E3.86911
G1 X99.96 Y117.537 E3.89523
G1 X99.85 Y111.1 E4.08638
G1 X99.96 Y101.013 E4.38589
G1 X100.083 Y100.141 E4.41204
G1 X100.273 Y99.579 E4.42965
G1 X101.021 Y98.459 E4.46964
G1 X101.021 Y98.459 F6000
G1 X101.307 Y98.661
G1 F2520
G1 X102.46 Y97.889 E4.51084
G1 X102.925 Y97.736 E4.52537
G1 X103.767 Y97.625 E4.55059
G1 X150.767 Y97.625 E5.94608
G1 X151.608 Y97.736 E5.97127
G1 X152.126 Y97.911 E5.9875
G1 X153.226 Y98.661 E6.02703
G1 X153.93 Y99.716 E6.06469
G1 X154.106 Y100.234 E6.08093
G1 X154.216 Y101.019 E6.10447
G1 X154.325 Y107.45 E6.29544
G1 X154.216 Y117.531 E6.59478
G1 X154.106 Y118.316 E6.61832
G1 X153.93 Y118.834 E6.63456
G1 X153.226 Y119.888 E6.67219
G1 X152.073 Y120.661 E6.71341
G1 X151.608 Y120.814 E6.72794
G1 X150.767 Y120.925 E6.75313
G1 X103.767 Y120.925 E8.14862
G1 X102.925 Y120.814 E8.17384
G1 X102.46 Y120.661 E8.18837
G1 X101.353 Y119.934 E8.22769
G1 X100.581 Y118.781 E8.26889
G1 X100.427 Y118.316 E8.28343
G1 X100.317 Y117.531 E8.30697
G1 X100.208 Y111.155 E8.49631
G1 X100.317 Y101.019 E8.79728
G1 X100.427 Y100.234 E8.82082
G1 X100.603 Y99.716 E8.83706
G1 X101.274 Y98.711 E8.87294
G1 X101.274 Y98.711 F6000
G1 X101.56 Y98.914
G1 F2520
G1 X102.597 Y98.219 E8.91001
G1 X103.018 Y98.081 E8.92316
G1 X103.767 Y97.982 E8.94559
G1 X150.767 Y97.982 E10.34108
G1 X151.515 Y98.081 E10.36348
G1 X151.989 Y98.241 E10.37833
G1 X152.973 Y98.914 E10.41373
G1 X153.6 Y99.852 E10.44723
G1 X153.761 Y100.326 E10.46209
G1 X153.859 Y101.025 E10.48305
G1 X153.968 Y107.45 E10.67384
G1 X153.859 Y117.524 E10.97297
G1 X153.761 Y118.224 E10.99396
G1 X153.6 Y118.697 E11.0088
G1 X152.973 Y119.636 E11.04232
G1 X151.936 Y120.331 E11.07939
G1 X151.515 Y120.469 E11.09254
G1 X150.767 Y120.568 E11.11494
G1 X103.767 Y120.568 E12.51043
G1 X103.018 Y120.469 E12.53286
G1 X102.597 Y120.331 E12.54601
G1 X101.605 Y119.682 E12.58121
G1 X100.911 Y118.644 E12.61828
G1 X100.674 Y117.524 E12.65227
G1 X100.565 Y111.149 E12.84158
G1 X100.674 Y101.025 E13.14219
G1 X100.772 Y100.326 E13.16315
G1 X100.933 Y99.852 E13.17801
G1 X101.526 Y98.964 E13.20971
G1 X101.526 Y98.964 F6000
G1 X101.812 Y99.166
G1 F2520
G1 X102.734 Y98.549 E13.24265
G1 X103.767 Y98.339 E13.27395
G1 X150.767 Y98.339 E14.66944
G1 X151.423 Y98.426 E14.68909
G1 X151.852 Y98.571 E14.70254
G1 X152.721 Y99.166 E14.73381
G1 X153.27 Y99.989 E14.76318
G1 X153.502 Y101.031 E14.79488
G1 X153.611 Y107.45 E14.9855
G1 X153.502 Y117.518 E15.28445
G1 X153.27 Y118.561 E15.31617
G1 X152.721 Y119.383 E15.34552
G1 X151.799 Y120.001 E15.37848
G1 X150.767 Y120.21 E15.40974
G1 X103.767 Y120.21 E16.80523
G1 X102.734 Y120.001 E16.83652
G1 X101.858 Y119.429 E16.86758
G1 X101.241 Y118.508 E16.90049
G1 X101.031 Y117.518 E16.93054
G1 X100.922 Y111.143 E17.11985
G1 X101.031 Y101.031 E17.42011
G1 X101.263 Y99.989 E17.45181
G1 X101.779 Y99.216 E17.47941
G1 X101.779 Y99.216 F6000
G1 X102.065 Y99.419
G1 F2520
G1 X102.87 Y98.879 E17.50819
G1 X103.767 Y98.696 E17.53537
G1 X150.767 Y98.696 E18.93086
G1 X151.33 Y98.771 E18.94772
G1 X151.716 Y98.901 E18.95981
G1 X152.423 Y99.373 E18.98505
G1 X152.941 Y100.126 E19.01219
G1 X153.071 Y100.511 E19.02426
G1 X153.145 Y101.038 E19.04006
G1 X153.254 Y107.413 E19.22937
G1 X153.145 Y117.512 E19.52924
G1 X152.941 Y118.424 E19.55699
G1 X152.468 Y119.131 E19.58225
G1 X151.663 Y119.671 E19.61103
G1 X150.767 Y119.853 E19.63818
G1 X103.767 Y119.853 E21.03367
G1 X102.87 Y119.671 E21.06085
G1 X102.11 Y119.177 E21.08776
G1 X101.571 Y118.371 E21.11655
G1 X101.388 Y117.512 E21.14263
G1 X101.279 Y111.137 E21.33194
G1 X101.388 Y101.038 E21.63181
G1 X101.593 Y100.126 E21.65956
G1 X102.031 Y99.469 E21.683
G1 E16.683 F2400
G92 E0
G1 X102.031 Y99.469 F6000
G92 E0
G1 X123.648 Y107.776
G1 E5 F2400
;TYPE:Perimeter
;WIDTH:0.399999
G1 F1470
G1 X123.669 Y107.712 E5.002
G1 X124.337 Y106.69 E5.03825
G1 X124.681 Y106.345 E5.05272
G1 X125.549 Y105.765 E5.08372
G1 X125.999 Y105.579 E5.09818
G1 X127.023 Y105.375 E5.12918
G1 X127.267 Y105.351 E5.13646
G1 X127.51 Y105.375 E5.14371
G1 X128.534 Y105.579 E5.17471
G1 X128.984 Y105.765 E5.18917
G1 X129.852 Y106.345 E5.22017
G1 X130.196 Y106.69 E5.23464
G1 X130.776 Y107.557 E5.26561
G1 X130.925 Y107.863 E5.27572
G1 X131.166 Y109.031 E5.31113
G1 X131.185 Y109.392 E5.32186
G1 X130.963 Y110.542 E5.35664
G1 X130.864 Y110.838 E5.36591
G1 X130.196 Y111.86 E5.40216
G1 X129.852 Y112.205 E5.41663
G1 X128.984 Y112.784 E5.44761
G1 X128.534 Y112.971 E5.46208
G1 X127.51 Y113.174 E5.49308
G1 X127.267 Y113.198 E5.50033
G1 X127.023 Y113.174 E5.50761
G1 X125.999 Y112.971 E5.53861
G1 X125.549 Y112.784 E5.55308
G1 X124.681 Y112.205 E5.58406
G1 X124.337 Y111.86 E5.59853
G1 X123.757 Y110.992 E5.62953
G1 X123.608 Y110.686 E5.63964
G1 X123.367 Y109.519 E5.67502
G1 X123.348 Y109.158 E5.68575
G1 X123.57 Y108.008 E5.72053
G1 X123.629 Y107.833 E5.72601
G1 X123.629 Y107.833 F6000
G1 X123.987 Y107.917
G1 F1470
G1 X124.054 Y107.756 E5.73119
G1 X124.634 Y106.888 E5.76219
G1 X124.88 Y106.642 E5.77252
G1 X125.747 Y106.062 E5.80349
G1 X126.069 Y105.929 E5.81383
G1 X127.092 Y105.725 E5.8448
G1 X127.267 Y105.708 E5.85002
G1 X127.441 Y105.725 E5.85521
G1 X128.464 Y105.929 E5.88618
G1 X128.786 Y106.062 E5.89652
G1 X129.653 Y106.642 E5.92749
G1 X129.899 Y106.888 E5.93782
G1 X130.479 Y107.756 E5.96882
G1 X130.612 Y108.077 E5.97914
G1 X130.816 Y109.101 E6.01014
G1 X130.816 Y109.449 E6.02047
G1 X130.612 Y110.472 E6.05144
G1 X130.479 Y110.794 E6.06178
G1 X129.899 Y111.662 E6.09278
G1 X129.653 Y111.908 E6.10311
G1 X128.786 Y112.487 E6.13406
G1 X128.464 Y112.621 E6.14442
G1 X127.441 Y112.824 E6.17539
G1 X127.092 Y112.824 E6.18575
G1 X126.069 Y112.621 E6.21672
G1 X125.747 Y112.487 E6.22708
G1 X124.88 Y111.908 E6.25803
G1 X124.634 Y111.662 E6.26836
G1 X124.054 Y110.794 E6.29936
G1 X123.921 Y110.472 E6.3097
G1 X123.717 Y109.449 E6.34067
G1 X123.717 Y109.101 E6.351
G1 X123.921 Y108.077 E6.382
G1 X123.964 Y107.972 E6.38537
G1 X123.964 Y107.972 F6000
G1 X124.311 Y108.051
G1 F1470
G1 X124.351 Y107.954 E6.38849
G1 X124.93 Y107.087 E6.41944
G1 X125.078 Y106.939 E6.42565
G1 X125.946 Y106.359 E6.45665
G1 X126.139 Y106.279 E6.46285
G1 X127.267 Y106.065 E6.49694
G1 X128.394 Y106.279 E6.531
G1 X128.587 Y106.359 E6.5372
G1 X129.455 Y106.939 E6.5682
G1 X129.603 Y107.087 E6.57441
G1 X130.182 Y107.954 E6.60536
G1 X130.262 Y108.147 E6.61156
G1 X130.466 Y109.17 E6.64253
G1 X130.466 Y109.379 E6.64874
G1 X130.262 Y110.403 E6.67974
G1 X130.182 Y110.596 E6.68594
G1 X129.603 Y111.463 E6.71689
G1 X129.455 Y111.611 E6.7231
G1 X128.587 Y112.191 E6.7541
G1 X128.394 Y112.271 E6.7603
G1 X127.371 Y112.474 E6.79127
G1 X127.162 Y112.474 E6.79748
G1 X126.139 Y112.271 E6.82845
G1 X125.946 Y112.191 E6.83465
G1 X125.078 Y111.611 E6.86565
G1 X124.93 Y111.463 E6.87186
G1 X124.351 Y110.596 E6.90281
G1 X124.271 Y110.403 E6.90901
G1 X124.067 Y109.379 E6.94001
G1 X124.067 Y109.17 E6.94622
G1 X124.271 Y108.147 E6.97719
G1 X124.288 Y108.106 E6.97851
G1 X124.634 Y108.185 F6000
;TYPE:External perimeter
G1 F1470
G1 X124.648 Y108.152 E6.97957
G1 X125.227 Y107.285 E7.01052
G1 X125.277 Y107.236 E7.0126
G1 X126.144 Y106.656 E7.04357
G1 X126.208 Y106.629 E7.04563
G1 X127.267 Y106.422 E7.07767
G1 X128.325 Y106.629 E7.10968
G1 X128.389 Y106.656 E7.11174
G1 X129.256 Y107.236 E7.14271
G1 X129.306 Y107.285 E7.14479
G1 X129.885 Y108.152 E7.17574
G1 X129.912 Y108.217 E7.17783
G1 X130.115 Y109.24 E7.2088
G1 X130.115 Y109.31 E7.21088
G1 X129.912 Y110.333 E7.24185
G1 X129.885 Y110.397 E7.24391
G1 X129.306 Y111.265 E7.27489
G1 X129.256 Y111.314 E7.27697
G1 X128.389 Y111.894 E7.30794
G1 X128.325 Y111.92 E7.30999
G1 X127.301 Y112.124 E7.34099
G1 X127.232 Y112.124 E7.34304
G1 X126.208 Y111.92 E7.37404
G1 X126.144 Y111.894 E7.37609
G1 X125.277 Y111.314 E7.40706
G1 X125.227 Y111.265 E7.40914
G1 X124.648 Y110.397 E7.44012
G1 X124.621 Y110.333 E7.44218
G1 X124.418 Y109.31 E7.47315
G1 X124.418 Y109.24 E7.47523
G1 X124.616 Y108.241 E7.50547
G1 X124.821 Y107.898 F6000
G1 E2.50547 F2400
G92 E0
G1 X124.623 Y107.765 F6000
G1 X125.077 Y107.086
G1 X126.082 Y106.414
G1 X127.267 Y106.179
G1 X146.929 Y109.137
G1 E5 F2400
;TYPE:Perimeter
G1 F2100
G1 X146.947 Y109.777 E5.01901
G1 X147.031 Y110.106 E5.02909
G1 X147.293 Y110.541 E5.04417
G1 X147.605 Y110.809 E5.05638
G1 X147.854 Y110.925 E5.06454
G1 X149.595 Y111.511 E5.11908
G1 X149.595 Y116.292 E5.26103
G1 X104.947 Y116.303 E6.58668
G1 X104.938 Y111.51 E6.72899
G1 X106.73 Y110.907 E6.78513
G1 X107.101 Y110.683 E6.798
G1 X107.348 Y110.389 E6.8094
G1 X107.558 Y109.936 E6.82423
G1 X107.593 Y109.575 E6.835
G1 X107.609 Y108.948 E6.85362
G1 X107.481 Y108.385 E6.87076
G1 X107.297 Y108.053 E6.88203
G1 X106.966 Y107.755 E6.89525
G1 X106.708 Y107.634 E6.90371
G1 X104.938 Y107.039 E6.95915
G1 X104.938 Y102.258 E7.1011
G1 X149.595 Y102.258 E8.42702
G1 X149.595 Y107.039 E8.56897
G1 X147.825 Y107.634 E8.62441
G1 X147.567 Y107.755 E8.63287
G1 X147.236 Y108.053 E8.64609
G1 X147.052 Y108.385 E8.65736
G1 X146.924 Y108.947 E8.67447
G1 X146.928 Y109.077 E8.67833
G1 X146.928 Y109.077 F6000
G1 X147.289 Y109.113
G1 F2100
G1 X147.286 Y109.199 E8.68088
G1 X147.302 Y109.736 E8.69683
G1 X147.425 Y110.098 E8.70818
G1 X147.667 Y110.414 E8.72
G1 X147.968 Y110.587 E8.73031
G1 X149.952 Y111.254 E8.79246
G1 X149.952 Y116.649 E8.95264
G1 X104.591 Y116.661 E10.29946
G1 X104.581 Y111.254 E10.46
G1 X106.565 Y110.587 E10.52215
G1 X106.866 Y110.414 E10.53246
G1 X107.108 Y110.098 E10.54428
G1 X107.231 Y109.736 E10.55563
G1 X107.251 Y109.166 E10.57256
G1 X107.235 Y108.864 E10.58154
G1 X107.093 Y108.391 E10.5962
G1 X106.91 Y108.159 E10.60497
G1 X106.594 Y107.973 E10.61586
G1 X104.581 Y107.296 E10.67892
G1 X104.581 Y101.901 E10.8391
G1 X149.952 Y101.901 E12.18622
G1 X149.952 Y107.296 E12.3464
G1 X147.939 Y107.973 E12.40946
G1 X147.623 Y108.159 E12.42035
G1 X147.44 Y108.391 E12.42912
G1 X147.298 Y108.864 E12.44378
G1 X147.291 Y109.053 E12.4494
G1 X147.291 Y109.053 F6000
G1 X147.647 Y109.091
G1 F2100
G1 X147.674 Y109.267 E12.45469
G1 X147.669 Y109.763 E12.46942
G1 X147.841 Y110.084 E12.48023
G1 X148.082 Y110.248 E12.48889
G1 X150.372 Y111.018 E12.56062
G1 X150.309 Y111.209 E12.56659
G1 X150.309 Y117.006 E12.73871
G1 X104.234 Y117.018 E14.10673
G1 X104.224 Y111.208 E14.27924
G1 X104.161 Y111.018 E14.28518
G1 X106.451 Y110.248 E14.35691
G1 X106.692 Y110.083 E14.36558
G1 X106.864 Y109.764 E14.37634
G1 X106.868 Y109.362 E14.38828
G1 X106.898 Y109.111 E14.39579
G1 X106.812 Y108.633 E14.41021
G1 X106.67 Y108.423 E14.41774
G1 X106.48 Y108.311 E14.42429
G1 X104.161 Y107.531 E14.49693
G1 X104.224 Y107.341 E14.50287
G1 X104.224 Y101.544 E14.67499
G1 X150.309 Y101.544 E16.04331
G1 X150.309 Y107.341 E16.21543
G1 X150.372 Y107.531 E16.22137
G1 X148.053 Y108.311 E16.29401
G1 X147.942 Y108.363 E16.29765
G1 X147.754 Y108.562 E16.30578
G1 X147.635 Y109.013 E16.31963
G1 X147.638 Y109.032 E16.3202
G1 X147.638 Y109.032 F6000
G1 X148.007 Y109.069
;TYPE:External perimeter
G1 F1680
G1 X148.061 Y109.268 E16.32632
G1 X148.011 Y109.619 E16.33685
G1 X148.1 Y109.833 E16.34373
G1 X148.196 Y109.91 E16.34738
G1 X150.703 Y110.753 E16.42591
G1 X150.758 Y110.864 E16.42959
G1 X150.761 Y110.934 E16.43167
G1 X150.667 Y111.209 E16.4403
G1 X150.667 Y117.363 E16.62302
G1 X103.878 Y117.375 E18.01224
G1 X103.867 Y111.209 E18.19532
G1 X103.768 Y111.017 E18.20173
G1 X103.775 Y110.864 E18.20628
G1 X103.83 Y110.753 E18.20996
G1 X106.337 Y109.91 E18.28849
G1 X106.397 Y109.875 E18.29055
G1 X106.522 Y109.655 E18.29806
G1 X106.478 Y109.253 E18.31007
G1 X106.535 Y109.113 E18.31456
G1 X106.477 Y108.757 E18.32527
G1 X106.366 Y108.65 E18.32985
G1 X104.31 Y107.958 E18.39426
G1 X103.805 Y107.766 E18.4103
G1 X103.772 Y107.616 E18.41486
G1 X103.867 Y107.341 E18.4235
G1 X103.867 Y101.187 E18.60622
G1 X150.667 Y101.187 E19.99577
G1 X150.667 Y107.341 E20.17849
G1 X150.765 Y107.533 E20.18489
G1 X150.758 Y107.686 E20.18944
G1 X150.703 Y107.797 E20.19312
G1 X148.167 Y108.65 E20.27256
G1 X148.082 Y108.71 E20.27565
G1 X147.998 Y109.011 E20.28493
G1 X148.029 Y109.409 F6000
G1 X148.533 Y111.266
;TYPE:Solid infill
;WIDTH:0.401618
G1 F1680
G1 X149.327 Y112.06 E20.31842
G1 X149.327 Y112.568 E20.33357
G1 X148.023 Y111.263 E20.38859
G1 X147.708 Y111.157 E20.3985
G1 X147.466 Y111.039 E20.40653
G1 X147.257 Y110.886 E20.41426
G1 X147.087 Y110.713 E20.42149
G1 X146.956 Y110.529 E20.42823
G1 X146.783 Y110.209 E20.43908
G1 X146.706 Y109.946 E20.44725
G1 X139.285 Y102.526 E20.76025
G1 X139.793 Y102.526 E20.7754
G1 X146.688 Y109.421 E21.06623
G1 X146.651 Y109.1 E21.07587
G1 X146.671 Y108.897 E21.08195
G1 X140.3 Y102.526 E21.35068
G1 X140.807 Y102.526 E21.3658
G1 X146.754 Y108.472 E21.61662
G1 X146.8 Y108.293 E21.62213
G1 X146.888 Y108.099 E21.62848
G1 X141.314 Y102.526 E21.86357
G1 X141.822 Y102.526 E21.87872
G1 X147.101 Y107.805 E22.10139
G1 X147.202 Y107.696 E22.10582
G1 X147.372 Y107.568 E22.11217
G1 X142.329 Y102.526 E22.32486
G1 X142.836 Y102.526 E22.33998
G1 X147.704 Y107.393 E22.54529
G1 X148.084 Y107.266 E22.55724
G1 X143.344 Y102.526 E22.75717
G1 X143.851 Y102.526 E22.77229
G1 X148.463 Y107.138 E22.96682
G1 X148.843 Y107.01 E22.97878
G1 X144.358 Y102.526 E23.16794
G1 X144.865 Y102.526 E23.18306
G1 X149.222 Y106.882 E23.36682
G1 X149.327 Y106.847 E23.37012
G1 X149.327 Y106.48 E23.38107
G1 X145.373 Y102.526 E23.54785
G1 X145.88 Y102.526 E23.56297
G1 X149.327 Y105.973 E23.70836
G1 X149.327 Y105.466 E23.72348
G1 X146.387 Y102.526 E23.84749
G1 X146.894 Y102.526 E23.86261
G1 X149.327 Y104.959 E23.96523
G1 X149.327 Y104.451 E23.98038
G1 X147.402 Y102.526 E24.06158
G1 X147.909 Y102.526 E24.0767
G1 X149.327 Y103.944 E24.13651
G1 X149.327 Y103.437 E24.15163
G1 X148.416 Y102.526 E24.19006
G1 X148.924 Y102.526 E24.20521
G1 X149.488 Y103.09 E24.229
G1 E19.229 F2400
G92 E0
G1 X149.488 Y103.09 F6000
G1 X147.848 Y108.508
G1 X147.721 Y109.107
G1 X147.774 Y109.751
G1 X149.488 Y113.236
G1 E5 F2400
G1 F1680
G1 X138.778 Y102.526 E5.45175
G1 X138.271 Y102.526 E5.46687
G1 X149.327 Y113.582 E5.93321
G1 X149.327 Y114.09 E5.94836
G1 X137.764 Y102.526 E6.43611
G1 X137.256 Y102.526 E6.45126
G1 X149.327 Y114.597 E6.96042
G1 X149.327 Y115.104 E6.97554
G1 X136.749 Y102.526 E7.50608
G1 X136.242 Y102.526 E7.5212
G1 X149.327 Y115.611 E8.07313
G1 X149.327 Y116.025 E8.08548
G1 X149.233 Y116.025 E8.08828
G1 X135.734 Y102.526 E8.65767
G1 X135.227 Y102.526 E8.67279
G1 X148.726 Y116.025 E9.24218
G1 X148.219 Y116.025 E9.2573
G1 X134.72 Y102.526 E9.82669
G1 X134.213 Y102.526 E9.84181
G1 X147.712 Y116.025 E10.4112
G1 X147.205 Y116.025 E10.42632
G1 X133.705 Y102.526 E10.99573
G1 X133.198 Y102.526 E11.01085
G1 X146.698 Y116.025 E11.58026
G1 X146.191 Y116.025 E11.59538
G1 X132.691 Y102.526 E12.16479
G1 X132.183 Y102.526 E12.17994
