; generated by PrusaSlicer 2.9.0 on 2026-04-10 at 10:43:54 UTC

; 

; external perimeters extrusion width = 0.45mm
; perimeters extrusion width = 0.45mm
; infill extrusion width = 0.45mm
; solid infill extrusion width = 0.45mm
; top infill extrusion width = 0.40mm
; first layer extrusion width = 0.40mm

M190 S80 ; set bed temperature and wait for it to be reached
M104 S235 ; set temperature
;TYPE:Custom
G28 ; home all axes
G1 Z5 F5000 ; lift nozzle
M109 S235 ; set temperature and wait for it to be reached
G21 ; set units to millimeters
G90 ; use absolute coordinates
M82 ; use absolute distances for extrusion
G92 E0
; Filament gcode
M107
;LAYER_CHANGE
;Z:0.2
;HEIGHT:0.2
G1 E-5 F2400
G1 Z.2 F6000
G1 X99.463 Y96.926
G1 E.00001 F2400
;TYPE:Skirt/Brim
;WIDTH:0.4
G1 F2520
G1 X101.505 Y96.293 E.06348
G1 X151.655 Y96.293 E1.5525
G1 X153.295 Y96.688 E1.60259
G1 X154.576 Y97.785 E1.65267
G1 X155.262 Y99.9 E1.71869
G1 X155.262 Y110.1 E2.02154
G1 X154.867 Y111.74 E2.07163
G1 X153.77 Y113.021 E2.12171
G1 X151.655 Y113.707 E2.18773
G1 X101.505 Y113.707 E3.67675
G1 X99.864 Y113.312 E3.72687
G1 X98.334 Y111.82 E3.79032
G1 X97.264 Y109.568 E3.86435
G1 X96.748 Y107.756 E3.92029
G1 X96.463 Y105.329 E3.99285
G1 X96.607 Y103.102 E4.05911
G1 X96.748 Y102.244 E4.08493
G1 X97.472 Y99.91 E4.15749
G1 X98.334 Y98.18 E4.21488
G1 X99.423 Y96.971 E4.26319
G1 X99.423 Y96.971 F6000
G1 X99.693 Y97.22
G1 F2520
G1 X99.734 Y97.175 E4.265
G1 X101.505 Y96.65 E4.31985
G1 X151.655 Y96.65 E5.80887
G1 X153.206 Y97.044 E5.85638
G1 X154.381 Y98.13 E5.90389
G1 X154.905 Y99.9 E5.9587
G1 X154.905 Y110.1 E6.26155
G1 X154.511 Y111.651 E6.30906
G1 X153.425 Y112.826 E6.35657
G1 X151.655 Y113.35 E6.41138
G1 X101.505 Y113.35 E7.9004
G1 X99.954 Y112.956 E7.94791
G1 X98.648 Y111.65 E8.00275
G1 X97.605 Y109.463 E8.07469
G1 X96.986 Y107.106 E8.14705
G1 X96.819 Y105.296 E8.20102
G1 X96.986 Y102.894 E8.27251
G1 X97.517 Y100.824 E8.33596
G1 X97.792 Y100.068 E8.35985
G1 X98.648 Y98.35 E8.41684
G1 X99.652 Y97.264 E8.46075
G1 X99.652 Y97.264 F6000
G1 X99.918 Y97.517
G1 F2520
G1 X100.002 Y97.428 E8.46438
G1 X101.505 Y97.007 E8.51072
G1 X151.655 Y97.007 E9.99974
G1 X153.111 Y97.4 E10.04452
G1 X154.171 Y98.473 E10.0893
G1 X154.548 Y99.9 E10.13312
G1 X154.548 Y110.1 E10.43597
G1 X154.155 Y111.556 E10.48075
G1 X153.082 Y112.616 E10.52553
G1 X151.655 Y112.993 E10.56935
G1 X101.505 Y112.993 E12.05837
G1 X100.049 Y112.6 E12.10315
G1 X98.962 Y111.48 E12.14949
G1 X97.946 Y109.357 E12.21937
G1 X97.342 Y107.07 E12.2896
G1 X97.174 Y105.264 E12.34345
G1 X97.342 Y102.93 E12.41293
G1 X97.861 Y100.921 E12.47454
G1 X98.113 Y100.225 E12.49652
G1 X98.962 Y98.52 E12.55307
G1 X99.876 Y97.56 E12.59243
G1 X99.876 Y97.56 F6000
G1 X100.137 Y97.818
G1 F2520
G1 X100.267 Y97.687 E12.59791
G1 X101.505 Y97.364 E12.6359
G1 X151.655 Y97.364 E14.12492
G1 X153.01 Y97.756 E14.1668
G1 X153.945 Y98.812 E14.20868
G1 X154.191 Y99.9 E14.2418
G1 X154.191 Y110.1 E14.54465
G1 X153.799 Y111.455 E14.58653
G1 X152.743 Y112.39 E14.62841
G1 X151.655 Y112.636 E14.66153
G1 X101.505 Y112.636 E16.15055
G1 X100.15 Y112.244 E16.19243
G1 X99.276 Y111.309 E16.23043
G1 X98.287 Y109.251 E16.29822
G1 X97.697 Y107.034 E16.36634
G1 X97.53 Y105.231 E16.4201
G1 X97.674 Y103.2 E16.48055
G1 X97.779 Y102.534 E16.50057
G1 X98.287 Y100.749 E16.55567
G1 X99.276 Y98.691 E16.62346
G1 X100.095 Y97.861 E16.65808
G1 X100.095 Y97.861 F6000
G1 X100.35 Y98.124
G1 F2520
G1 X100.527 Y97.953 E16.66539
G1 X101.505 Y97.721 E16.69523
G1 X151.655 Y97.721 E18.18425
G1 X152.9 Y98.112 E18.223
G1 X153.698 Y99.145 E18.26176
G1 X153.834 Y99.9 E18.28454
G1 X153.834 Y110.1 E18.58739
G1 X153.443 Y111.345 E18.62614
G1 X152.411 Y112.143 E18.66487
G1 X151.655 Y112.279 E18.68768
G1 X101.505 Y112.279 E20.1767
G1 X100.26 Y111.888 E20.21545
G1 X99.59 Y111.139 E20.24529
G1 X98.628 Y109.145 E20.31102
G1 X98.052 Y106.998 E20.37702
G1 X97.886 Y105.199 E20.43066
G1 X98.029 Y103.232 E20.48922
G1 X98.123 Y102.631 E20.50728
G1 X98.628 Y100.855 E20.5621
G1 X99.59 Y98.861 E20.62783
G1 X100.307 Y98.166 E20.65748
G1 E15.65748 F2400
G92 E0
G1 X100.307 Y98.166 F6000
G92 E0
G1 X107.278 Y106.8
G1 E5 F2400
;TYPE:External perimeter
;WIDTH:0.399999
G1 F1470
G1 X107.271 Y106.82 E5.00063
G1 X107.216 Y106.87 E5.00284
G1 X104.244 Y108.586 E5.10474
G1 X104.155 Y108.61 E5.10748
G1 X104.066 Y108.586 E5.11022
G1 X102.093 Y107.447 E5.17786
;WIDTH:0.418748
G1 X101.09 Y106.878 E5.2139
;WIDTH:0.454488
G1 X100.986 Y106.772 E5.21898
;WIDTH:0.467552
G1 X100.971 Y106.679 E5.22231
;WIDTH:0.506342
G1 X100.952 Y105.84 E5.25465
;WIDTH:0.545132
G1 X100.932 Y105 E5.28974
G1 X100.952 Y104.16 E5.32483
;WIDTH:0.506341
G1 X100.971 Y103.321 E5.35717
;WIDTH:0.46755
G1 X100.974 Y103.284 E5.35848
;WIDTH:0.462484
G1 X101.033 Y103.205 E5.36192
;WIDTH:0.435299
G1 X101.092 Y103.126 E5.36514
;WIDTH:0.408114
G1 X102.093 Y102.553 E5.40016
;WIDTH:0.399999
G1 X104.066 Y101.414 E5.4678
G1 X104.155 Y101.39 E5.47054
G1 X104.244 Y101.414 E5.47328
G1 X107.216 Y103.13 E5.57518
G1 X107.298 Y103.236 E5.57916
G1 X107.305 Y103.284 E5.5806
G1 X107.305 Y106.716 E5.6825
G1 X107.296 Y106.743 E5.68335
G1 X106.986 Y106.995 F6000
G1 E.68335 F2400
G92 E0
G1 X150.284 Y101.271 F6000
G1 E5 F2400
;TYPE:Perimeter
G1 F2100
G1 X150.284 Y105 E5.11072
G1 X150.284 Y108.729 E5.22144
G1 X106.139 Y108.729 E6.53216
G1 X107.751 Y107.798 E6.58743
G1 X108.14 Y107.446 E6.60301
G1 X108.329 Y107.056 E6.61588
G1 X108.376 Y106.716 E6.62607
G1 X108.376 Y103.284 E6.72797
G1 X108.329 Y102.944 E6.73816
G1 X108.14 Y102.554 E6.75103
G1 X107.751 Y102.202 E6.76661
G1 X106.139 Y101.271 E6.82188
G1 X150.224 Y101.271 E8.13082
G1 X150.224 Y101.271 F6000
G1 X150.641 Y100.914
G1 F2100
G1 X150.641 Y105 E8.25214
G1 X150.641 Y109.086 E8.37346
G1 X104.806 Y109.086 E9.73436
G1 X107.573 Y107.489 E9.82922
G1 X107.851 Y107.237 E9.84036
G1 X107.985 Y106.959 E9.84952
G1 X108.019 Y106.716 E9.85681
G1 X108.019 Y103.284 E9.95871
G1 X107.985 Y103.041 E9.966
G1 X107.851 Y102.763 E9.97516
G1 X107.573 Y102.511 E9.9863
G1 X104.806 Y100.914 E10.08116
G1 X150.581 Y100.914 E11.44028
G1 E6.44028 F2400
G92 E0
G1 X150.581 Y100.914 F6000
G1 X103.248 Y109.017
G1 E5 F2400
;WIDTH:0.536744
G1 F1470
G1 X102.174 Y109.017 E5.0441
G1 X101.743 Y108.148 E5.08393
G1 X103.196 Y108.987 E5.15282
G1 E.15282 F2400
G92 E0
G1 X103.196 Y108.987 F6000
G1 X103.196 Y109.564
G1 X100.629 Y106.711
G1 X100.821 Y102.751
G1 X100.996 Y102.439
G1 X101.829 Y100.436
G1 X103.248 Y100.436
G1 X103.248 Y100.983
G1 E5 F2400
;WIDTH:0.536742
G1 F1470
G1 X101.743 Y101.852 E5.07136
G1 X102.174 Y100.983 E5.11119
G1 X103.188 Y100.983 E5.15283
G1 E.15283 F2400
G92 E0
G1 X103.188 Y100.983 F6000
G1 X150.998 Y100.557
G1 E5 F2400
;WIDTH:0.399999
G1 F2100
G1 X150.998 Y105 E5.13192
G1 X150.998 Y109.443 E5.26384
G1 X108.001 Y109.443 E6.54047
;WIDTH:0.418915
G1 X104.57 Y109.433 E6.64774
;WIDTH:0.465399
G1 X104.29 Y109.41 E6.65761
G1 X104.015 Y109.427 E6.66729
;WIDTH:0.432699
G1 X103.74 Y109.443 E6.67622
;WIDTH:0.399999
G1 X101.91 Y109.443 E6.73055
G1 X101.324 Y108.261 E6.76972
G1 X101.036 Y107.249 E6.80096
G1 X103.887 Y108.895 E6.8987
;WIDTH:0.429768
G1 X104.021 Y108.946 E6.90331
;WIDTH:0.459537
G1 X104.155 Y108.997 E6.90828
;WIDTH:0.465399
G1 X104.253 Y108.991 E6.91173
G1 X104.428 Y108.903 E6.91861
;WIDTH:0.418915
G1 X107.394 Y107.179 E7.02587
;WIDTH:0.399999
G1 X107.561 Y107.029 E7.03253
G1 X107.642 Y106.862 E7.03804
G1 X107.662 Y106.716 E7.04242
G1 X107.662 Y103.284 E7.14432
G1 X107.642 Y103.138 E7.1487
G1 X107.561 Y102.971 E7.15421
G1 X107.394 Y102.821 E7.16087
G1 X104.423 Y101.105 E7.26274
;WIDTH:0.429766
G1 X104.289 Y101.054 E7.26735
;WIDTH:0.459532
G1 X104.155 Y101.003 E7.27232
;WIDTH:0.465394
G1 X104.057 Y101.009 E7.27577
G1 X103.882 Y101.097 E7.28265
;WIDTH:0.418913
G1 X102.663 Y101.812 E7.32683
;WIDTH:0.399999
G1 X101.036 Y102.751 E7.38261
G1 X101.324 Y101.739 E7.41385
G1 X101.91 Y100.557 E7.45302
G1 X102.327 Y100.557 E7.4654
;WIDTH:0.418913
G1 X103.74 Y100.567 E7.50958
;WIDTH:0.465394
G1 X104.02 Y100.59 E7.51945
G1 X104.295 Y100.573 E7.52913
;WIDTH:0.432697
G1 X104.57 Y100.557 E7.53806
;WIDTH:0.399999
G1 X150.938 Y100.557 E8.91478
G1 X151.355 Y100.2 F6000
;TYPE:External perimeter
G1 F1680
G1 X151.355 Y105 E9.0573
G1 X151.355 Y109.8 E9.19982
G1 X101.688 Y109.8 E10.67449
G1 X100.97 Y108.322 E10.72328
;WIDTH:0.418748
G1 X100.664 Y107.21 E10.75932
;WIDTH:0.467552
G1 X100.548 Y106.699 E10.77782
;WIDTH:0.506342
G1 X100.489 Y105.861 E10.81019
;WIDTH:0.545132
G1 X100.431 Y105.023 E10.84527
G1 X100.489 Y104.139 E10.88226
;WIDTH:0.506341
G1 X100.548 Y103.301 E10.91463
;WIDTH:0.46755
G1 X100.604 Y103.035 E10.92423
;WIDTH:0.437832
G1 X100.659 Y102.788 E10.93254
;WIDTH:0.408114
G1 X100.97 Y101.678 E10.96754
;WIDTH:0.399999
G1 X101.688 Y100.2 E11.01633
G1 X151.295 Y100.2 E12.48922
G1 X151.354 Y100.596 F6000
G1 X150.177 Y102.107
;TYPE:Solid infill
;WIDTH:0.403037
G1 F1680
G1 X149.609 Y101.539 E12.51327
G1 X149.1 Y101.539 E12.52851
G1 X150.016 Y102.455 E12.5673
G1 X150.016 Y102.965 E12.58257
G1 X148.591 Y101.539 E12.64294
G1 X148.081 Y101.539 E12.65821
G1 X150.016 Y103.474 E12.74015
G1 X150.016 Y103.983 E12.75539
G1 X147.572 Y101.539 E12.85889
G1 X147.063 Y101.539 E12.87413
G1 X150.016 Y104.492 E12.99918
G1 X150.016 Y105.002 E13.01445
G1 X146.553 Y101.539 E13.1611
G1 X146.044 Y101.539 E13.17634
G1 X150.016 Y105.511 E13.34454
G1 X150.016 Y106.02 E13.35978
G1 X145.535 Y101.539 E13.54954
G1 X145.026 Y101.539 E13.56478
G1 X150.016 Y106.53 E13.77611
G1 X150.016 Y107.039 E13.79135
G1 X144.516 Y101.539 E14.02426
G1 X144.007 Y101.539 E14.0395
G1 X150.016 Y107.548 E14.29396
G1 X150.016 Y108.057 E14.3092
G1 X143.498 Y101.539 E14.58522
G1 X142.988 Y101.539 E14.60049
G1 X149.91 Y108.461 E14.89362
G1 X149.401 Y108.461 E14.90886
G1 X142.479 Y101.539 E15.20199
G1 X141.97 Y101.539 E15.21723
G1 X148.892 Y108.461 E15.51036
G1 X148.382 Y108.461 E15.52563
G1 X141.461 Y101.539 E15.81873
G1 X140.951 Y101.539 E15.834
G1 X147.873 Y108.461 E16.12713
G1 X147.364 Y108.461 E16.14237
G1 X140.442 Y101.539 E16.4355
G1 X139.933 Y101.539 E16.45074
G1 X146.855 Y108.461 E16.74387
G1 X146.345 Y108.461 E16.75914
G1 X139.423 Y101.539 E17.05227
G1 X138.914 Y101.539 E17.06751
G1 X145.836 Y108.461 E17.36064
G1 X145.327 Y108.461 E17.37588
G1 X138.405 Y101.539 E17.66901
G1 X137.896 Y101.539 E17.68425
G1 X144.817 Y108.461 E17.97735
G1 X144.308 Y108.461 E17.99259
G1 X137.386 Y101.539 E18.28572
G1 X136.877 Y101.539 E18.30096
G1 X143.799 Y108.461 E18.59409
G1 X143.29 Y108.461 E18.60933
G1 X136.368 Y101.539 E18.90246
G1 X135.858 Y101.539 E18.91773
G1 X142.78 Y108.461 E19.21086
G1 X142.271 Y108.461 E19.2261
G1 X135.349 Y101.539 E19.51923
G1 X134.84 Y101.539 E19.53447
G1 X141.762 Y108.461 E19.8276
G1 X141.253 Y108.461 E19.84284
G1 X134.331 Y101.539 E20.13597
G1 X133.821 Y101.539 E20.15124
G1 X140.743 Y108.461 E20.44437
G1 X140.234 Y108.461 E20.45961
G1 X133.312 Y101.539 E20.75274
G1 X132.803 Y101.539 E20.76798
G1 X139.725 Y108.461 E21.06111
G1 X139.215 Y108.461 E21.07638
G1 X132.293 Y101.539 E21.36951
G1 X131.784 Y101.539 E21.38475
G1 X138.706 Y108.461 E21.67788
G1 X138.197 Y108.461 E21.69312
G1 X131.275 Y101.539 E21.98625
G1 X130.766 Y101.539 E22.00149
G1 X137.688 Y108.461 E22.29462
G1 X137.178 Y108.461 E22.30989
G1 X130.256 Y101.539 E22.60302
G1 X129.747 Y101.539 E22.61826
G1 X136.669 Y108.461 E22.91139
G1 X136.16 Y108.461 E22.92663
G1 X129.238 Y101.539 E23.21976
G1 X128.728 Y101.539 E23.23503
G1 X135.65 Y108.461 E23.52816
G1 X135.141 Y108.461 E23.5434
G1 X128.219 Y101.539 E23.83653
G1 X127.71 Y101.539 E23.85177
G1 X134.632 Y108.461 E24.1449
G1 X134.123 Y108.461 E24.16014
G1 X127.201 Y101.539 E24.45327
G1 X126.691 Y101.539 E24.46854
G1 X133.613 Y108.461 E24.76167
G1 X133.104 Y108.461 E24.77691
G1 X126.182 Y101.539 E25.07004
G1 X125.673 Y101.539 E25.08528
G1 X132.595 Y108.461 E25.37841
G1 X132.085 Y108.461 E25.39368
G1 X125.164 Y101.539 E25.68678
G1 X124.654 Y101.539 E25.70205
G1 X131.576 Y108.461 E25.99518
G1 X131.067 Y108.461 E26.01042
G1 X124.145 Y101.539 E26.30355
G1 X123.636 Y101.539 E26.31879
G1 X130.558 Y108.461 E26.61192
G1 X130.048 Y108.461 E26.62719
G1 X123.126 Y101.539 E26.92032
G1 X122.617 Y101.539 E26.93556
G1 X129.539 Y108.461 E27.22869
G1 X129.03 Y108.461 E27.24393
G1 X122.108 Y101.539 E27.53706
G1 X121.599 Y101.539 E27.5523
G1 X128.52 Y108.461 E27.8454
G1 X128.011 Y108.461 E27.86064
G1 X121.089 Y101.539 E28.15377
G1 X120.58 Y101.539 E28.16901
G1 X127.502 Y108.461 E28.46214
G1 X126.993 Y108.461 E28.47738
G1 X120.071 Y101.539 E28.77051
G1 X119.561 Y101.539 E28.78578
G1 X126.483 Y108.461 E29.07891
G1 X125.974 Y108.461 E29.09415
G1 X119.052 Y101.539 E29.38728
G1 X118.543 Y101.539 E29.40252
G1 X125.465 Y108.461 E29.69565
G1 X124.955 Y108.461 E29.71092
G1 X118.034 Y101.539 E30.00402
G1 X117.524 Y101.539 E30.01929
G1 X124.446 Y108.461 E30.31242
G1 X123.937 Y108.461 E30.32766
G1 X117.015 Y101.539 E30.62079
G1 X116.506 Y101.539 E30.63603
G1 X123.428 Y108.461 E30.92916
G1 X122.918 Y108.461 E30.94443
G1 X115.996 Y101.539 E31.23756
G1 X115.487 Y101.539 E31.2528
G1 X122.409 Y108.461 E31.54593
G1 X121.9 Y108.461 E31.56117
G1 X114.978 Y101.539 E31.8543
G1 X114.469 Y101.539 E31.86954
G1 X121.39 Y108.461 E32.16264
G1 X120.881 Y108.461 E32.17788
G1 X113.959 Y101.539 E32.47101
G1 X113.45 Y101.539 E32.48625
G1 X120.372 Y108.461 E32.77938
G1 X119.863 Y108.461 E32.79462
G1 X112.941 Y101.539 E33.08775
G1 X112.431 Y101.539 E33.10302
G1 X119.353 Y108.461 E33.39615
G1 X118.844 Y108.461 E33.41139
G1 X111.922 Y101.539 E33.70452
G1 X111.413 Y101.539 E33.71976
G1 X118.335 Y108.461 E34.01289
G1 X117.826 Y108.461 E34.02813
G1 X110.904 Y101.539 E34.32126
G1 X110.394 Y101.539 E34.33653
G1 X117.316 Y108.461 E34.62966
G1 X116.807 Y108.461 E34.6449
G1 X109.885 Y101.539 E34.93803
G1 X109.376 Y101.539 E34.95327
G1 X116.298 Y108.461 E35.2464
G1 X115.788 Y108.461 E35.26167
G1 X108.866 Y101.539 E35.5548
G1 X108.357 Y101.539 E35.57004
G1 X115.279 Y108.461 E35.86317
G1 X114.77 Y108.461 E35.87841
G1 X107.848 Y101.539 E36.17154
G1 X107.339 Y101.539 E36.18678
G1 X114.261 Y108.461 E36.47991
G1 X113.751 Y108.461 E36.49518
G1 X108.644 Y103.354 E36.71145
G1 X108.644 Y103.863 E36.72669
G1 X113.242 Y108.461 E36.9214
G1 X112.733 Y108.461 E36.93664
G1 X108.644 Y104.372 E37.1098
G1 X108.644 Y104.882 E37.12507
G1 X112.223 Y108.461 E37.27663
G1 X111.714 Y108.461 E37.29187
G1 X108.644 Y105.391 E37.42188
G1 X108.644 Y105.9 E37.43712
G1 X111.205 Y108.461 E37.54557
G1 X110.696 Y108.461 E37.56081
G1 X108.644 Y106.409 E37.64771
G1 X108.644 Y106.722 E37.65708
G1 X108.62 Y106.895 E37.66231
G1 X110.186 Y108.461 E37.72863
G1 X109.677 Y108.461 E37.74387
G1 X108.509 Y107.293 E37.79333
G1 X108.334 Y107.627 E37.80462
G1 X109.168 Y108.461 E37.83994
G1 X108.658 Y108.461 E37.85521
G1 X108.066 Y107.869 E37.88028
G1 X107.893 Y108.025 E37.88726
G1 X107.779 Y108.091 E37.8912
G1 X108.149 Y108.461 E37.90687
G1 X107.64 Y108.461 E37.92211
G1 X107.339 Y108.16 E37.93486
M106 S229.5
;LAYER_CHANGE
;Z:0.4
;HEIGHT:0.2
G1 Z.4 F6000
M104 S225 ; set temperature
M140 S70 ; set bed temperature
G1 X107.198 Y106.756
;TYPE:External perimeter
;WIDTH:0.449999
G1 F2100
G1 X107.192 Y106.777 E37.9356
G1 X107.128 Y106.834 E37.9385
G1 X104.257 Y108.492 E38.05072
G1 X104.155 Y108.519 E38.05429
G1 X104.053 Y108.492 E38.05786
G1 X101.182 Y106.834 E38.17008
G1 X101.081 Y106.677 E38.1764
G1 X101.082 Y103.318 E38.2901
G1 X101.182 Y103.166 E38.29626
G1 X104.053 Y101.508 E38.40848
G1 X104.155 Y101.481 E38.41205
G1 X104.257 Y101.508 E38.41562
G1 X107.128 Y103.166 E38.52784
G1 X107.222 Y103.287 E38.53303
G1 X107.23 Y106.658 E38.64713
G1 X107.217 Y106.699 E38.64859
G1 X106.908 Y106.953 F6000
G1 X150.209 Y101.146
;TYPE:Perimeter
G1 F3000
G1 X150.209 Y105 E38.77904
G1 X150.209 Y108.854 E38.90949
G1 X106.073 Y108.854 E40.40344
G1 X107.739 Y107.892 E40.46856
G1 X108.182 Y107.491 E40.48879
G1 X108.397 Y107.046 E40.50552
G1 X108.451 Y106.658 E40.51878
G1 X108.451 Y103.342 E40.63102
G1 X108.397 Y102.954 E40.64428
G1 X108.182 Y102.509 E40.66101
G1 X107.739 Y102.108 E40.68124
G1 X106.073 Y101.146 E40.74636
G1 X150.149 Y101.146 E42.23828
G1 X150.149 Y101.146 F6000
G1 X150.616 Y100.739
G1 F3000
