; generated by PrusaSlicer 2.9.0 on 2026-04-10 at 11:00:58 UTC

; 

; external perimeters extrusion width = 0.45mm
; perimeters extrusion width = 0.45mm
; infill extrusion width = 0.45mm
; solid infill extrusion width = 0.45mm
; top infill extrusion width = 0.40mm
; first layer extrusion width = 0.40mm

M190 S80 ; set bed temperature and wait for it to be reached
M104 S235 ; set temperature
;TYPE:Custom
G28 ; home all axes
G1 Z5 F5000 ; lift nozzle
M109 S235 ; set temperature and wait for it to be reached
G21 ; set units to millimeters
G90 ; use absolute coordinates
M82 ; use absolute distances for extrusion
G92 E0
; Filament gcode
M107
;LAYER_CHANGE
;Z:0.2
;HEIGHT:0.2
G1 E-5 F2400
G1 Z.2 F6000
G1 X20.2 Y96.393
G1 E.00001 F2400
;TYPE:Skirt/Brim
;WIDTH:0.4
G1 F2520
G1 X219.8 Y96.393 E5.92638
G1 X220.553 Y96.473 E5.94886
G1 X235.553 Y99.673 E6.40425
G1 X237.074 Y100.4 E6.4543
G1 X238.098 Y101.741 E6.5044
G1 X238.407 Y103.2 E6.54868
G1 X238.407 Y110 E6.75058
G1 X238.012 Y111.64 E6.80067
G1 X236.915 Y112.921 E6.85075
G1 X234.8 Y113.607 E6.91677
G1 X35.2 Y113.607 E12.84315
G1 X34.447 Y113.527 E12.86563
G1 X19.447 Y110.327 E13.32102
G1 X17.926 Y109.6 E13.37107
G1 X16.902 Y108.259 E13.42117
G1 X16.593 Y106.8 E13.46545
G1 X16.593 Y100 E13.66735
G1 X16.988 Y98.36 E13.71744
G1 X18.085 Y97.079 E13.76752
G1 X20.143 Y96.412 E13.83175
G1 X20.143 Y96.412 F6000
G1 X20.2 Y96.75
G1 F2520
G1 X219.8 Y96.75 E19.75813
G1 X220.478 Y96.822 E19.77837
G1 X235.478 Y100.022 E20.23376
G1 X236.912 Y100.73 E20.28124
G1 X237.835 Y102.038 E20.32877
G1 X238.05 Y103.2 E20.36386
G1 X238.05 Y110 E20.56576
G1 X237.656 Y111.551 E20.61327
G1 X236.57 Y112.726 E20.66078
G1 X234.8 Y113.25 E20.71559
G1 X35.2 Y113.25 E26.64197
G1 X34.522 Y113.178 E26.66221
G1 X19.522 Y109.978 E27.1176
G1 X18.088 Y109.27 E27.16508
G1 X17.165 Y107.962 E27.21261
G1 X16.95 Y106.8 E27.2477
G1 X16.95 Y100 E27.4496
G1 X17.344 Y98.449 E27.49711
G1 X18.43 Y97.274 E27.54462
G1 X20.142 Y96.767 E27.59763
G1 X20.142 Y96.767 F6000
G1 X20.2 Y97.107
G1 F2520
G1 X219.8 Y97.107 E33.52401
G1 X220.404 Y97.171 E33.54204
G1 X235.404 Y100.371 E33.99743
G1 X236.745 Y101.059 E34.04218
G1 X237.559 Y102.329 E34.08697
G1 X237.693 Y103.2 E34.11314
G1 X237.693 Y110 E34.31504
G1 X237.3 Y111.456 E34.35982
G1 X236.227 Y112.516 E34.4046
G1 X234.8 Y112.893 E34.44842
G1 X35.2 Y112.893 E40.3748
G1 X34.596 Y112.829 E40.39283
G1 X19.596 Y109.629 E40.84822
G1 X18.255 Y108.941 E40.89297
G1 X17.441 Y107.671 E40.93776
G1 X17.307 Y106.8 E40.96393
G1 X17.307 Y100 E41.16583
G1 X17.7 Y98.544 E41.21061
G1 X18.773 Y97.484 E41.25539
G1 X20.142 Y97.123 E41.29743
G1 X20.142 Y97.123 F6000
G1 X20.2 Y97.464
G1 F2520
G1 X219.8 Y97.464 E47.22381
G1 X220.329 Y97.52 E47.2396
G1 X235.329 Y100.72 E47.69499
G1 X236.572 Y101.386 E47.73686
G1 X237.336 Y103.2 E47.7953
G1 X237.336 Y110 E47.9972
G1 X236.944 Y111.355 E48.03908
G1 X235.888 Y112.29 E48.08096
G1 X234.8 Y112.536 E48.11408
G1 X35.2 Y112.536 E54.04046
G1 X34.671 Y112.48 E54.05625
G1 X19.671 Y109.28 E54.51164
G1 X18.428 Y108.614 E54.55351
G1 X17.664 Y106.8 E54.61195
G1 X17.664 Y100 E54.81385
G1 X18.056 Y98.645 E54.85573
G1 X19.112 Y97.71 E54.89761
G1 X20.141 Y97.478 E54.92893
G1 X20.141 Y97.478 F6000
G1 X20.2 Y97.821
G1 F2520
G1 X220.255 Y97.869 E60.86882
G1 X235.255 Y101.069 E61.32421
G1 X236.391 Y101.711 E61.36295
G1 X236.979 Y103.2 E61.41048
G1 X236.979 Y110 E61.61238
G1 X236.588 Y111.245 E61.65113
G1 X235.555 Y112.043 E61.68989
G1 X234.8 Y112.179 E61.71267
G1 X35.2 Y112.179 E67.63905
G1 X19.745 Y108.931 E68.10795
G1 X18.609 Y108.289 E68.14669
G1 X18.021 Y106.8 E68.19422
G1 X18.021 Y100 E68.39612
G1 X18.412 Y98.755 E68.43487
G1 X19.445 Y97.957 E68.47363
G1 X20.141 Y97.832 E68.49463
G1 E63.49463 F2400
G92 E0
G92 E0
G1 X30.418 Y101.821 F6000
G1 E5 F2400
;TYPE:Perimeter
;WIDTH:0.399999
G1 F1470
G1 X30.125 Y102.198 E5.01418
G1 X30.029 Y102.679 E5.02874
G1 X30.029 Y105.429 E5.11039
G1 X21.571 Y105.429 E5.36152
G1 X21.571 Y101.371 E5.48201
G1 X30.426 Y101.371 E5.74493
;WIDTH:0.43845
G1 X30.741 Y101.39 E5.75531
;WIDTH:0.4769
G1 X31.056 Y101.41 E5.7667
G1 X30.792 Y101.544 E5.77738
;WIDTH:0.43845
G1 X30.529 Y101.679 E5.7871
;WIDTH:0.399999
G1 X30.455 Y101.774 E5.79068
G1 X30.455 Y101.774 F6000
G1 X31.056 Y101.41
;WIDTH:0.4769
G1 F1470
G1 X31.279 Y101.4 E5.79874
;WIDTH:0.457526
G1 X35.321 Y101.4 E5.93809
G1 F2100
G1 X35.748 Y101.386 E5.95282
;WIDTH:0.428763
G1 X36.174 Y101.371 E5.9665
;WIDTH:0.399999
G1 X218.429 Y101.371 E11.37788
G1 X218.429 Y107.321 E11.55454
G1 X218.525 Y107.802 E11.5691
G1 X218.929 Y108.321 E11.58863
;WIDTH:0.428763
G1 X219.304 Y108.461 E11.60147
;WIDTH:0.457526
G1 X219.679 Y108.6 E11.61526
G1 X219.252 Y108.614 E11.62999
;WIDTH:0.428763
G1 X218.826 Y108.629 E11.64367
;WIDTH:0.399999
G1 X36.571 Y108.629 E17.05505
G1 X36.571 Y102.679 E17.23171
G1 X36.475 Y102.198 E17.24627
G1 X36.071 Y101.679 E17.2658
;WIDTH:0.428763
G1 X35.696 Y101.539 E17.27864
;WIDTH:0.457526
G1 X35.378 Y101.421 E17.29033
G1 E12.29033 F2400
G92 E0
G1 X35.378 Y101.421 F6000
G1 X219.264 Y107.736
G1 X232.336 Y107.736
G1 X233.146 Y104.546
G1 E5 F2400
;WIDTH:0.350222
G1 F1470
G1 X233.454 Y104.546 E5.00787
G1 X233.454 Y104.7 E5.01181
G1 X233.454 Y107.321 E5.07878
;WIDTH:0.360667
G1 X233.448 Y107.561 E5.08512
;WIDTH:0.403207
G1 X233.427 Y107.812 E5.09267
;WIDTH:0.445747
G1 X233.406 Y108.062 E5.10107
;WIDTH:0.488287
G1 X233.385 Y108.313 E5.1104
;WIDTH:0.530826
G1 X233.363 Y108.563 E5.12058
G1 X232.632 Y108.577 E5.15024
;WIDTH:0.503863
G1 X232.144 Y108.59 E5.16895
G1 X232.538 Y108.377 E5.18612
;WIDTH:0.530826
G1 X232.932 Y108.163 E5.20431
G1 X232.982 Y108.006 E5.21099
;WIDTH:0.488287
G1 X233.033 Y107.849 E5.2171
;WIDTH:0.445747
G1 X233.083 Y107.691 E5.22265
;WIDTH:0.403207
G1 X233.133 Y107.534 E5.22759
;WIDTH:0.360667
G1 X233.146 Y107.321 E5.23323
;WIDTH:0.350222
G1 X233.146 Y104.606 E5.3026
G1 E.3026 F2400
G92 E0
G1 X233.146 Y104.606 F6000
G1 X232.336 Y107.736
G1 X219.679 Y108.6
G1 E5 F2400
;WIDTH:0.457526
G1 F1470
G1 X231.921 Y108.6 E5.42204
;WIDTH:0.4769
G1 X232.144 Y108.59 E5.4301
G1 E.4301 F2400
G92 E0
G1 X232.144 Y108.59 F6000
G1 X30.663 Y102.067
G1 E5 F2400
;WIDTH:0.399999
G1 F2100
G1 X30.455 Y102.335 E5.01007
G1 X30.386 Y102.679 E5.02049
G1 X30.386 Y105.786 E5.11274
G1 X21.214 Y105.786 E5.38507
G1 X21.214 Y101.014 E5.52676
G1 X218.786 Y101.014 E11.39292
G1 X218.786 Y107.321 E11.58018
G1 X218.855 Y107.665 E11.5906
G1 X219.143 Y108.036 E11.60454
G1 X219.679 Y108.214 E11.62131
G1 X231.921 Y108.214 E11.98479
G1 X232.076 Y108.201 E11.98941
G1 X232.607 Y107.893 E12.00764
G1 X232.801 Y107.476 E12.0213
G1 X232.814 Y107.321 E12.02592
G1 X232.814 Y104.214 E12.11817
G1 X233.786 Y104.214 E12.14703
G1 X233.786 Y104.7 E12.16146
G1 X233.786 Y108.986 E12.28872
G1 X36.214 Y108.986 E18.15488
G1 X36.214 Y102.679 E18.34214
G1 X36.145 Y102.335 E18.35256
G1 X35.857 Y101.964 E18.3665
G1 X35.321 Y101.786 E18.38327
G1 X31.279 Y101.786 E18.50328
G1 X31.124 Y101.799 E18.5079
G1 X30.743 Y101.964 E18.52023
G1 X30.7 Y102.02 E18.52233
G1 X30.7 Y102.02 F6000
G1 X30.908 Y102.314
G1 F2100
G1 X30.784 Y102.473 E18.52832
G1 X30.743 Y102.679 E18.53456
G1 X30.743 Y106.143 E18.63741
G1 X20.857 Y106.143 E18.93094
G1 X20.857 Y100.657 E19.09383
G1 X219.143 Y100.657 E24.98119
G1 X219.143 Y107.321 E25.17905
G1 X219.184 Y107.527 E25.18529
G1 X219.357 Y107.75 E25.19367
G1 X219.679 Y107.857 E25.20374
G1 X232.014 Y107.849 E25.56998
G1 X232.333 Y107.664 E25.58093
G1 X232.457 Y107.321 E25.59176
G1 X232.457 Y103.857 E25.69461
G1 X234.143 Y103.857 E25.74467
G1 X234.143 Y104.7 E25.7697
G1 X234.143 Y109.343 E25.90756
G1 X35.857 Y109.343 E31.79492
G1 X35.857 Y102.679 E31.99278
G1 X35.816 Y102.473 E31.99902
G1 X35.643 Y102.25 E32.0074
G1 X35.321 Y102.143 E32.01747
G1 X31.279 Y102.143 E32.13748
G1 X30.957 Y102.25 E32.14755
G1 X30.944 Y102.266 E32.14816
G1 X30.944 Y102.266 F6000
G1 X31.154 Y102.571
;TYPE:External perimeter
G1 F1680
G1 X31.1 Y102.679 E32.15175
G1 X31.1 Y106.5 E32.2652
G1 X20.5 Y106.5 E32.57993
G1 X20.5 Y100.3 E32.76402
G1 X219.5 Y100.3 E38.67258
G1 X219.5 Y107.321 E38.88104
G1 X219.571 Y107.464 E38.88578
G1 X219.679 Y107.5 E38.88916
G1 X231.921 Y107.5 E39.25264
G1 X232.059 Y107.436 E39.25716
G1 X232.1 Y107.321 E39.26079
G1 X232.1 Y103.5 E39.37424
G1 X234.5 Y103.5 E39.4455
G1 X234.5 Y104.7 E39.48113
G1 X234.5 Y109.7 E39.62959
G1 X35.5 Y109.7 E45.53815
G1 X35.5 Y102.679 E45.74661
G1 X35.429 Y102.536 E45.75135
G1 X35.321 Y102.5 E45.75473
G1 X31.279 Y102.5 E45.87474
G1 X31.191 Y102.529 E45.87749
G1 X31.108 Y102.92 F6000
G1 X30.244 Y101.88
;TYPE:Solid infill
;WIDTH:0.405292
G1 F1680
G1 X30.003 Y101.639 E45.88776
G1 X29.491 Y101.639 E45.90319
G1 X29.906 Y102.054 E45.92087
G1 X29.877 Y102.091 E45.92229
G1 X29.802 Y102.463 E45.93372
G1 X28.978 Y101.639 E45.96883
G1 X28.466 Y101.639 E45.98426
G1 X29.761 Y102.934 E46.03944
G1 X29.761 Y103.447 E46.0549
G1 X27.953 Y101.639 E46.13194
G1 X27.441 Y101.639 E46.14737
G1 X29.761 Y103.959 E46.24623
G1 X29.761 Y104.472 E46.26169
G1 X26.928 Y101.639 E46.38241
G1 X26.416 Y101.639 E46.39784
G1 X29.761 Y104.984 E46.54038
G1 X29.761 Y105.161 E46.54571
G1 X29.425 Y105.161 E46.55583
G1 X25.903 Y101.639 E46.70591
G1 X25.391 Y101.639 E46.72134
G1 X28.913 Y105.161 E46.87142
G1 X28.4 Y105.161 E46.88688
G1 X24.878 Y101.639 E47.03696
G1 X24.366 Y101.639 E47.05239
G1 X27.888 Y105.161 E47.20247
G1 X27.375 Y105.161 E47.21793
G1 X23.853 Y101.639 E47.36801
G1 X23.341 Y101.639 E47.38344
G1 X26.863 Y105.161 E47.53352
G1 X26.35 Y105.161 E47.54898
G1 X22.828 Y101.639 E47.69906
G1 X22.316 Y101.639 E47.71449
G1 X25.838 Y105.161 E47.86457
G1 X25.325 Y105.161 E47.88003
G1 X21.839 Y101.675 E48.02858
G1 X21.839 Y102.187 E48.04401
G1 X24.813 Y105.161 E48.17074
G1 X24.3 Y105.161 E48.1862
G1 X21.839 Y102.7 E48.29107
G1 X21.839 Y103.212 E48.3065
G1 X23.788 Y105.161 E48.38955
G1 X23.276 Y105.161 E48.40498
G1 X21.839 Y103.724 E48.46621
G1 X21.839 Y104.237 E48.48167
G1 X22.763 Y105.161 E48.52104
G1 X22.251 Y105.161 E48.53647
G1 X21.678 Y104.589 E48.56087
G1 E43.56087 F2400
G92 E0
G1 X21.678 Y104.589 F6000
G1 X30.864 Y102.264
G1 X35.736 Y102.264
G1 X36.678 Y107.798
G1 E5 F2400
;WIDTH:0.400753
G1 F1680
G1 X37.241 Y108.361 E5.02369
G1 X37.748 Y108.361 E5.03878
G1 X36.839 Y107.452 E5.07703
G1 X36.839 Y106.946 E5.09209
G1 X38.254 Y108.361 E5.15163
G1 X38.76 Y108.361 E5.16669
G1 X36.839 Y106.44 E5.24752
G1 X36.839 Y105.934 E5.26258
G1 X39.266 Y108.361 E5.3647
G1 X39.772 Y108.361 E5.37976
G1 X36.839 Y105.428 E5.50318
G1 X36.839 Y104.922 E5.51824
G1 X40.278 Y108.361 E5.66295
G1 X40.784 Y108.361 E5.67801
G1 X36.839 Y104.416 E5.84401
G1 X36.839 Y103.91 E5.85907
G1 X41.29 Y108.361 E6.04636
G1 X41.796 Y108.361 E6.06142
G1 X36.839 Y103.404 E6.27
G1 X36.839 Y102.898 E6.28506
G1 X42.302 Y108.361 E6.51493
G1 X42.808 Y108.361 E6.52999
G1 X36.77 Y102.323 E6.78406
G1 X36.723 Y102.091 E6.7911
G1 X36.372 Y101.639 E6.80813
G1 X36.592 Y101.639 E6.81468
G1 X43.314 Y108.361 E7.09753
G1 X43.82 Y108.361 E7.11259
G1 X37.098 Y101.639 E7.39544
G1 X37.604 Y101.639 E7.4105
G1 X44.326 Y108.361 E7.69335
G1 X44.832 Y108.361 E7.70841
G1 X38.11 Y101.639 E7.99126
G1 X38.616 Y101.639 E8.00632
G1 X45.338 Y108.361 E8.28917
G1 X45.844 Y108.361 E8.30423
G1 X39.122 Y101.639 E8.58708
G1 X39.628 Y101.639 E8.60214
G1 X46.35 Y108.361 E8.88499
G1 X46.856 Y108.361 E8.90005
G1 X40.135 Y101.639 E9.18288
G1 X40.641 Y101.639 E9.19794
G1 X47.363 Y108.361 E9.48079
G1 X47.869 Y108.361 E9.49585
G1 X41.147 Y101.639 E9.7787
G1 X41.653 Y101.639 E9.79376
G1 X48.375 Y108.361 E10.07661
G1 X48.881 Y108.361 E10.09167
G1 X42.159 Y101.639 E10.37452
G1 X42.665 Y101.639 E10.38958
G1 X49.387 Y108.361 E10.67243
G1 X49.893 Y108.361 E10.68749
G1 X43.171 Y101.639 E10.97034
G1 X43.677 Y101.639 E10.9854
G1 X50.399 Y108.361 E11.26825
G1 X50.905 Y108.361 E11.28331
G1 X44.183 Y101.639 E11.56616
G1 X44.689 Y101.639 E11.58122
G1 X51.411 Y108.361 E11.86407
G1 X51.917 Y108.361 E11.87913
G1 X45.195 Y101.639 E12.16198
G1 X45.701 Y101.639 E12.17704
G1 X52.423 Y108.361 E12.45989
G1 X52.929 Y108.361 E12.47495
G1 X46.207 Y101.639 E12.7578
G1 X46.713 Y101.639 E12.77286
G1 X53.435 Y108.361 E13.05571
G1 X53.941 Y108.361 E13.07077
G1 X47.219 Y101.639 E13.35362
G1 X47.725 Y101.639 E13.36868
G1 X54.447 Y108.361 E13.65153
G1 X54.953 Y108.361 E13.66659
G1 X48.231 Y101.639 E13.94944
G1 X48.737 Y101.639 E13.9645
G1 X55.459 Y108.361 E14.24735
G1 X55.965 Y108.361 E14.26241
G1 X49.243 Y101.639 E14.54526
G1 X49.75 Y101.639 E14.56035
G1 X56.471 Y108.361 E14.84318
G1 X56.978 Y108.361 E14.85827
G1 X50.256 Y101.639 E15.14112
G1 X50.762 Y101.639 E15.15618
G1 X57.484 Y108.361 E15.43903
G1 X57.99 Y108.361 E15.45409
G1 X51.268 Y101.639 E15.73694
G1 X51.774 Y101.639 E15.752
G1 X58.496 Y108.361 E16.03485
G1 X59.002 Y108.361 E16.04991
G1 X52.28 Y101.639 E16.33276
G1 X52.786 Y101.639 E16.34782
G1 X59.508 Y108.361 E16.63067
G1 X60.014 Y108.361 E16.64573
G1 X53.292 Y101.639 E16.92858
G1 X53.798 Y101.639 E16.94364
G1 X60.52 Y108.361 E17.22649
G1 X61.026 Y108.361 E17.24155
G1 X54.304 Y101.639 E17.5244
G1 X54.81 Y101.639 E17.53946
G1 X61.532 Y108.361 E17.82231
G1 X62.038 Y108.361 E17.83737
G1 X55.316 Y101.639 E18.12022
G1 X55.822 Y101.639 E18.13528
G1 X62.544 Y108.361 E18.41813
G1 X63.05 Y108.361 E18.43319
G1 X56.328 Y101.639 E18.71604
G1 X56.834 Y101.639 E18.7311
G1 X63.556 Y108.361 E19.01395
G1 X64.062 Y108.361 E19.02901
G1 X57.34 Y101.639 E19.31186
G1 X57.846 Y101.639 E19.32692
G1 X64.568 Y108.361 E19.60977
G1 X65.074 Y108.361 E19.62483
G1 X58.352 Y101.639 E19.90768
G1 X58.858 Y101.639 E19.92274
G1 X65.58 Y108.361 E20.20559
G1 X66.086 Y108.361 E20.22065
G1 X59.365 Y101.639 E20.50348
G1 X59.871 Y101.639 E20.51854
G1 X66.593 Y108.361 E20.80139
G1 X67.099 Y108.361 E20.81645
G1 X60.377 Y101.639 E21.0993
G1 X60.883 Y101.639 E21.11436
G1 X67.605 Y108.361 E21.39721
G1 X68.111 Y108.361 E21.41227
G1 X61.389 Y101.639 E21.69512
G1 X61.895 Y101.639 E21.71018
G1 X68.617 Y108.361 E21.99303
G1 X69.123 Y108.361 E22.00809
G1 X62.401 Y101.639 E22.29094
G1 X62.907 Y101.639 E22.306
G1 X69.629 Y108.361 E22.58885
G1 X70.135 Y108.361 E22.60391
G1 X63.413 Y101.639 E22.88676
G1 X63.919 Y101.639 E22.90182
G1 X70.641 Y108.361 E23.18467
G1 X71.147 Y108.361 E23.19973
G1 X64.425 Y101.639 E23.48258
G1 X64.931 Y101.639 E23.49764
G1 X71.653 Y108.361 E23.78049
G1 X72.159 Y108.361 E23.79555
G1 X65.437 Y101.639 E24.0784
G1 X65.943 Y101.639 E24.09346
G1 X72.665 Y108.361 E24.37631
G1 X73.171 Y108.361 E24.39137
G1 X66.449 Y101.639 E24.67422
G1 X66.955 Y101.639 E24.68928
G1 X73.677 Y108.361 E24.97213
G1 X74.183 Y108.361 E24.98719
G1 X67.461 Y101.639 E25.27004
G1 X67.967 Y101.639 E25.2851
G1 X74.689 Y108.361 E25.56795
G1 X75.195 Y108.361 E25.58301
G1 X68.473 Y101.639 E25.86586
G1 X68.98 Y101.639 E25.88095
G1 X75.701 Y108.361 E26.16378
G1 X76.208 Y108.361 E26.17887
G1 X69.486 Y101.639 E26.46172
G1 X69.992 Y101.639 E26.47678
G1 X76.714 Y108.361 E26.75963
G1 X77.22 Y108.361 E26.77469
G1 X70.498 Y101.639 E27.05754
G1 X71.004 Y101.639 E27.0726
G1 X77.726 Y108.361 E27.35545
G1 X78.232 Y108.361 E27.37051
G1 X71.51 Y101.639 E27.65336
G1 X72.016 Y101.639 E27.66842
G1 X78.738 Y108.361 E27.95127
G1 X79.244 Y108.361 E27.96633
G1 X72.522 Y101.639 E28.24918
G1 X73.028 Y101.639 E28.26424
G1 X79.75 Y108.361 E28.54709
G1 X80.256 Y108.361 E28.56215
G1 X73.534 Y101.639 E28.845
G1 X74.04 Y101.639 E28.86006
G1 X80.762 Y108.361 E29.14291
G1 X81.268 Y108.361 E29.15797
G1 X74.546 Y101.639 E29.44082
G1 X75.052 Y101.639 E29.45588
G1 X81.774 Y108.361 E29.73873
G1 X82.28 Y108.361 E29.75379
G1 X75.558 Y101.639 E30.03664
G1 X76.064 Y101.639 E30.0517
G1 X82.786 Y108.361 E30.33455
G1 X83.292 Y108.361 E30.34961
G1 X76.57 Y101.639 E30.63246
G1 X77.076 Y101.639 E30.64752
G1 X83.798 Y108.361 E30.93037
G1 X84.304 Y108.361 E30.94543
G1 X77.582 Y101.639 E31.22828
G1 X78.088 Y101.639 E31.24334
G1 X84.81 Y108.361 E31.52619
G1 X85.316 Y108.361 E31.54125
G1 X78.595 Y101.639 E31.82408
G1 X79.101 Y101.639 E31.83914
G1 X85.823 Y108.361 E32.12199
G1 X86.329 Y108.361 E32.13705
G1 X79.607 Y101.639 E32.4199
G1 X80.113 Y101.639 E32.43496
G1 X86.835 Y108.361 E32.71781
G1 X87.341 Y108.361 E32.73287
G1 X80.619 Y101.639 E33.01572
