; generated by PrusaSlicer 2.9.0 on 2026-04-10 at 10:57:40 UTC

; 

; external perimeters extrusion width = 0.45mm
; perimeters extrusion width = 0.45mm
; infill extrusion width = 0.45mm
; solid infill extrusion width = 0.45mm
; top infill extrusion width = 0.40mm
; first layer extrusion width = 0.40mm

M190 S80 ; set bed temperature and wait for it to be reached
M104 S235 ; set temperature
;TYPE:Custom
G28 ; home all axes
G1 Z5 F5000 ; lift nozzle
M109 S235 ; set temperature and wait for it to be reached
G21 ; set units to millimeters
G90 ; use absolute coordinates
M82 ; use absolute distances for extrusion
G92 E0
; Filament gcode
M107
;LAYER_CHANGE
;Z:0.2
;HEIGHT:0.2
G1 E-5 F2400
G1 Z.2 F6000
G1 X21.184 Y99.302
G1 E.00001 F2400
;TYPE:Skirt/Brim
;WIDTH:0.4
G1 F2520
G1 X34.447 Y96.473 E.40265
G1 X35.2 Y96.393 E.42513
G1 X234.8 Y96.393 E6.35151
G1 X236.44 Y96.788 E6.4016
G1 X237.721 Y97.885 E6.45168
G1 X238.407 Y100 E6.5177
G1 X238.407 Y106.8 E6.7196
G1 X238.012 Y108.44 E6.76969
G1 X236.915 Y109.721 E6.81977
G1 X235.553 Y110.327 E6.86403
G1 X220.553 Y113.527 E7.31942
G1 X219.8 Y113.607 E7.3419
G1 X20.2 Y113.607 E13.26828
G1 X18.56 Y113.212 E13.31837
G1 X17.279 Y112.115 E13.36845
G1 X16.593 Y110 E13.43447
G1 X16.593 Y103.2 E13.63637
G1 X16.988 Y101.56 E13.68646
G1 X18.085 Y100.279 E13.73654
G1 X19.447 Y99.673 E13.7808
G1 X21.126 Y99.314 E13.83178
G1 X21.126 Y99.314 F6000
G1 X21.2 Y99.664
G1 F2520
G1 X34.522 Y96.822 E14.23623
G1 X35.2 Y96.75 E14.25647
G1 X234.8 Y96.75 E20.18285
G1 X236.351 Y97.144 E20.23036
G1 X237.526 Y98.23 E20.27787
G1 X238.05 Y100 E20.33268
G1 X238.05 Y106.8 E20.53458
G1 X237.656 Y108.351 E20.58209
G1 X236.57 Y109.526 E20.6296
G1 X235.478 Y109.978 E20.66469
G1 X220.478 Y113.178 E21.12008
G1 X219.8 Y113.25 E21.14032
G1 X20.2 Y113.25 E27.0667
G1 X18.649 Y112.856 E27.11421
G1 X17.474 Y111.77 E27.16172
G1 X16.95 Y110 E27.21653
G1 X16.95 Y103.2 E27.41843
G1 X17.344 Y101.649 E27.46594
G1 X18.43 Y100.474 E27.51345
G1 X19.522 Y100.022 E27.54854
G1 X21.142 Y99.676 E27.59772
G1 X21.142 Y99.676 F6000
G1 X21.216 Y100.025
G1 F2520
G1 X34.596 Y97.171 E28.00393
G1 X35.2 Y97.107 E28.02196
G1 X234.8 Y97.107 E33.94834
G1 X236.256 Y97.5 E33.99312
G1 X237.316 Y98.573 E34.0379
G1 X237.693 Y100 E34.08172
G1 X237.693 Y106.8 E34.28362
G1 X237.3 Y108.256 E34.3284
G1 X236.227 Y109.316 E34.37318
G1 X235.404 Y109.629 E34.39932
G1 X220.404 Y112.829 E34.85471
G1 X219.8 Y112.893 E34.87274
G1 X20.2 Y112.893 E40.79912
G1 X18.744 Y112.5 E40.8439
G1 X17.684 Y111.427 E40.88868
G1 X17.307 Y110 E40.9325
G1 X17.307 Y103.2 E41.1344
G1 X17.7 Y101.744 E41.17918
G1 X18.773 Y100.684 E41.22396
G1 X19.596 Y100.371 E41.2501
G1 X21.157 Y100.038 E41.29749
G1 X21.157 Y100.038 F6000
G1 X21.232 Y100.387
G1 F2520
G1 X34.671 Y97.52 E41.70549
G1 X35.2 Y97.464 E41.72128
G1 X234.8 Y97.464 E47.64766
G1 X236.155 Y97.856 E47.68954
G1 X237.09 Y98.912 E47.73142
G1 X237.336 Y100 E47.76454
G1 X237.336 Y106.8 E47.96644
G1 X236.944 Y108.155 E48.00832
G1 X235.329 Y109.28 E48.06676
G1 X220.329 Y112.48 E48.52215
G1 X219.8 Y112.536 E48.53794
G1 X20.2 Y112.536 E54.46432
G1 X18.845 Y112.144 E54.5062
G1 X17.91 Y111.088 E54.54808
G1 X17.664 Y110 E54.5812
G1 X17.664 Y103.2 E54.7831
G1 X18.056 Y101.845 E54.82498
G1 X19.671 Y100.72 E54.88342
G1 X21.173 Y100.4 E54.92902
G1 X21.173 Y100.4 F6000
G1 X21.248 Y100.754
G1 F2520
G1 X35.2 Y97.821 E55.35233
G1 X234.8 Y97.821 E61.27871
G1 X236.045 Y98.212 E61.31746
G1 X236.843 Y99.245 E61.35622
G1 X236.979 Y100 E61.379
G1 X236.979 Y106.8 E61.5809
G1 X236.588 Y108.045 E61.61965
G1 X235.255 Y108.931 E61.66717
G1 X219.8 Y112.179 E62.13607
G1 X20.2 Y112.179 E68.06245
G1 X18.955 Y111.788 E68.1012
G1 X18.157 Y110.755 E68.13996
G1 X18.021 Y110 E68.16274
G1 X18.021 Y103.2 E68.36464
G1 X18.412 Y101.955 E68.40339
G1 X19.745 Y101.069 E68.45091
G1 X21.189 Y100.766 E68.49472
G1 E63.49472 F2400
G92 E0
G1 X21.189 Y100.766 F6000
G92 E0
G1 X21.854 Y104.546
G1 E5 F2400
;TYPE:Perimeter
;WIDTH:0.350223
G1 F1470
G1 X21.854 Y107.321 E5.07091
;WIDTH:0.360668
G1 X21.867 Y107.534 E5.07655
;WIDTH:0.403208
G1 X21.917 Y107.691 E5.08149
;WIDTH:0.445747
G1 X21.967 Y107.849 E5.08704
;WIDTH:0.488287
G1 X22.018 Y108.006 E5.09315
;WIDTH:0.530826
G1 X22.068 Y108.163 E5.09983
G1 X22.573 Y108.382 E5.12216
;WIDTH:0.494176
G1 X23.079 Y108.6 E5.14283
G1 X22.48 Y108.582 E5.16532
;WIDTH:0.530826
G1 X21.637 Y108.563 E5.19953
G1 X21.614 Y108.07 E5.21955
;WIDTH:0.485676
G1 X21.592 Y107.82 E5.22879
;WIDTH:0.440525
G1 X21.569 Y107.571 E5.23706
;WIDTH:0.395374
G1 X21.546 Y107.321 E5.24442
;WIDTH:0.350223
G1 X21.546 Y104.546 E5.31533
G1 X21.794 Y104.546 E5.32167
G1 E.32167 F2400
G92 E0
G1 X21.794 Y104.546 F6000
G1 X23.079 Y108.6
G1 E5 F2400
;WIDTH:0.457526
G1 F1470
G1 X35.321 Y108.6 E5.42204
;WIDTH:0.4769
G1 X35.544 Y108.59 E5.4301
G1 E.4301 F2400
G92 E0
G1 X35.544 Y108.59 F6000
G1 X223.721 Y101.4
G1 E5 F2400
;WIDTH:0.457526
G1 F1470
G1 X224.148 Y101.386 E5.01473
;WIDTH:0.428763
G1 X224.574 Y101.371 E5.02841
;WIDTH:0.399999
G1 X233.429 Y101.371 E5.29133
G1 X233.429 Y103.4 E5.35157
G1 X233.429 Y105.429 E5.41181
G1 X224.971 Y105.429 E5.66294
G1 X224.971 Y102.679 E5.74459
G1 X224.875 Y102.198 E5.75915
G1 X224.471 Y101.679 E5.77868
;WIDTH:0.428763
G1 X224.096 Y101.539 E5.79152
;WIDTH:0.457526
G1 X223.778 Y101.421 E5.80321
G1 E.80321 F2400
G92 E0
G1 X223.778 Y101.421 F6000
G1 X218.818 Y101.821
G1 E5 F2400
;WIDTH:0.399999
G1 F2100
G1 X218.525 Y102.198 E5.01418
G1 X218.429 Y102.679 E5.02874
G1 X218.429 Y108.629 E5.2054
G1 X36.174 Y108.629 E10.61678
;WIDTH:0.43845
G1 X35.859 Y108.61 E10.62716
;WIDTH:0.4769
G1 X35.544 Y108.59 E10.63855
G1 X35.808 Y108.456 E10.64923
;WIDTH:0.43845
G1 X36.071 Y108.321 E10.65895
;WIDTH:0.399999
G1 X36.475 Y107.802 E10.67848
G1 X36.571 Y107.321 E10.69304
G1 X36.571 Y101.371 E10.8697
G1 X218.826 Y101.371 E16.28108
;WIDTH:0.43845
G1 X219.141 Y101.39 E16.29146
;WIDTH:0.4769
G1 X219.456 Y101.41 E16.30285
G1 X219.192 Y101.544 E16.31353
;WIDTH:0.43845
G1 X218.929 Y101.679 E16.32325
;WIDTH:0.399999
G1 X218.855 Y101.774 E16.32683
G1 X218.855 Y101.774 F6000
G1 X219.456 Y101.41
;WIDTH:0.4769
G1 F1470
G1 X219.679 Y101.4 E16.33489
;WIDTH:0.457526
G1 X223.721 Y101.4 E16.47424
G1 E11.47424 F2400
G92 E0
G1 X223.721 Y101.4 F6000
G1 X219.063 Y102.067
G1 E5 F2400
;WIDTH:0.399999
G1 F2100
G1 X218.855 Y102.335 E5.01007
G1 X218.786 Y102.679 E5.02049
G1 X218.786 Y108.986 E5.20775
G1 X21.214 Y108.986 E11.07391
G1 X21.214 Y104.214 E11.2156
G1 X22.186 Y104.214 E11.24446
G1 X22.186 Y107.321 E11.33671
G1 X22.199 Y107.476 E11.34133
G1 X22.393 Y107.893 E11.35499
G1 X23.079 Y108.214 E11.37748
G1 X35.321 Y108.214 E11.74096
G1 X35.476 Y108.201 E11.74558
G1 X35.857 Y108.036 E11.75791
G1 X36.145 Y107.665 E11.77185
G1 X36.214 Y107.321 E11.78227
G1 X36.214 Y101.014 E11.96953
G1 X233.786 Y101.014 E17.83569
G1 X233.786 Y103.4 E17.90653
G1 X233.786 Y105.786 E17.97737
G1 X224.614 Y105.786 E18.2497
G1 X224.614 Y102.679 E18.34195
G1 X224.545 Y102.335 E18.35237
G1 X224.257 Y101.964 E18.36631
G1 X223.721 Y101.786 E18.38308
G1 X219.679 Y101.786 E18.50309
G1 X219.524 Y101.799 E18.50771
G1 X219.143 Y101.964 E18.52004
G1 X219.1 Y102.02 E18.52214
G1 X219.1 Y102.02 F6000
G1 X219.308 Y102.314
G1 F2100
G1 X219.184 Y102.473 E18.52813
G1 X219.143 Y102.679 E18.53437
G1 X219.143 Y109.343 E18.73223
G1 X20.857 Y109.343 E24.61959
G1 X20.857 Y103.857 E24.78248
G1 X22.543 Y103.857 E24.83254
G1 X22.543 Y107.321 E24.93539
G1 X22.667 Y107.664 E24.94622
G1 X23.079 Y107.857 E24.95973
G1 X35.321 Y107.857 E25.32321
G1 X35.643 Y107.75 E25.33328
G1 X35.816 Y107.527 E25.34166
G1 X35.857 Y107.321 E25.3479
G1 X35.857 Y100.657 E25.54576
G1 X234.143 Y100.657 E31.43312
G1 X234.143 Y103.4 E31.51456
G1 X234.143 Y106.143 E31.596
G1 X224.257 Y106.143 E31.88953
G1 X224.257 Y102.679 E31.99238
G1 X224.216 Y102.473 E31.99862
G1 X224.043 Y102.25 E32.007
G1 X223.721 Y102.143 E32.01707
G1 X219.679 Y102.143 E32.13708
G1 X219.357 Y102.25 E32.14715
G1 X219.344 Y102.266 E32.14776
G1 X219.344 Y102.266 F6000
G1 X219.554 Y102.571
;TYPE:External perimeter
G1 F1680
G1 X219.5 Y102.679 E32.15135
G1 X219.5 Y109.7 E32.35981
G1 X20.5 Y109.7 E38.26837
G1 X20.5 Y103.5 E38.45246
G1 X22.9 Y103.5 E38.52372
G1 X22.9 Y107.321 E38.63717
G1 X22.941 Y107.436 E38.6408
G1 X23.079 Y107.5 E38.64532
G1 X35.321 Y107.5 E39.0088
G1 X35.429 Y107.464 E39.01218
G1 X35.5 Y107.321 E39.01692
G1 X35.5 Y100.3 E39.22538
G1 X234.5 Y100.3 E45.13394
G1 X234.5 Y103.4 E45.22598
G1 X234.5 Y106.5 E45.31802
G1 X223.9 Y106.5 E45.63275
G1 X223.9 Y102.679 E45.7462
G1 X223.829 Y102.536 E45.75094
G1 X223.721 Y102.5 E45.75432
G1 X219.679 Y102.5 E45.87433
G1 X219.591 Y102.529 E45.87708
G1 X219.508 Y102.92 F6000
G1 X218.649 Y101.874
;TYPE:Solid infill
;WIDTH:0.400357
G1 F1680
G1 X218.414 Y101.639 E45.88696
G1 X217.908 Y101.639 E45.902
G1 X218.313 Y102.044 E45.91902
G1 X218.277 Y102.091 E45.92078
G1 X218.206 Y102.443 E45.93145
G1 X217.403 Y101.639 E45.96522
G1 X216.897 Y101.639 E45.98026
G1 X218.161 Y102.903 E46.03339
G1 X218.161 Y103.408 E46.0484
G1 X216.392 Y101.639 E46.12275
G1 X215.886 Y101.639 E46.13779
G1 X218.161 Y103.914 E46.23341
G1 X218.161 Y104.419 E46.24842
G1 X215.381 Y101.639 E46.36527
G1 X214.875 Y101.639 E46.38031
G1 X218.161 Y104.925 E46.51843
G1 X218.161 Y105.43 E46.53344
G1 X214.37 Y101.639 E46.69278
G1 X213.864 Y101.639 E46.70782
G1 X218.161 Y105.936 E46.88843
G1 X218.161 Y106.441 E46.90344
G1 X213.359 Y101.639 E47.10528
G1 X212.853 Y101.639 E47.12032
G1 X218.161 Y106.947 E47.34343
G1 X218.161 Y107.452 E47.35844
G1 X212.348 Y101.639 E47.60277
G1 X211.842 Y101.639 E47.61781
G1 X218.161 Y107.958 E47.88341
G1 X218.161 Y108.361 E47.89539
G1 X218.059 Y108.361 E47.89842
G1 X211.337 Y101.639 E48.18096
G1 X210.831 Y101.639 E48.196
G1 X217.553 Y108.361 E48.47854
G1 X217.048 Y108.361 E48.49355
G1 X210.326 Y101.639 E48.77609
G1 X209.82 Y101.639 E48.79113
G1 X216.542 Y108.361 E49.07367
G1 X216.037 Y108.361 E49.08868
G1 X209.315 Y101.639 E49.37122
G1 X208.809 Y101.639 E49.38626
G1 X215.531 Y108.361 E49.6688
G1 X215.026 Y108.361 E49.68381
G1 X208.304 Y101.639 E49.96635
G1 X207.798 Y101.639 E49.98139
G1 X214.52 Y108.361 E50.26393
G1 X214.015 Y108.361 E50.27894
G1 X207.293 Y101.639 E50.56148
G1 X206.787 Y101.639 E50.57652
G1 X213.509 Y108.361 E50.85906
G1 X213.004 Y108.361 E50.87407
G1 X206.282 Y101.639 E51.15661
G1 X205.776 Y101.639 E51.17165
G1 X212.498 Y108.361 E51.45419
G1 X211.993 Y108.361 E51.4692
G1 X205.271 Y101.639 E51.75174
G1 X204.765 Y101.639 E51.76678
G1 X211.487 Y108.361 E52.04932
G1 X210.982 Y108.361 E52.06433
G1 X204.26 Y101.639 E52.34687
G1 X203.754 Y101.639 E52.36191
G1 X210.476 Y108.361 E52.64445
G1 X209.971 Y108.361 E52.65946
G1 X203.249 Y101.639 E52.942
G1 X202.743 Y101.639 E52.95704
G1 X209.465 Y108.361 E53.23958
G1 X208.96 Y108.361 E53.25459
G1 X202.238 Y101.639 E53.53713
G1 X201.732 Y101.639 E53.55217
G1 X208.454 Y108.361 E53.83471
G1 X207.949 Y108.361 E53.84972
G1 X201.227 Y101.639 E54.13226
G1 X200.721 Y101.639 E54.1473
G1 X207.443 Y108.361 E54.42984
G1 X206.938 Y108.361 E54.44485
G1 X200.216 Y101.639 E54.72739
G1 X199.71 Y101.639 E54.74243
G1 X206.432 Y108.361 E55.02497
G1 X205.927 Y108.361 E55.03998
G1 X199.205 Y101.639 E55.32252
G1 X198.699 Y101.639 E55.33756
G1 X205.421 Y108.361 E55.6201
G1 X204.916 Y108.361 E55.63511
G1 X198.194 Y101.639 E55.91765
G1 X197.688 Y101.639 E55.93269
G1 X204.41 Y108.361 E56.21523
G1 X203.905 Y108.361 E56.23024
G1 X197.183 Y101.639 E56.51278
G1 X196.677 Y101.639 E56.52782
G1 X203.399 Y108.361 E56.81036
G1 X202.894 Y108.361 E56.82537
G1 X196.172 Y101.639 E57.10791
G1 X195.666 Y101.639 E57.12295
G1 X202.388 Y108.361 E57.40549
G1 X201.883 Y108.361 E57.4205
G1 X195.161 Y101.639 E57.70304
G1 X194.655 Y101.639 E57.71808
G1 X201.377 Y108.361 E58.00062
G1 X200.872 Y108.361 E58.01563
G1 X194.15 Y101.639 E58.29817
G1 X193.644 Y101.639 E58.31321
G1 X200.366 Y108.361 E58.59575
G1 X199.861 Y108.361 E58.61076
G1 X193.139 Y101.639 E58.8933
G1 X192.633 Y101.639 E58.90834
G1 X199.355 Y108.361 E59.19088
G1 X198.85 Y108.361 E59.20589
G1 X192.128 Y101.639 E59.48843
G1 X191.622 Y101.639 E59.50347
G1 X198.344 Y108.361 E59.78601
G1 X197.839 Y108.361 E59.80102
G1 X191.117 Y101.639 E60.08356
G1 X190.611 Y101.639 E60.0986
G1 X197.333 Y108.361 E60.38114
G1 X196.828 Y108.361 E60.39615
G1 X190.106 Y101.639 E60.67869
G1 X189.6 Y101.639 E60.69373
G1 X196.322 Y108.361 E60.97627
G1 X195.817 Y108.361 E60.99128
G1 X189.095 Y101.639 E61.27382
G1 X188.589 Y101.639 E61.28886
G1 X195.311 Y108.361 E61.5714
G1 X194.806 Y108.361 E61.58641
G1 X188.084 Y101.639 E61.86895
G1 X187.578 Y101.639 E61.88399
G1 X194.3 Y108.361 E62.16653
G1 X193.795 Y108.361 E62.18154
G1 X187.073 Y101.639 E62.46408
G1 X186.568 Y101.639 E62.47909
G1 X193.289 Y108.361 E62.76161
G1 X192.784 Y108.361 E62.77662
G1 X186.062 Y101.639 E63.05916
G1 X185.557 Y101.639 E63.07417
G1 X192.278 Y108.361 E63.35669
G1 X191.773 Y108.361 E63.3717
G1 X185.051 Y101.639 E63.65424
G1 X184.546 Y101.639 E63.66925
G1 X191.267 Y108.361 E63.95177
G1 X190.762 Y108.361 E63.96678
G1 X184.04 Y101.639 E64.24932
G1 X183.535 Y101.639 E64.26433
G1 X190.256 Y108.361 E64.54685
G1 X189.751 Y108.361 E64.56186
G1 X183.029 Y101.639 E64.8444
G1 X182.524 Y101.639 E64.85941
G1 X189.246 Y108.361 E65.14195
G1 X188.74 Y108.361 E65.15699
G1 X182.018 Y101.639 E65.43953
G1 X181.513 Y101.639 E65.45454
G1 X188.235 Y108.361 E65.73708
G1 X187.729 Y108.361 E65.75212
G1 X181.007 Y101.639 E66.03466
G1 X180.502 Y101.639 E66.04967
G1 X187.224 Y108.361 E66.33221
G1 X186.718 Y108.361 E66.34725
G1 X179.996 Y101.639 E66.62979
G1 X179.491 Y101.639 E66.6448
G1 X186.213 Y108.361 E66.92734
G1 X185.707 Y108.361 E66.94238
G1 X178.985 Y101.639 E67.22492
G1 X178.48 Y101.639 E67.23993
G1 X185.202 Y108.361 E67.52247
G1 X184.696 Y108.361 E67.53751
G1 X177.974 Y101.639 E67.82005
G1 X177.469 Y101.639 E67.83506
G1 X184.191 Y108.361 E68.1176
G1 X183.685 Y108.361 E68.13264
G1 X176.963 Y101.639 E68.41518
G1 X176.458 Y101.639 E68.43019
G1 X183.18 Y108.361 E68.71273
G1 X182.674 Y108.361 E68.72777
G1 X175.952 Y101.639 E69.01031
G1 X175.447 Y101.639 E69.02532
G1 X182.169 Y108.361 E69.30786
G1 X181.663 Y108.361 E69.3229
G1 X174.941 Y101.639 E69.60544
G1 X174.436 Y101.639 E69.62045
G1 X181.158 Y108.361 E69.90299
G1 X180.652 Y108.361 E69.91803
G1 X173.93 Y101.639 E70.20057
G1 X173.425 Y101.639 E70.21558
G1 X180.147 Y108.361 E70.49812
G1 X179.641 Y108.361 E70.51316
G1 X172.919 Y101.639 E70.7957
G1 X172.414 Y101.639 E70.81071
G1 X179.136 Y108.361 E71.09325
G1 X178.63 Y108.361 E71.10829
G1 X171.908 Y101.639 E71.39083
G1 X171.403 Y101.639 E71.40584
G1 X178.125 Y108.361 E71.68838
G1 X177.619 Y108.361 E71.70342
G1 X170.897 Y101.639 E71.98596
G1 X170.392 Y101.639 E72.00097
G1 X177.114 Y108.361 E72.28351
G1 X176.608 Y108.361 E72.29855
G1 X169.886 Y101.639 E72.58109
G1 X169.381 Y101.639 E72.5961
G1 X176.103 Y108.361 E72.87864
G1 X175.597 Y108.361 E72.89368
G1 X168.875 Y101.639 E73.17622
G1 X168.37 Y101.639 E73.19123
G1 X175.092 Y108.361 E73.47377
G1 X174.586 Y108.361 E73.48881
G1 X167.864 Y101.639 E73.77135
G1 X167.359 Y101.639 E73.78636
G1 X174.081 Y108.361 E74.0689
G1 X173.575 Y108.361 E74.08394
G1 X166.853 Y101.639 E74.36648
G1 X166.348 Y101.639 E74.38149
G1 X173.07 Y108.361 E74.66403
G1 X172.564 Y108.361 E74.67907
G1 X165.842 Y101.639 E74.96161
G1 X165.337 Y101.639 E74.97662
G1 X172.059 Y108.361 E75.25916
G1 X171.553 Y108.361 E75.2742
G1 X164.831 Y101.639 E75.55674
G1 X164.326 Y101.639 E75.57175
G1 X171.048 Y108.361 E75.85429
G1 X170.542 Y108.361 E75.86933
G1 X163.82 Y101.639 E76.15187
G1 X163.315 Y101.639 E76.16688
G1 X170.037 Y108.361 E76.44942
G1 X169.531 Y108.361 E76.46446
G1 X162.809 Y101.639 E76.747
G1 X162.304 Y101.639 E76.76201
G1 X169.026 Y108.361 E77.04455
G1 X168.52 Y108.361 E77.05959
G1 X161.798 Y101.639 E77.34213
G1 X161.293 Y101.639 E77.35714
G1 X168.015 Y108.361 E77.63968
G1 X167.509 Y108.361 E77.65472
G1 X160.787 Y101.639 E77.93726
G1 X160.282 Y101.639 E77.95227
G1 X167.004 Y108.361 E78.23481
G1 X166.498 Y108.361 E78.24985
G1 X159.776 Y101.639 E78.53239
G1 X159.271 Y101.639 E78.5474
G1 X165.993 Y108.361 E78.82994
G1 X165.487 Y108.361 E78.84498
