; generated by PrusaSlicer 2.9.0 on 2026-04-11 at 08:56:52 UTC

; 

; external perimeters extrusion width = 0.45mm
; perimeters extrusion width = 0.45mm
; infill extrusion width = 0.45mm
; solid infill extrusion width = 0.45mm
; top infill extrusion width = 0.40mm
; first layer extrusion width = 0.40mm

M190 S80 ; set bed temperature and wait for it to be reached
M104 S235 ; set temperature
;TYPE:Custom
G28 ; home all axes
G1 Z5 F5000 ; lift nozzle
M109 S235 ; set temperature and wait for it to be reached
G21 ; set units to millimeters
G90 ; use absolute coordinates
M82 ; use absolute distances for extrusion
G92 E0
; Filament gcode
M107
;LAYER_CHANGE
;Z:0.2
;HEIGHT:0.2
G1 E-5 F2400
G1 Z.2 F6000
G1 X119.253 Y98.617
G1 E.00001 F2400
;TYPE:Skirt/Brim
;WIDTH:0.4
G1 F1527
G1 X119.909 Y97.851 E.02994
G1 X120.692 Y97.103 E.06209
G1 X121.766 Y96.28 E.10226
G1 X122.508 Y95.847 E.12777
G1 X123.44 Y95.398 E.15849
G1 X124.432 Y95.036 E.18984
G1 X125.401 Y94.786 E.21955
G1 X126.475 Y94.622 E.25181
G1 X127.475 Y94.571 E.28154
G1 X128.557 Y94.625 E.31371
G1 X129.551 Y94.776 E.34356
G1 X130.591 Y95.042 E.37543
G1 X131.955 Y95.559 E.41874
G1 X132.629 Y95.923 E.44148
G1 X133.505 Y96.479 E.47229
G1 X134.335 Y97.127 E.50355
G1 X135.059 Y97.817 E.53325
G1 X135.767 Y98.642 E.56553
G1 X136.338 Y99.464 E.59525
G1 X136.864 Y100.41 E.62739
G1 X137.265 Y101.339 E.65743
G1 X137.592 Y102.375 E.68969
G1 X137.878 Y103.87 E.73488
G1 X137.906 Y105.601 E.78628
G1 X137.592 Y107.621 E.84698
G1 X137.266 Y108.657 E.87923
G1 X136.871 Y109.577 E.90896
G1 X136.345 Y110.526 E.94118
G1 X135.77 Y111.352 E.97106
G1 X135.063 Y112.179 E1.00336
G1 X134.337 Y112.87 E1.03312
G1 X133.506 Y113.52 E1.06444
G1 X132.615 Y114.086 E1.09578
G1 X131.581 Y114.596 E1.13001
G1 X130.602 Y114.955 E1.16097
G1 X129.561 Y115.223 E1.19289
G1 X128.572 Y115.374 E1.22259
G1 X127.488 Y115.429 E1.25482
G1 X126.478 Y115.379 E1.28484
G1 X125.401 Y115.215 E1.31719
G1 X124.43 Y114.964 E1.34697
G1 X123.432 Y114.599 E1.37852
G1 X122.483 Y114.14 E1.40982
G1 X121.503 Y113.53 E1.44409
G1 X120.679 Y112.885 E1.47516
G1 X119.909 Y112.149 E1.50679
G1 X119.257 Y111.388 E1.53654
G1 X118.637 Y110.497 E1.56877
G1 X118.151 Y109.621 E1.59851
G1 X117.723 Y108.628 E1.63062
G1 X117.42 Y107.667 E1.66054
G1 X117.2 Y106.617 E1.69239
G1 X117.088 Y105.574 E1.72354
G1 X117.088 Y104.427 E1.7576
G1 X117.2 Y103.385 E1.78872
G1 X117.419 Y102.336 E1.82054
G1 X117.722 Y101.376 E1.85043
G1 X118.15 Y100.381 E1.88259
G1 X118.636 Y99.506 E1.91231
G1 X119.219 Y98.666 E1.94267
G1 X119.219 Y98.666 F6000
G1 X119.511 Y98.869
G1 F1527
G1 X119.525 Y98.849 E1.94339
G1 X120.18 Y98.083 E1.97331
G1 X120.912 Y97.385 E2.00334
G1 X121.97 Y96.573 E2.04294
G1 X122.663 Y96.169 E2.06676
G1 X124.521 Y95.381 E2.12668
G1 X125.49 Y95.131 E2.15639
G1 X126.493 Y94.978 E2.18651
G1 X127.493 Y94.928 E2.21624
G1 X128.503 Y94.978 E2.24626
G1 X129.497 Y95.129 E2.27611
G1 X130.468 Y95.378 E2.30587
G1 X131.806 Y95.883 E2.34833
G1 X132.437 Y96.224 E2.36963
G1 X134.088 Y97.386 E2.42957
G1 X134.813 Y98.076 E2.45929
G1 X135.474 Y98.846 E2.48942
G1 X136.045 Y99.668 E2.51914
G1 X136.536 Y100.551 E2.54914
G1 X136.937 Y101.481 E2.57921
G1 X137.242 Y102.447 E2.60929
G1 X137.524 Y103.913 E2.65362
G1 X137.549 Y105.597 E2.70363
G1 X137.243 Y107.548 E2.76227
G1 X136.938 Y108.516 E2.7924
G1 X136.543 Y109.436 E2.82213
G1 X136.052 Y110.322 E2.85221
G1 X135.477 Y111.149 E2.88212
G1 X134.816 Y111.92 E2.91227
G1 X134.091 Y112.612 E2.94203
G1 X132.424 Y113.784 E3.00253
G1 X131.458 Y114.261 E3.03452
G1 X130.479 Y114.62 E3.06548
G1 X129.507 Y114.87 E3.09528
G1 X128.518 Y115.021 E3.12498
G1 X127.506 Y115.072 E3.15507
G1 X126.496 Y115.022 E3.18509
G1 X125.49 Y114.869 E3.2153
G1 X124.519 Y114.619 E3.24507
G1 X123.587 Y114.277 E3.27455
G1 X122.638 Y113.819 E3.30584
G1 X121.723 Y113.249 E3.33785
G1 X120.899 Y112.604 E3.36892
G1 X120.18 Y111.916 E3.39847
G1 X119.528 Y111.156 E3.4282
G1 X118.949 Y110.324 E3.4583
G1 X118.463 Y109.448 E3.48804
G1 X118.064 Y108.52 E3.51803
G1 X117.76 Y107.559 E3.54796
G1 X117.555 Y106.579 E3.57769
G1 X117.443 Y105.536 E3.60884
G1 X117.443 Y104.465 E3.64064
G1 X117.555 Y103.423 E3.67176
G1 X117.759 Y102.443 E3.70148
G1 X118.062 Y101.483 E3.73137
G1 X118.462 Y100.554 E3.7614
G1 X118.948 Y99.679 E3.79112
G1 X119.477 Y98.918 E3.81864
G1 X119.477 Y98.918 F6000
G1 X119.78 Y99.106
G1 F1527
G1 X119.796 Y99.081 E3.81952
G1 X121.131 Y97.666 E3.87728
G1 X122.131 Y96.896 E3.91475
G1 X122.818 Y96.49 E3.93844
G1 X124.61 Y95.727 E3.99627
G1 X126.511 Y95.335 E4.0539
G1 X128.45 Y95.331 E4.11147
G1 X130.346 Y95.713 E4.1689
G1 X131.656 Y96.208 E4.21048
G1 X132.246 Y96.526 E4.23038
G1 X133.842 Y97.644 E4.28824
G1 X135.18 Y99.05 E4.34587
G1 X136.208 Y100.692 E4.40339
G1 X136.893 Y102.52 E4.46135
G1 X137.169 Y103.955 E4.50474
G1 X137.192 Y105.594 E4.55341
G1 X136.893 Y107.476 E4.60999
G1 X136.215 Y109.295 E4.66763
G1 X135.184 Y110.945 E4.7254
G1 X133.844 Y112.354 E4.78313
G1 X132.233 Y113.483 E4.84154
G1 X131.336 Y113.926 E4.87124
G1 X130.356 Y114.285 E4.90223
G1 X128.464 Y114.668 E4.95955
G1 X126.513 Y114.665 E5.01748
G1 X124.608 Y114.273 E5.07523
G1 X122.793 Y113.497 E5.13384
G1 X121.943 Y112.968 E5.16357
G1 X120.451 Y111.684 E5.22202
G1 X119.261 Y110.15 E5.27966
G1 X118.404 Y108.413 E5.33717
G1 X117.91 Y106.541 E5.39465
G1 X117.799 Y105.498 E5.42579
G1 X117.798 Y104.503 E5.45533
G1 X118.1 Y102.551 E5.51398
G1 X118.774 Y100.728 E5.57169
G1 X119.749 Y99.157 E5.62659
G1 X119.749 Y99.157 F6000
G1 X120.049 Y99.343
G1 F1527
G1 X120.067 Y99.313 E5.62763
G1 X121.35 Y97.948 E5.68325
G1 X122.334 Y97.189 E5.72015
G1 X122.973 Y96.812 E5.74218
G1 X124.699 Y96.073 E5.79793
G1 X126.529 Y95.691 E5.85344
G1 X128.396 Y95.684 E5.90887
G1 X130.223 Y96.048 E5.96418
G1 X131.507 Y96.532 E6.00492
G1 X132.055 Y96.827 E6.0234
G1 X133.596 Y97.903 E6.0792
G1 X134.887 Y99.254 E6.13468
G1 X135.88 Y100.834 E6.19009
G1 X136.543 Y102.593 E6.2459
G1 X136.815 Y103.997 E6.28836
G1 X136.835 Y105.59 E6.33566
G1 X136.543 Y107.404 E6.39021
G1 X135.887 Y109.154 E6.4457
G1 X134.891 Y110.741 E6.50133
G1 X133.598 Y112.095 E6.55692
G1 X132.041 Y113.181 E6.61328
G1 X131.213 Y113.59 E6.6407
G1 X130.233 Y113.949 E6.67169
G1 X128.41 Y114.315 E6.7269
G1 X126.531 Y114.309 E6.78269
G1 X124.698 Y113.927 E6.83828
G1 X122.948 Y113.176 E6.89482
G1 X122.163 Y112.687 E6.92228
G1 X120.722 Y111.451 E6.97865
G1 X119.574 Y109.977 E7.03412
G1 X118.745 Y108.305 E7.08953
G1 X118.265 Y106.503 E7.1449
G1 X118.154 Y105.46 E7.17604
G1 X118.153 Y104.541 E7.20333
G1 X118.441 Y102.658 E7.25989
G1 X119.086 Y100.901 E7.31546
G1 X120.017 Y99.394 E7.36805
G1 X120.017 Y99.394 F6000
G1 X120.318 Y99.579
G1 F1527
G1 X120.339 Y99.545 E7.36924
G1 X121.57 Y98.23 E7.42272
G1 X122.538 Y97.483 E7.45902
G1 X123.128 Y97.134 E7.47937
G1 X124.788 Y96.419 E7.53304
G1 X126.547 Y96.048 E7.58642
G1 X128.342 Y96.037 E7.63972
G1 X130.101 Y96.384 E7.69295
G1 X131.358 Y96.857 E7.73283
G1 X131.863 Y97.129 E7.74986
G1 X133.349 Y98.161 E7.80358
G1 X134.594 Y99.458 E7.85696
G1 X135.553 Y100.975 E7.91025
G1 X136.193 Y102.666 E7.96393
G1 X136.46 Y104.04 E8.00549
G1 X136.478 Y105.587 E8.05143
G1 X136.193 Y107.331 E8.1039
G1 X135.559 Y109.013 E8.15727
G1 X134.597 Y110.537 E8.21078
G1 X133.351 Y111.837 E8.26425
G1 X131.85 Y112.88 E8.31852
G1 X131.09 Y113.255 E8.34368
G1 X130.11 Y113.614 E8.37467
G1 X128.356 Y113.962 E8.42776
G1 X126.549 Y113.952 E8.48141
G1 X124.787 Y113.581 E8.53487
G1 X123.104 Y112.854 E8.5893
G1 X122.383 Y112.406 E8.6145
G1 X120.993 Y111.219 E8.66877
G1 X119.886 Y109.803 E8.72214
G1 X119.085 Y108.198 E8.7754
G1 X118.62 Y106.465 E8.82868
G1 X118.508 Y104.579 E8.88478
G1 X118.781 Y102.766 E8.93922
G1 X119.398 Y101.074 E8.99269
G1 X120.287 Y99.63 E9.04304
G1 X120.287 Y99.63 F6000
G1 X120.588 Y99.814
G1 F1527
G1 X120.61 Y99.777 E9.04432
G1 X121.789 Y98.511 E9.09569
G1 X122.742 Y97.776 E9.13142
G1 X123.282 Y97.455 E9.15007
G1 X124.878 Y96.764 E9.20171
G1 X126.565 Y96.405 E9.25292
G1 X128.289 Y96.39 E9.30411
G1 X129.978 Y96.719 E9.3552
G1 X131.247 Y97.199 E9.39548
G1 X132.548 Y97.986 E9.44063
G1 X133.103 Y98.42 E9.46155
G1 X134.301 Y99.662 E9.51279
G1 X135.225 Y101.116 E9.56394
G1 X135.844 Y102.738 E9.61549
G1 X136.106 Y104.082 E9.65615
G1 X136.121 Y105.583 E9.70072
G1 X135.844 Y107.259 E9.75116
G1 X135.231 Y108.872 E9.80239
G1 X134.304 Y110.334 E9.85379
G1 X133.105 Y111.578 E9.90509
G1 X131.658 Y112.578 E9.95731
G1 X129.988 Y113.279 E10.01109
G1 X128.302 Y113.609 E10.0621
G1 X126.567 Y113.595 E10.11362
G1 X124.876 Y113.236 E10.16495
G1 X123.259 Y112.533 E10.2173
G1 X122.604 Y112.125 E10.24021
G1 X121.264 Y110.987 E10.29241
G1 X120.198 Y109.63 E10.34365
G1 X119.426 Y108.09 E10.3948
G1 X118.975 Y106.427 E10.44596
G1 X118.864 Y104.617 E10.4998
G1 X119.122 Y102.873 E10.55215
G1 X119.711 Y101.248 E10.60347
G1 X120.556 Y99.865 E10.65159
G1 X120.556 Y99.865 F6000
G1 X120.858 Y100.048
G1 F1527
G1 X120.881 Y100.01 E10.65291
G1 X122.009 Y98.793 E10.70218
G1 X123.437 Y97.777 E10.75422
G1 X124.967 Y97.11 E10.80378
G1 X126.583 Y96.761 E10.85287
G1 X128.235 Y96.743 E10.90192
G1 X129.856 Y97.055 E10.95093
G1 X131.097 Y97.523 E10.99031
G1 X132.357 Y98.288 E11.03408
G1 X132.857 Y98.678 E11.05291
G1 X134.008 Y99.866 E11.10202
G1 X134.897 Y101.258 E11.15106
G1 X135.494 Y102.811 E11.20046
G1 X135.751 Y104.124 E11.24018
G1 X135.764 Y105.58 E11.28341
G1 X135.494 Y107.187 E11.33179
G1 X134.902 Y108.732 E11.38092
G1 X134.011 Y110.13 E11.43014
G1 X132.859 Y111.32 E11.47932
G1 X131.467 Y112.277 E11.52948
G1 X129.865 Y112.943 E11.58099
G1 X128.248 Y113.256 E11.62989
G1 X126.585 Y113.239 E11.67927
G1 X124.965 Y112.89 E11.72847
G1 X123.414 Y112.211 E11.77874
G1 X122.824 Y111.843 E11.79939
G1 X121.535 Y110.754 E11.84949
G1 X120.51 Y109.457 E11.89857
G1 X119.766 Y107.983 E11.94759
G1 X119.33 Y106.389 E11.99666
G1 X119.219 Y104.655 E12.04825
G1 X119.462 Y102.981 E12.09847
G1 X120.023 Y101.421 E12.14769
G1 X120.826 Y100.1 E12.19359
G1 X120.826 Y100.1 F6000
G1 X121.128 Y100.282
G1 F1527
G1 X121.152 Y100.242 E12.19498
G1 X122.228 Y99.075 E12.24211
G1 X123.592 Y98.099 E12.29191
G1 X125.056 Y97.456 E12.33939
G1 X126.601 Y97.118 E12.38635
G1 X128.181 Y97.096 E12.43327
G1 X129.734 Y97.39 E12.4802
G1 X130.948 Y97.847 E12.51871
G1 X132.611 Y98.937 E12.57775
G1 X133.715 Y100.07 E12.62472
G1 X134.569 Y101.399 E12.67162
G1 X135.145 Y102.884 E12.71891
G1 X135.396 Y104.166 E12.7577
G1 X135.407 Y105.577 E12.7996
G1 X135.144 Y107.115 E12.84593
G1 X134.574 Y108.591 E12.89291
G1 X133.718 Y109.926 E12.94
G1 X132.612 Y111.061 E12.98705
G1 X131.276 Y111.975 E13.03511
G1 X129.742 Y112.608 E13.08438
G1 X128.194 Y112.903 E13.13117
G1 X126.602 Y112.882 E13.17844
G1 X125.054 Y112.544 E13.22548
G1 X123.569 Y111.89 E13.27366
G1 X123.044 Y111.562 E13.29204
G1 X121.807 Y110.522 E13.34002
G1 X120.822 Y109.283 E13.38702
G1 X120.107 Y107.875 E13.43391
G1 X119.685 Y106.351 E13.48086
G1 X119.574 Y104.693 E13.5302
G1 X119.803 Y103.088 E13.57834
G1 X120.335 Y101.594 E13.62543
G1 X121.097 Y100.333 E13.66918
G1 X121.097 Y100.333 F6000
G1 X121.399 Y100.515
G1 F1527
G1 X121.424 Y100.474 E13.67061
G1 X122.447 Y99.357 E13.71558
G1 X123.747 Y98.421 E13.76314
G1 X125.145 Y97.802 E13.80854
G1 X126.619 Y97.475 E13.85337
G1 X128.128 Y97.449 E13.89818
G1 X129.611 Y97.725 E13.94297
G1 X130.799 Y98.172 E13.98066
G1 X132.364 Y99.195 E14.03617
G1 X133.422 Y100.274 E14.08104
G1 X134.241 Y101.54 E14.12581
G1 X134.795 Y102.957 E14.17098
G1 X135.042 Y104.209 E14.20887
G1 X135.05 Y105.573 E14.24937
G1 X134.795 Y107.042 E14.29364
G1 X134.246 Y108.45 E14.33851
G1 X133.424 Y109.722 E14.38348
G1 X132.366 Y110.803 E14.42839
G1 X131.084 Y111.674 E14.47441
G1 X129.619 Y112.273 E14.5214
G1 X128.14 Y112.55 E14.56608
G1 X126.62 Y112.525 E14.61122
G1 X125.143 Y112.198 E14.65614
G1 X123.725 Y111.568 E14.70221
G1 X123.264 Y111.281 E14.71833
G1 X122.078 Y110.289 E14.76424
G1 X121.135 Y109.11 E14.80907
G1 X120.447 Y107.768 E14.85385
G1 X120.04 Y106.313 E14.89871
G1 X119.929 Y104.731 E14.9458
G1 X120.143 Y103.195 E14.99185
G1 X120.647 Y101.768 E15.03678
G1 X121.368 Y100.566 E15.0784
G1 X121.368 Y100.566 F6000
G1 X121.671 Y100.746
G1 F1527
G1 X121.695 Y100.706 E15.07979
G1 X122.667 Y99.638 E15.12267
G1 X123.902 Y98.742 E15.16797
G1 X125.234 Y98.147 E15.21129
G1 X126.637 Y97.831 E15.25399
G1 X128.074 Y97.802 E15.29667
G1 X129.489 Y98.061 E15.33938
G1 X130.65 Y98.496 E15.37619
G1 X132.118 Y99.454 E15.42824
G1 X133.129 Y100.478 E15.47097
G1 X133.813 Y101.479 E15.50697
G1 X134.445 Y103.029 E15.55667
G1 X134.687 Y104.251 E15.59366
G1 X134.693 Y105.57 E15.63282
G1 X134.445 Y106.97 E15.67503
G1 X133.918 Y108.309 E15.71776
G1 X133.131 Y109.519 E15.76062
G1 X132.12 Y110.544 E15.80337
G1 X130.893 Y111.373 E15.84734
G1 X129.496 Y111.938 E15.89208
G1 X127.793 Y112.222 E15.94334
G1 X126.636 Y112.169 E15.97773
G1 X125.232 Y111.852 E16.02047
G1 X123.88 Y111.246 E16.06446
G1 X122.349 Y110.057 E16.12202
G1 X121.447 Y108.937 E16.16472
G1 X120.788 Y107.66 E16.20739
G1 X120.396 Y106.275 E16.25013
G1 X120.284 Y104.769 E16.29497
G1 X120.484 Y103.303 E16.3389
G1 X120.959 Y101.941 E16.38173
G1 X121.64 Y100.798 E16.42123
G1 E11.42123 F2400
G92 E0
G1 X121.64 Y100.798 F6000
G92 E0
G1 X124.913 Y102.412
G1 E5 F2400
;TYPE:Perimeter
;WIDTH:0.40354
G1 F1470
G1 X125.042 Y102.295 E5.00522
;WIDTH:0.427275
G1 X125.592 Y101.913 E5.02662
G1 X126.052 Y101.636 E5.04378
;WIDTH:0.406576
G1 X126.264 Y101.559 E5.0506
;WIDTH:0.42718
G1 X126.971 Y101.407 E5.07371
G1 X127.455 Y101.337 E5.08934
;WIDTH:0.409495
G1 X127.675 Y101.346 E5.09605
;WIDTH:0.42587
G1 X128.401 Y101.482 E5.11957
G1 X129.01 Y101.665 E5.13982
;WIDTH:0.421687
G1 X129.756 Y102.149 E5.16783
G1 X130.179 Y102.507 E5.18528
;WIDTH:0.423387
G1 X130.689 Y103.247 E5.21371
G1 X130.932 Y103.733 E5.2309
;WIDTH:0.419778
G1 X131.125 Y104.652 E5.26033
G1 X131.151 Y105.162 E5.27633
;WIDTH:0.416894
G1 X130.969 Y106.127 E5.30687
G1 X130.806 Y106.558 E5.3212
;WIDTH:0.41611
G1 X130.264 Y107.382 E5.3518
G1 X129.957 Y107.704 E5.36561
;WIDTH:0.411741
G1 X129.083 Y108.295 E5.39797
G1 X128.736 Y108.438 E5.40948
;WIDTH:0.409737
G1 X127.675 Y108.654 E5.44251
G1 X127.326 Y108.65 E5.45316
;WIDTH:0.406651
G1 X126.264 Y108.442 E5.48589
G1 X125.943 Y108.304 E5.49646
;WIDTH:0.403405
G1 X125.042 Y107.705 E5.52889
G1 X124.796 Y107.458 E5.53934
;WIDTH:0.404325
G1 X124.156 Y106.495 E5.57409
;WIDTH:0.402503
G1 X124.061 Y106.236 E5.58234
;WIDTH:0.401556
G1 X123.85 Y105.174 E5.61463
G1 X123.85 Y104.826 E5.62501
;WIDTH:0.427939
G1 X123.95 Y104.253 E5.64363
G1 X124.061 Y103.764 E5.65968
;WIDTH:0.404309
G1 X124.193 Y103.441 E5.67017
;WIDTH:0.429362
G1 X124.521 Y102.928 E5.68974
G1 X124.862 Y102.458 E5.7084
;WIDTH:0.40354
G1 X124.868 Y102.453 E5.70863
G1 X124.868 Y102.453 F6000
G1 X125.167 Y102.667
;WIDTH:0.399999
G1 F1470
G1 X125.241 Y102.593 E5.71174
G1 X126.141 Y101.992 E5.74387
G1 X126.334 Y101.912 E5.75007
G1 X127.396 Y101.701 E5.78222
G1 X127.605 Y101.701 E5.78843
G1 X128.666 Y101.912 E5.82055
G1 X128.889 Y102.012 E5.82781
G1 X129.759 Y102.593 E5.85887
G1 X129.959 Y102.819 E5.86783
G1 X130.508 Y103.641 E5.89718
G1 X130.61 Y103.946 E5.90673
G1 X130.799 Y104.896 E5.93549
G1 X130.799 Y105.104 E5.94167
G1 X130.588 Y106.166 E5.97382
G1 X130.508 Y106.359 E5.98002
G1 X129.907 Y107.259 E6.01215
G1 X129.759 Y107.407 E6.01836
G1 X128.859 Y108.008 E6.05049
G1 X128.666 Y108.088 E6.05669
G1 X127.605 Y108.299 E6.08881
G1 X127.396 Y108.299 E6.09502
G1 X126.334 Y108.088 E6.12717
G1 X126.141 Y108.008 E6.13337
G1 X125.241 Y107.407 E6.1655
G1 X125.093 Y107.259 E6.17171
G1 X124.469 Y106.321 E6.20516
G1 X124.201 Y105.104 E6.24216
G1 X124.201 Y104.896 E6.24834
G1 X124.412 Y103.834 E6.28049
G1 X124.492 Y103.641 E6.28669
G1 X125.093 Y102.741 E6.31882
G1 X125.125 Y102.71 E6.32014
G1 X125.125 Y102.71 F6000
G1 X125.414 Y102.915
;TYPE:External perimeter
G1 F1470
G1 X125.422 Y102.903 E6.32057
G1 X126.404 Y102.262 E6.35539
G1 X127.465 Y102.051 E6.38751
G1 X128.259 Y102.195 E6.41147
G1 X128.691 Y102.309 E6.42474
G1 X129.561 Y102.89 E6.4558
G1 X130.085 Y103.651 E6.48323
G1 X130.238 Y103.904 E6.49201
G1 X130.449 Y104.965 E6.52413
G1 X130.26 Y105.986 E6.55496
G1 X130.211 Y106.161 E6.56036
