; generated by PrusaSlicer 2.9.0 on 2026-04-11 at 09:16:35 UTC

; 

; external perimeters extrusion width = 0.45mm
; perimeters extrusion width = 0.45mm
; infill extrusion width = 0.45mm
; solid infill extrusion width = 0.45mm
; top infill extrusion width = 0.40mm
; first layer extrusion width = 0.40mm

M190 S80 ; set bed temperature and wait for it to be reached
M104 S235 ; set temperature
;TYPE:Custom
G28 ; home all axes
G1 Z5 F5000 ; lift nozzle
M109 S235 ; set temperature and wait for it to be reached
G21 ; set units to millimeters
G90 ; use absolute coordinates
M82 ; use absolute distances for extrusion
G92 E0
; Filament gcode
M107
;LAYER_CHANGE
;Z:0.2
;HEIGHT:0.2
G1 E-5 F2400
G1 Z.2 F6000
G1 X85.589 Y93.685
G1 E.00001 F2400
;TYPE:Skirt/Brim
;WIDTH:0.4
G1 F2520
G1 X86.62 Y93.068 E.03567
G1 X88 Y92.793 E.07745
G1 X167 Y92.793 E2.42306
G1 X168.38 Y93.068 E2.46484
G1 X169.815 Y94.089 E2.51713
G1 X170.432 Y95.12 E2.5528
G1 X170.707 Y96.5 E2.59458
G1 X170.707 Y113.5 E3.09933
G1 X170.571 Y114.484 E3.12882
G1 X169.637 Y116.1 E3.18424
G1 X167.934 Y117.084 E3.24264
G1 X167 Y117.207 E3.27061
G1 X88 Y117.207 E5.61622
G1 X87.016 Y117.071 E5.64571
G1 X85.4 Y116.137 E5.70113
G1 X84.416 Y114.434 E5.75953
G1 X84.293 Y113.5 E5.7875
G1 X84.293 Y96.5 E6.29225
G1 X84.597 Y95.049 E6.33627
G1 X85.554 Y93.733 E6.38458
G1 X85.554 Y93.733 F6000
G1 X85.848 Y93.953
G1 F2520
G1 X85.884 Y93.904 E6.38639
G1 X86.756 Y93.398 E6.41632
G1 X88 Y93.15 E6.45398
G1 X167 Y93.15 E8.79959
G1 X168.244 Y93.398 E8.83725
G1 X169.596 Y94.384 E8.88693
G1 X170.102 Y95.256 E8.91686
G1 X170.35 Y96.5 E8.95452
G1 X170.35 Y113.5 E9.45927
G1 X170.226 Y114.391 E9.48598
G1 X169.385 Y115.848 E9.53593
G1 X167.841 Y116.739 E9.58886
G1 X167 Y116.85 E9.61405
G1 X88 Y116.85 E11.95966
G1 X87.109 Y116.726 E11.98637
G1 X85.652 Y115.885 E12.03632
G1 X84.761 Y114.341 E12.08925
G1 X84.65 Y113.5 E12.11444
G1 X84.65 Y96.5 E12.61919
G1 X84.927 Y95.186 E12.65906
G1 X85.812 Y94.001 E12.70297
G1 X85.812 Y94.001 F6000
G1 X86.202 Y94.401
G1 F2520
G1 X86.893 Y93.728 E12.73161
G1 X88 Y93.507 E12.76513
G1 X167 Y93.507 E15.11074
G1 X168.107 Y93.728 E15.14426
G1 X169.743 Y95.322 E15.21208
G1 X169.993 Y96.5 E15.24784
G1 X169.993 Y113.5 E15.75259
G1 X169.881 Y114.299 E15.77655
G1 X169.132 Y115.595 E15.82099
G1 X167.749 Y116.394 E15.86841
G1 X167 Y116.493 E15.89084
G1 X88 Y116.493 E18.23645
G1 X87.201 Y116.381 E18.26041
G1 X85.905 Y115.632 E18.30485
G1 X85.106 Y114.249 E18.35227
G1 X85.007 Y113.5 E18.3747
G1 X85.007 Y96.5 E18.87945
G1 X85.257 Y95.322 E18.91521
G1 X86.159 Y94.443 E18.95261
G1 X86.389 Y94.68 F6000
G1 F2520
G1 X87.03 Y94.057 E18.97915
G1 X88 Y93.864 E19.00852
G1 X167 Y93.864 E21.35413
G1 X167.97 Y94.057 E21.3835
G1 X169.413 Y95.459 E21.44324
G1 X169.636 Y96.5 E21.47485
G1 X169.636 Y113.5 E21.9796
G1 X169.536 Y114.206 E22.00077
G1 X168.88 Y115.343 E22.03974
G1 X167.656 Y116.049 E22.08169
G1 X167 Y116.136 E22.10134
G1 X88 Y116.136 E24.44695
G1 X87.294 Y116.036 E24.46812
G1 X86.157 Y115.38 E24.50709
G1 X85.451 Y114.156 E24.54904
G1 X85.364 Y113.5 E24.56869
G1 X85.364 Y96.5 E25.07344
G1 X85.587 Y95.459 E25.10505
G1 X86.346 Y94.721 E25.13648
G1 X86.346 Y94.721 F6000
G1 X86.575 Y94.959
G1 F2520
G1 X87.166 Y94.387 E25.1609
G1 X88 Y94.221 E25.18615
G1 X167 Y94.221 E27.53176
G1 X167.834 Y94.387 E27.55701
G1 X169.083 Y95.596 E27.60862
G1 X169.279 Y96.5 E27.63608
G1 X169.279 Y113.5 E28.14083
G1 X169.191 Y114.114 E28.15925
G1 X168.627 Y115.09 E28.19272
G1 X167.564 Y115.704 E28.22917
G1 X167 Y115.779 E28.24606
G1 X88 Y115.779 E30.59167
G1 X87.386 Y115.691 E30.61009
G1 X86.41 Y115.127 E30.64356
G1 X85.796 Y114.064 E30.68001
G1 X85.721 Y113.5 E30.6969
G1 X85.721 Y96.5 E31.20165
G1 X85.917 Y95.596 E31.22911
G1 X86.532 Y95 E31.25454
G1 E26.25454 F2400
G92 E0
G1 X86.532 Y95 F6000
G92 E0
G1 X147.353 Y109.068
G1 E5 F2400
;TYPE:Perimeter
;WIDTH:0.399999
G1 F1470
G1 X147.308 Y109.047 E5.00147
G1 X147.062 Y108.845 E5.01092
G1 X146.892 Y108.615 E5.01941
G1 X145.166 Y105.625 E5.12192
G1 X145.084 Y105.455 E5.12752
G1 X145.006 Y105.139 E5.13718
G1 X145.032 Y104.709 E5.14997
G1 X145.166 Y104.375 E5.16066
G1 X146.892 Y101.385 E5.26317
G1 X147.062 Y101.155 E5.27166
G1 X147.308 Y100.953 E5.28111
G1 X147.758 Y100.779 E5.29544
G1 X147.974 Y100.761 E5.30188
G1 X151.426 Y100.761 E5.40437
G1 X151.779 Y100.812 E5.41496
G1 X152.092 Y100.953 E5.42515
G1 X152.338 Y101.155 E5.4346
G1 X152.762 Y101.825 E5.45814
G1 X154.234 Y104.375 E5.54556
G1 X154.353 Y104.653 E5.55454
G1 X154.397 Y105.109 E5.56814
G1 X154.353 Y105.347 E5.57533
G1 X154.234 Y105.625 E5.58431
G1 X152.508 Y108.615 E5.68682
G1 X152.338 Y108.845 E5.69531
G1 X152.092 Y109.047 E5.70476
G1 X151.642 Y109.221 E5.71909
G1 X151.426 Y109.239 E5.72553
G1 X147.974 Y109.239 E5.82802
G1 X147.621 Y109.188 E5.83861
G1 X147.408 Y109.092 E5.84555
G1 X147.408 Y109.092 F6000
G1 X147.531 Y108.76
G1 F1470
G1 X147.498 Y108.745 E5.84663
G1 X147.323 Y108.6 E5.85338
G1 X147.201 Y108.436 E5.85945
G1 X145.416 Y105.325 E5.96594
G1 X145.355 Y105 E5.97576
G1 X145.416 Y104.675 E5.98558
G1 X147.201 Y101.564 E6.09207
G1 X147.323 Y101.4 E6.09814
G1 X147.498 Y101.255 E6.10489
G1 X147.82 Y101.131 E6.11513
G1 X147.974 Y101.118 E6.11972
G1 X151.426 Y101.118 E6.22221
G1 X151.679 Y101.154 E6.2298
G1 X151.902 Y101.255 E6.23707
G1 X152.077 Y101.4 E6.24382
G1 X152.453 Y102.004 E6.26494
G1 X153.925 Y104.554 E6.35236
G1 X154.041 Y104.922 E6.36382
G1 X154.01 Y105.248 E6.37354
G1 X153.925 Y105.446 E6.37994
G1 X152.199 Y108.436 E6.48245
G1 X152.077 Y108.6 E6.48852
G1 X151.902 Y108.745 E6.49527
G1 X151.58 Y108.869 E6.50551
G1 X151.426 Y108.882 E6.5101
G1 X147.974 Y108.882 E6.61259
G1 X147.721 Y108.846 E6.62018
G1 X147.586 Y108.785 E6.62458
G1 X147.586 Y108.785 F6000
G1 X147.713 Y108.45
G1 F1470
G1 X147.688 Y108.443 E6.62535
G1 X147.51 Y108.257 E6.63299
G1 X145.749 Y105.195 E6.73787
G1 X145.716 Y104.941 E6.74547
G1 X145.784 Y104.732 E6.752
G1 X147.51 Y101.743 E6.85448
G1 X147.688 Y101.557 E6.86212
G1 X147.974 Y101.475 E6.87095
G1 X151.426 Y101.475 E6.97344
G1 X151.712 Y101.557 E6.98227
G1 X151.89 Y101.743 E6.98991
G1 X153.616 Y104.732 E7.09239
G1 X153.688 Y105 E7.10063
G1 X153.616 Y105.268 E7.10887
G1 X151.89 Y108.257 E7.21135
G1 X151.712 Y108.443 E7.21899
G1 X151.426 Y108.525 E7.22782
G1 X147.974 Y108.525 E7.33031
G1 X147.771 Y108.467 E7.33658
G1 X147.771 Y108.467 F6000
G1 X147.892 Y108.133
;TYPE:External perimeter
G1 F1470
G1 X147.844 Y108.112 E7.33814
G1 X146.082 Y105.065 E7.44265
G1 X146.093 Y104.911 E7.44723
G1 X147.819 Y101.921 E7.54974
G1 X147.943 Y101.835 E7.55422
G1 X147.974 Y101.832 E7.55514
G1 X151.426 Y101.832 E7.65763
G1 X151.556 Y101.888 E7.66183
G1 X153.307 Y104.911 E7.76556
G1 X153.324 Y105.05 E7.76972
G1 X151.581 Y108.079 E7.87348
G1 X151.457 Y108.165 E7.87796
G1 X151.426 Y108.168 E7.87888
G1 X147.974 Y108.168 E7.98137
G1 X147.947 Y108.157 E7.98224
G1 X147.697 Y107.845 F6000
G1 E2.98224 F2400
G92 E0
G1 X147.483 Y107.968 F6000
G1 X147.735 Y108.404
G1 X151.665 Y108.404
G1 X155.813 Y105.001
G1 E5 F2400
;TYPE:Perimeter
G1 F1470
G1 X155.803 Y104.891 E5.00328
G1 X155.847 Y104.653 E5.01047
G1 X155.966 Y104.375 E5.01945
G1 X157.692 Y101.385 E5.12196
G1 X157.862 Y101.155 E5.13045
G1 X158.108 Y100.953 E5.1399
G1 X158.558 Y100.779 E5.15423
G1 X158.774 Y100.761 E5.16067
G1 X162.226 Y100.761 E5.26316
G1 X162.611 Y100.821 E5.27473
G1 X162.944 Y100.987 E5.28578
G1 X163.308 Y101.385 E5.30179
G1 X165.034 Y104.375 E5.4043
;WIDTH:0.447442
G1 X165.132 Y104.575 E5.41179
;WIDTH:0.494885
G1 X165.23 Y104.775 E5.42016
G1 X165.23 Y105.224 E5.43703
G1 X165.132 Y105.424 E5.4454
;WIDTH:0.447443
G1 X165.034 Y105.625 E5.45292
;WIDTH:0.399999
G1 X163.308 Y108.615 E5.55543
G1 X162.944 Y109.013 E5.57144
G1 X162.611 Y109.179 E5.58249
G1 X162.226 Y109.239 E5.59406
G1 X158.774 Y109.239 E5.69655
G1 X158.421 Y109.188 E5.70714
G1 X158.108 Y109.047 E5.71733
G1 X157.862 Y108.845 E5.72678
G1 X157.439 Y108.177 E5.75026
G1 X155.966 Y105.625 E5.83775
G1 X155.847 Y105.347 E5.84673
G1 X155.819 Y105.06 E5.85529
G1 X155.819 Y105.06 F6000
G1 X156.159 Y105
G1 F1470
G1 X156.159 Y104.922 E5.85761
G1 X156.275 Y104.554 E5.86907
G1 X158.001 Y101.564 E5.97158
G1 X158.123 Y101.4 E5.97765
G1 X158.298 Y101.255 E5.9844
G1 X158.62 Y101.131 E5.99464
G1 X158.774 Y101.118 E5.99923
G1 X162.226 Y101.118 E6.10172
G1 X162.501 Y101.161 E6.10998
G1 X162.739 Y101.28 E6.11788
G1 X162.999 Y101.564 E6.12931
G1 X164.725 Y104.554 E6.23182
G1 X164.831 Y104.845 E6.24102
G1 X164.831 Y105.154 E6.25019
G1 X164.725 Y105.446 E6.25941
G1 X162.999 Y108.436 E6.36192
G1 X162.739 Y108.72 E6.37335
G1 X162.38 Y108.869 E6.38489
G1 X162.226 Y108.882 E6.38948
G1 X158.774 Y108.882 E6.49197
G1 X158.522 Y108.846 E6.49953
G1 X158.298 Y108.745 E6.50683
G1 X158.123 Y108.6 E6.51358
G1 X157.748 Y107.999 E6.53461
G1 X156.275 Y105.446 E6.62212
G1 X156.159 Y105.078 E6.63358
G1 X156.159 Y105.06 E6.63411
G1 X156.159 Y105.06 F6000
G1 X156.525 Y105.003
G1 F1470
G1 X156.514 Y104.953 E6.63563
G1 X156.584 Y104.732 E6.64251
G1 X158.31 Y101.743 E6.74499
G1 X158.488 Y101.557 E6.75263
G1 X158.774 Y101.475 E6.76146
G1 X162.226 Y101.475 E6.86395
G1 X162.534 Y101.572 E6.87354
G1 X162.69 Y101.743 E6.88041
G1 X164.416 Y104.732 E6.98289
G1 X164.488 Y105 E6.99113
G1 X164.416 Y105.268 E6.99937
G1 X162.69 Y108.257 E7.10185
G1 X162.534 Y108.428 E7.10872
G1 X162.319 Y108.517 E7.11563
G1 X162.226 Y108.525 E7.1184
G1 X158.774 Y108.525 E7.22089
G1 X158.488 Y108.443 E7.22972
G1 X158.31 Y108.257 E7.23736
G1 X156.584 Y105.268 E7.33984
G1 X156.538 Y105.062 E7.34611
G1 X156.538 Y105.062 F6000
G1 X156.874 Y105.003
;TYPE:External perimeter
G1 F1470
G1 X156.87 Y104.984 E7.34669
G1 X156.893 Y104.911 E7.34896
G1 X158.619 Y101.921 E7.45147
G1 X158.743 Y101.835 E7.45595
G1 X162.226 Y101.832 E7.55936
G1 X162.329 Y101.864 E7.56256
G1 X162.381 Y101.921 E7.56485
G1 X164.107 Y104.911 E7.66736
G1 X164.128 Y105.031 E7.67098
G1 X162.381 Y108.079 E7.77529
G1 X162.257 Y108.165 E7.77977
G1 X158.774 Y108.168 E7.88318
G1 X158.644 Y108.112 E7.88738
G1 X156.893 Y105.089 E7.99111
G1 X156.887 Y105.062 E7.99193
G1 X157.03 Y104.688 F6000
G1 E2.99193 F2400
G92 E0
G1 X156.82 Y104.567 F6000
G1 X151.665 Y101.596
G1 X147.735 Y101.596
G1 X107.265 Y108.404
G1 X103.335 Y108.404
G1 X100.613 Y105.001
G1 E5 F2400
;TYPE:Perimeter
G1 F1470
G1 X100.603 Y104.891 E5.00328
G1 X100.647 Y104.653 E5.01047
G1 X100.766 Y104.375 E5.01945
G1 X102.492 Y101.385 E5.12196
G1 X102.662 Y101.155 E5.13045
G1 X102.908 Y100.953 E5.1399
G1 X103.358 Y100.779 E5.15423
G1 X103.574 Y100.761 E5.16067
G1 X107.026 Y100.761 E5.26316
G1 X107.379 Y100.812 E5.27375
G1 X107.692 Y100.953 E5.28394
G1 X107.938 Y101.155 E5.29339
G1 X108.108 Y101.385 E5.30188
G1 X109.834 Y104.375 E5.40439
G1 X109.968 Y104.709 E5.41508
G1 X109.994 Y105.139 E5.42787
G1 X109.916 Y105.455 E5.43753
G1 X109.834 Y105.625 E5.44313
G1 X108.108 Y108.615 E5.54564
G1 X107.938 Y108.845 E5.55413
G1 X107.692 Y109.047 E5.56358
G1 X107.242 Y109.221 E5.57791
G1 X107.026 Y109.239 E5.58435
G1 X103.574 Y109.239 E5.68684
G1 X103.221 Y109.188 E5.69743
G1 X102.908 Y109.047 E5.70762
G1 X102.662 Y108.845 E5.71707
G1 X102.239 Y108.177 E5.74055
G1 X100.766 Y105.625 E5.82804
G1 X100.647 Y105.347 E5.83702
G1 X100.619 Y105.06 E5.84558
G1 X100.619 Y105.06 F6000
G1 X100.966 Y104.998
G1 F1470
G1 X100.99 Y104.752 E5.85292
G1 X101.075 Y104.554 E5.85932
G1 X102.801 Y101.564 E5.96183
G1 X102.923 Y101.4 E5.9679
G1 X103.098 Y101.255 E5.97465
G1 X103.42 Y101.131 E5.98489
G1 X103.574 Y101.118 E5.98948
G1 X107.026 Y101.118 E6.09197
G1 X107.279 Y101.154 E6.09956
G1 X107.502 Y101.255 E6.10683
G1 X107.677 Y101.4 E6.11358
G1 X107.799 Y101.564 E6.11965
G1 X109.525 Y104.554 E6.22216
G1 X109.639 Y104.901 E6.233
G1 X109.62 Y105.208 E6.24213
G1 X109.525 Y105.446 E6.24974
G1 X107.799 Y108.436 E6.35225
G1 X107.677 Y108.6 E6.35832
G1 X107.502 Y108.745 E6.36507
G1 X107.18 Y108.869 E6.37531
G1 X107.026 Y108.882 E6.3799
G1 X103.574 Y108.882 E6.48239
G1 X103.321 Y108.846 E6.48998
G1 X103.098 Y108.745 E6.49725
G1 X102.923 Y108.6 E6.504
G1 X102.548 Y107.999 E6.52503
G1 X101.075 Y105.446 E6.61254
G1 X100.959 Y105.078 E6.624
G1 X100.96 Y105.058 E6.62459
G1 X100.96 Y105.058 F6000
G1 X101.314 Y105.006
G1 F1470
G1 X101.312 Y105 E6.62478
G1 X101.384 Y104.732 E6.63302
G1 X103.11 Y101.743 E6.7355
G1 X103.288 Y101.557 E6.74314
G1 X103.574 Y101.475 E6.75197
G1 X107.026 Y101.475 E6.85446
G1 X107.312 Y101.557 E6.86329
G1 X107.49 Y101.743 E6.87093
G1 X109.216 Y104.732 E6.97341
G1 X109.288 Y105 E6.98165
G1 X109.216 Y105.268 E6.98989
G1 X107.49 Y108.257 E7.09237
G1 X107.312 Y108.443 E7.10001
G1 X107.026 Y108.525 E7.10884
G1 X103.574 Y108.525 E7.21133
G1 X103.288 Y108.443 E7.22016
G1 X103.11 Y108.257 E7.2278
G1 X101.384 Y105.268 E7.33028
G1 X101.329 Y105.064 E7.33655
G1 X101.329 Y105.064 F6000
G1 X101.682 Y105.001
;TYPE:External perimeter
G1 F1470
G1 X101.676 Y104.95 E7.33807
G1 X101.693 Y104.911 E7.33933
G1 X103.419 Y101.921 E7.44184
G1 X103.543 Y101.835 E7.44632
G1 X103.574 Y101.832 E7.44724
G1 X107.026 Y101.832 E7.54973
G1 X107.156 Y101.888 E7.55393
G1 X108.907 Y104.911 E7.65766
G1 X108.918 Y105.065 E7.66224
G1 X107.181 Y108.079 E7.76553
G1 X107.057 Y108.165 E7.77001
G1 X107.026 Y108.168 E7.77093
G1 X103.574 Y108.168 E7.87342
G1 X103.444 Y108.112 E7.87762
G1 X101.693 Y105.089 E7.98135
G1 X101.69 Y105.06 E7.98222
G1 X101.831 Y104.686 F6000
G1 E2.98222 F2400
G92 E0
G1 X101.621 Y104.565 F6000
G1 X96.465 Y101.596
G1 X92.156 Y100.937
G1 E5 F2400
;TYPE:Perimeter
G1 F1470
G1 X92.389 Y100.821 E5.00773
G1 X92.774 Y100.761 E5.0193
G1 X96.226 Y100.761 E5.12179
G1 X96.579 Y100.812 E5.13238
G1 X96.892 Y100.953 E5.14257
G1 X97.137 Y101.155 E5.152
G1 X97.561 Y101.823 E5.17549
G1 X99.034 Y104.375 E5.26298
G1 X99.153 Y104.653 E5.27196
G1 X99.197 Y105.109 E5.28556
G1 X99.153 Y105.347 E5.29275
G1 X99.034 Y105.625 E5.30173
G1 X97.308 Y108.615 E5.40424
G1 X97.138 Y108.845 E5.41273
G1 X96.892 Y109.047 E5.42218
G1 X96.442 Y109.221 E5.43651
G1 X96.226 Y109.239 E5.44295
G1 X92.774 Y109.239 E5.54544
G1 X92.389 Y109.179 E5.55701
G1 X92.056 Y109.013 E5.56806
G1 X91.692 Y108.615 E5.58407
G1 X89.966 Y105.625 E5.68658
;WIDTH:0.448176
G1 X89.867 Y105.425 E5.6941
;WIDTH:0.496353
G1 X89.769 Y105.224 E5.70253
G1 X89.769 Y104.776 E5.71942
G1 X89.867 Y104.575 E5.72785
;WIDTH:0.448176
G1 X89.966 Y104.375 E5.73537
;WIDTH:0.399999
G1 X91.692 Y101.385 E5.83788
G1 X92.056 Y100.987 E5.85389
G1 X92.102 Y100.964 E5.85542
G1 X92.102 Y100.964 F6000
G1 X92.336 Y101.249
G1 F1470
G1 X92.62 Y101.131 E5.86455
G1 X92.774 Y101.118 E5.86914
G1 X96.226 Y101.118 E5.97163
G1 X96.478 Y101.154 E5.97919
G1 X96.702 Y101.255 E5.98649
G1 X96.877 Y101.4 E5.99324
G1 X97.252 Y102.002 E6.0143
G1 X98.725 Y104.554 E6.10179
G1 X98.841 Y104.922 E6.11325
G1 X98.81 Y105.248 E6.12297
G1 X98.725 Y105.446 E6.12937
G1 X96.999 Y108.436 E6.23188
G1 X96.877 Y108.6 E6.23795
G1 X96.702 Y108.745 E6.2447
G1 X96.38 Y108.869 E6.25494
G1 X96.226 Y108.882 E6.25953
G1 X92.774 Y108.882 E6.36202
G1 X92.499 Y108.839 E6.37028
G1 X92.261 Y108.72 E6.37818
G1 X92.001 Y108.436 E6.38961
G1 X90.275 Y105.446 E6.49212
G1 X90.169 Y105.154 E6.50134
G1 X90.169 Y104.846 E6.51048
G1 X90.275 Y104.554 E6.5197
G1 X92.001 Y101.564 E6.62221
G1 X92.261 Y101.28 E6.63364
G1 X92.281 Y101.272 E6.63428
G1 X92.281 Y101.272 F6000
G1 X92.512 Y101.553
G1 F1470
G1 X92.681 Y101.483 E6.63971
G1 X92.774 Y101.475 E6.64248
G1 X96.226 Y101.475 E6.74497
G1 X96.512 Y101.557 E6.7538
G1 X96.69 Y101.743 E6.76144
G1 X98.416 Y104.732 E6.86392
G1 X98.488 Y105 E6.87216
G1 X98.416 Y105.268 E6.8804
G1 X96.69 Y108.257 E6.98288
G1 X96.512 Y108.443 E6.99052
G1 X96.226 Y108.525 E6.99935
G1 X92.774 Y108.525 E7.10184
G1 X92.466 Y108.428 E7.11143
G1 X92.31 Y108.257 E7.1183
G1 X90.584 Y105.268 E7.22078
G1 X90.512 Y105 E7.22902
G1 X90.584 Y104.732 E7.23726
G1 X92.31 Y101.743 E7.33974
G1 X92.459 Y101.58 E7.3463
G1 X92.459 Y101.58 F6000
G1 X92.693 Y101.87
;TYPE:External perimeter
G1 F1470
G1 X92.743 Y101.835 E7.34811
G1 X92.774 Y101.832 E7.34903
G1 X96.226 Y101.832 E7.45152
G1 X96.356 Y101.888 E7.45572
G1 X98.107 Y104.911 E7.55945
G1 X98.124 Y105.05 E7.56361
G1 X96.381 Y108.079 E7.66737
