; generated by PrusaSlicer 2.9.0 on 2026-04-11 at 10:05:03 UTC

; 

; external perimeters extrusion width = 0.45mm
; perimeters extrusion width = 0.45mm
; infill extrusion width = 0.45mm
; solid infill extrusion width = 0.45mm
; top infill extrusion width = 0.40mm
; first layer extrusion width = 0.40mm

M190 S80 ; set bed temperature and wait for it to be reached
M104 S235 ; set temperature
;TYPE:Custom
G28 ; home all axes
G1 Z5 F5000 ; lift nozzle
M109 S235 ; set temperature and wait for it to be reached
G21 ; set units to millimeters
G90 ; use absolute coordinates
M82 ; use absolute distances for extrusion
G92 E0
; Filament gcode
M107
;LAYER_CHANGE
;Z:0.2
;HEIGHT:0.2
G1 E-5 F2400
G1 Z.2 F6000
G1 X83.248 Y88.192
G1 E.00001 F2400
;TYPE:Skirt/Brim
;WIDTH:0.4
G1 F2520
G1 X84.124 Y87.607 E.03128
G1 X85.424 Y87.068 E.07306
G1 X86.875 Y86.805 E.11684
G1 X137.111 Y82.805 E1.61313
G1 X165.925 Y82.793 E2.46866
G1 X166.911 Y82.93 E2.49822
G1 X167.804 Y83.184 E2.52579
G1 X169.481 Y84.221 E2.58433
G1 X170.108 Y84.907 E2.61192
G1 X170.672 Y85.727 E2.64147
G1 X172.087 Y88.558 E2.73544
G1 X172.468 Y90.171 E2.78465
G1 X172.468 Y119.829 E3.66523
G1 X172.087 Y121.442 E3.71444
G1 X170.672 Y124.273 E3.80841
G1 X170.108 Y125.093 E3.83796
G1 X169.481 Y125.779 E3.86555
G1 X167.804 Y126.816 E3.92409
G1 X166.911 Y127.07 E3.95166
G1 X165.925 Y127.207 E3.98122
G1 X137.111 Y127.195 E4.83675
G1 X86.875 Y123.195 E6.33304
G1 X85.424 Y122.932 E6.37682
G1 X84.124 Y122.393 E6.4186
G1 X83.248 Y121.808 E6.44988
G1 X82.253 Y120.813 E6.49166
G1 X81.668 Y119.937 E6.52294
G1 X81.129 Y118.637 E6.56472
G1 X80.854 Y116.9 E6.61694
G1 X80.854 Y93.1 E7.32359
G1 X81.129 Y91.363 E7.37581
G1 X81.668 Y90.063 E7.41759
G1 X82.253 Y89.187 E7.44887
G1 X83.206 Y88.234 E7.48889
G1 X83.206 Y88.234 F6000
G1 X83.446 Y88.489
G1 F2520
G1 X84.322 Y87.903 E7.52018
G1 X85.494 Y87.418 E7.55784
G1 X86.903 Y87.16 E7.60037
G1 X137.139 Y83.16 E9.09666
G1 X165.925 Y83.15 E9.95135
G1 X166.813 Y83.274 E9.97797
G1 X167.707 Y83.528 E10.00556
G1 X169.218 Y84.462 E10.0583
G1 X169.844 Y85.147 E10.08585
G1 X170.352 Y85.886 E10.11248
G1 X171.768 Y88.717 E10.20646
G1 X172.111 Y90.171 E10.25082
G1 X172.111 Y119.829 E11.1314
G1 X171.768 Y121.283 E11.17576
G1 X170.352 Y124.114 E11.26974
G1 X169.844 Y124.853 E11.29637
G1 X169.218 Y125.538 E11.32392
G1 X167.707 Y126.472 E11.37666
G1 X166.813 Y126.726 E11.40425
G1 X165.925 Y126.85 E11.43087
G1 X137.139 Y126.84 E12.28556
G1 X86.903 Y122.84 E13.78185
G1 X85.494 Y122.582 E13.82438
G1 X84.322 Y122.097 E13.86204
G1 X83.446 Y121.511 E13.89333
G1 X82.55 Y120.615 E13.93095
G1 X81.964 Y119.739 E13.96224
G1 X81.479 Y118.567 E13.9999
G1 X81.211 Y116.9 E14.05003
G1 X81.211 Y93.1 E14.75668
G1 X81.479 Y91.433 E14.80681
G1 X81.964 Y90.261 E14.84447
G1 X82.55 Y89.385 E14.87576
G1 X83.404 Y88.531 E14.91162
G1 X83.404 Y88.531 F6000
G1 X83.645 Y88.786
G1 F2520
G1 X84.521 Y88.2 E14.94291
G1 X85.563 Y87.768 E14.9764
G1 X86.931 Y87.516 E15.0177
G1 X137.168 Y83.516 E16.51402
G1 X165.925 Y83.507 E17.36785
G1 X166.715 Y83.617 E17.39153
G1 X167.609 Y83.871 E17.41912
G1 X168.954 Y84.702 E17.46606
G1 X169.581 Y85.388 E17.49365
G1 X170.033 Y86.046 E17.51735
G1 X171.448 Y88.877 E17.61132
G1 X171.754 Y90.171 E17.6508
G1 X171.754 Y119.829 E18.53138
G1 X171.448 Y121.123 E18.57086
G1 X170.033 Y123.954 E18.66483
G1 X169.581 Y124.612 E18.68853
G1 X168.954 Y125.298 E18.71612
G1 X167.609 Y126.129 E18.76306
G1 X166.715 Y126.383 E18.79065
G1 X165.925 Y126.493 E18.81433
G1 X137.168 Y126.484 E19.66816
G1 X86.931 Y122.484 E21.16448
G1 X85.563 Y122.232 E21.20578
G1 X84.521 Y121.8 E21.23927
G1 X83.645 Y121.214 E21.27056
G1 X82.847 Y120.416 E21.30407
G1 X82.261 Y119.54 E21.33536
G1 X81.829 Y118.498 E21.36885
G1 X81.568 Y116.9 E21.41693
G1 X81.568 Y93.1 E22.12358
G1 X81.829 Y91.502 E22.17166
G1 X82.261 Y90.46 E22.20515
G1 X82.847 Y89.584 E22.23644
G1 X83.602 Y88.828 E22.26816
G1 X83.602 Y88.828 F6000
G1 X83.843 Y89.083
G1 F2520
G1 X84.719 Y88.497 E22.29945
G1 X85.633 Y88.119 E22.32882
G1 X86.96 Y87.872 E22.3689
G1 X137.196 Y83.872 E23.86519
G1 X165.925 Y83.864 E24.71819
G1 X166.618 Y83.961 E24.73897
G1 X167.512 Y84.215 E24.76656
G1 X168.69 Y84.943 E24.80768
G1 X169.317 Y85.629 E24.83527
G1 X169.713 Y86.206 E24.85605
G1 X171.129 Y89.037 E24.95003
G1 X171.397 Y90.171 E24.98463
G1 X171.397 Y119.829 E25.86521
G1 X171.129 Y120.963 E25.89981
G1 X169.713 Y123.794 E25.99379
G1 X169.317 Y124.371 E26.01457
G1 X168.69 Y125.057 E26.04216
G1 X167.512 Y125.785 E26.08328
G1 X166.618 Y126.039 E26.11087
G1 X165.925 Y126.136 E26.13165
G1 X137.196 Y126.128 E26.98465
G1 X86.96 Y122.128 E28.48094
G1 X85.633 Y121.881 E28.52102
G1 X84.719 Y121.503 E28.55039
G1 X83.843 Y120.917 E28.58168
G1 X83.144 Y120.218 E28.61103
G1 X82.558 Y119.342 E28.64232
G1 X82.18 Y118.428 E28.67169
G1 X81.925 Y116.9 E28.71769
G1 X81.925 Y93.1 E29.42434
G1 X82.18 Y91.572 E29.47034
G1 X82.558 Y90.658 E29.49971
G1 X83.144 Y89.782 E29.531
G1 X83.801 Y89.125 E29.55859
G1 X83.801 Y89.125 F6000
G1 X84.042 Y89.379
G1 F2520
G1 X84.674 Y88.957 E29.58115
G1 X85.703 Y88.469 E29.61496
G1 X86.988 Y88.228 E29.65378
G1 X137.224 Y84.228 E31.15007
G1 X165.925 Y84.221 E32.00224
G1 X166.52 Y84.304 E32.02008
G1 X167.414 Y84.558 E32.04767
G1 X168.427 Y85.184 E32.08303
G1 X169.054 Y85.87 E32.11062
G1 X169.394 Y86.365 E32.12845
G1 X170.81 Y89.197 E32.22246
G1 X171.04 Y90.171 E32.25217
G1 X171.04 Y119.829 E33.13275
G1 X170.81 Y120.803 E33.16246
G1 X169.394 Y123.635 E33.25647
G1 X169.054 Y124.13 E33.2743
G1 X168.427 Y124.816 E33.30189
G1 X167.414 Y125.442 E33.33725
G1 X166.52 Y125.696 E33.36484
G1 X165.925 Y125.779 E33.38268
G1 X137.224 Y125.772 E34.23485
G1 X86.988 Y121.772 E35.73114
G1 X85.703 Y121.531 E35.76996
G1 X84.917 Y121.206 E35.79521
G1 X84.042 Y120.621 E35.82646
G1 X83.44 Y120.02 E35.85172
G1 X82.855 Y119.144 E35.883
G1 X82.53 Y118.358 E35.90825
G1 X82.283 Y116.9 E35.95216
G1 X82.324 Y92.675 E36.67143
G1 X82.53 Y91.642 E36.70271
G1 X82.855 Y90.856 E36.72796
G1 X83.44 Y89.98 E36.75924
G1 X83.999 Y89.422 E36.78269
G1 E31.78269 F2400
G92 E0
G1 X83.999 Y89.422 F6000
G92 E0
G1 X146.35 Y92.794
G1 E5 F2400
;TYPE:External perimeter
;WIDTH:0.399999
G1 F1680
G1 X146.385 Y92.811 E5.00116
G1 X146.421 Y92.919 E5.00454
G1 X146.421 Y117.081 E5.72194
G1 X146.36 Y117.216 E5.72634
G1 X146.243 Y117.26 E5.73005
G1 X135.08 Y117.26 E6.06149
G1 X134.988 Y117.235 E6.06432
G1 X134.901 Y117.081 E6.06957
G1 X134.905 Y112.474 E6.20636
G1 X134.924 Y111.962 E6.22157
G1 X134.987 Y111.242 E6.24303
;WIDTH:0.391458
G1 X135.005 Y110.966 E6.25105
G1 X135.005 Y99.026 E6.59708
;WIDTH:0.399999
G1 X134.905 Y97.537 E6.64139
G1 X134.901 Y92.919 E6.7785
G1 X134.988 Y92.765 E6.78375
G1 X135.903 Y92.74 E6.81093
G1 X146.243 Y92.74 E7.11794
G1 X146.297 Y92.767 E7.11973
G1 X146.416 Y93.149 F6000
G1 E2.11973 F2400
G92 E0
G1 X146.657 Y93.149 F6000
G1 X158.919 Y101.204
G1 X159.957 Y102.242
G1 X161.668 Y105
G1 E5 F2400
;TYPE:Perimeter
G1 F1470
G1 X161.668 Y105.196 E5.00582
G1 X161.459 Y106.516 E5.0455
G1 X161.338 Y106.888 E5.05711
G1 X160.732 Y108.079 E5.09679
G1 X160.502 Y108.395 E5.10839
G1 X159.556 Y109.341 E5.14811
G1 X159.24 Y109.57 E5.1597
G1 X158.049 Y110.177 E5.19939
G1 X157.677 Y110.298 E5.211
G1 X156.357 Y110.507 E5.25068
G1 X155.966 Y110.507 E5.26229
G1 X154.645 Y110.298 E5.302
G1 X154.273 Y110.177 E5.31361
G1 X153.082 Y109.57 E5.3533
G1 X152.766 Y109.341 E5.36489
G1 X151.82 Y108.395 E5.40461
G1 X151.591 Y108.079 E5.4162
G1 X150.984 Y106.888 E5.45589
G1 X150.863 Y106.516 E5.4675
G1 X150.654 Y105.196 E5.50718
G1 X150.654 Y104.804 E5.51882
G1 X150.863 Y103.484 E5.5585
G1 X150.984 Y103.112 E5.57011
G1 X151.591 Y101.921 E5.6098
G1 X151.82 Y101.605 E5.62139
G1 X152.766 Y100.659 E5.66111
G1 X153.082 Y100.43 E5.6727
G1 X154.273 Y99.823 E5.71239
G1 X154.645 Y99.702 E5.724
G1 X155.966 Y99.493 E5.76371
G1 X156.357 Y99.493 E5.77532
G1 X157.677 Y99.702 E5.815
G1 X158.049 Y99.823 E5.82661
G1 X159.24 Y100.43 E5.8663
G1 X159.556 Y100.659 E5.87789
G1 X160.502 Y101.605 E5.91761
G1 X160.732 Y101.921 E5.92921
G1 X161.338 Y103.112 E5.96889
G1 X161.459 Y103.484 E5.9805
G1 X161.668 Y104.804 E6.02018
G1 X161.668 Y104.94 E6.02422
G1 X161.668 Y104.94 F6000
G1 X161.316 Y105
G1 F1470
G1 X161.316 Y105.14 E6.02838
G1 X161.107 Y106.46 E6.06806
G1 X161.02 Y106.726 E6.07637
G1 X160.413 Y107.917 E6.11606
G1 X160.249 Y108.143 E6.12435
G1 X159.304 Y109.088 E6.16403
G1 X159.078 Y109.252 E6.17232
G1 X157.887 Y109.859 E6.21201
G1 X157.621 Y109.946 E6.22032
G1 X156.301 Y110.155 E6.26
G1 X156.021 Y110.155 E6.26831
G1 X154.701 Y109.946 E6.30799
G1 X154.435 Y109.859 E6.3163
G1 X153.244 Y109.252 E6.35599
G1 X153.018 Y109.088 E6.36428
G1 X152.073 Y108.143 E6.40396
G1 X151.909 Y107.917 E6.41225
G1 X151.302 Y106.726 E6.45194
G1 X151.216 Y106.46 E6.46024
G1 X151.006 Y105.14 E6.49993
G1 X151.006 Y104.86 E6.50824
G1 X151.216 Y103.54 E6.54793
G1 X151.302 Y103.274 E6.55623
G1 X151.909 Y102.083 E6.59592
G1 X152.073 Y101.857 E6.60421
G1 X153.018 Y100.912 E6.64389
G1 X153.244 Y100.748 E6.65218
G1 X154.435 Y100.141 E6.69187
G1 X154.701 Y100.054 E6.70018
G1 X156.021 Y99.845 E6.73986
G1 X156.301 Y99.845 E6.74817
G1 X157.621 Y100.054 E6.78785
G1 X158.012 Y100.205 E6.80029
G1 X159.078 Y100.748 E6.83581
G1 X159.304 Y100.912 E6.8441
G1 X160.249 Y101.857 E6.88378
G1 X160.413 Y102.083 E6.89207
G1 X161.02 Y103.274 E6.93176
G1 X161.107 Y103.54 E6.94007
G1 X161.316 Y104.86 E6.97975
G1 X161.316 Y104.94 E6.98213
G1 X161.316 Y104.94 F6000
G1 X160.963 Y105
G1 F1470
G1 X160.963 Y105.084 E6.98462
G1 X160.754 Y106.404 E7.0243
G1 X160.702 Y106.564 E7.0293
G1 X160.095 Y107.755 E7.06899
G1 X159.997 Y107.89 E7.07394
G1 X159.051 Y108.836 E7.11366
G1 X158.916 Y108.934 E7.11861
G1 X157.725 Y109.541 E7.1583
G1 X157.565 Y109.593 E7.1633
G1 X156.245 Y109.802 E7.20298
G1 X156.077 Y109.802 E7.20797
G1 X154.757 Y109.593 E7.24765
G1 X154.597 Y109.541 E7.25265
G1 X153.406 Y108.934 E7.29234
G1 X153.271 Y108.836 E7.29729
G1 X152.325 Y107.89 E7.33701
G1 X152.227 Y107.755 E7.34196
G1 X151.62 Y106.564 E7.38165
G1 X151.568 Y106.404 E7.38665
G1 X151.359 Y105.084 E7.42633
G1 X151.359 Y104.916 E7.43132
G1 X151.568 Y103.596 E7.471
G1 X151.62 Y103.436 E7.476
G1 X152.227 Y102.245 E7.51569
G1 X152.325 Y102.11 E7.52064
G1 X153.271 Y101.164 E7.56036
G1 X153.406 Y101.066 E7.56531
G1 X154.597 Y100.459 E7.605
G1 X154.757 Y100.407 E7.61
G1 X156.077 Y100.198 E7.64968
G1 X156.245 Y100.198 E7.65467
G1 X157.565 Y100.407 E7.69435
G1 X157.85 Y100.523 E7.70349
G1 X158.916 Y101.066 E7.73901
G1 X159.051 Y101.164 E7.74396
G1 X159.997 Y102.11 E7.78368
G1 X160.095 Y102.245 E7.78863
G1 X160.702 Y103.436 E7.82832
G1 X160.754 Y103.596 E7.83332
G1 X160.963 Y104.916 E7.873
G1 X160.963 Y104.94 E7.87371
G1 X160.606 Y104.999 F6000
;TYPE:External perimeter
G1 F1470
G1 X160.401 Y106.351 E7.91431
G1 X159.744 Y107.638 E7.95721
G1 X158.799 Y108.583 E7.99689
G1 X157.563 Y109.223 E8.03822
G1 X156.189 Y109.449 E8.07956
G1 X154.76 Y109.223 E8.12252
G1 X153.523 Y108.583 E8.16387
G1 X152.545 Y107.593 E8.20519
G1 X151.938 Y106.401 E8.24491
G1 X151.712 Y105.028 E8.28622
G1 X151.938 Y103.599 E8.32918
G1 X152.578 Y102.362 E8.37053
G1 X153.523 Y101.417 E8.41021
G1 X154.76 Y100.777 E8.45156
G1 X156.133 Y100.551 E8.49287
G1 X157.509 Y100.76 E8.53419
G1 X158.799 Y101.417 E8.57717
G1 X159.777 Y102.407 E8.61849
G1 X160.384 Y103.599 E8.65821
G1 X160.605 Y104.94 E8.69856
G1 X160.554 Y105.337 F6000
G1 E3.69856 F2400
G92 E0
G1 X167.49 Y105 F6000
G1 E5 F2400
;TYPE:Perimeter
G1 F2100
G1 X167.49 Y119.505 E5.43067
G1 X166.356 Y121.774 E5.50598
G1 X166.069 Y122.134 E5.51965
G1 X165.734 Y122.229 E5.52999
G1 X137.703 Y122.229 E6.36227
G1 X137.253 Y122.134 E6.37593
G1 X137.018 Y121.876 E6.38629
G1 X135.539 Y118.92 E6.48443
G1 X135.059 Y118.405 E6.50533
;WIDTH:0.398198
G1 X134.855 Y118.309 E6.51199
G1 X135.08 Y118.33 E6.51867
;WIDTH:0.399999
G1 X146.243 Y118.331 E6.85011
G1 X146.458 Y118.312 E6.85652
G1 X146.831 Y118.184 E6.86823
G1 X147.064 Y118.023 E6.87664
G1 X147.242 Y117.831 E6.88441
G1 X147.442 Y117.431 E6.89769
G1 X147.492 Y117.081 E6.90819
G1 X147.492 Y93.79 E7.59973
G1 X147.481 Y92.753 E7.63052
G1 X147.366 Y92.371 E7.64236
G1 X147.064 Y91.977 E7.6571
G1 X146.831 Y91.816 E7.66551
G1 X146.55 Y91.707 E7.67446
G1 X146.243 Y91.669 E7.68364
G1 X135.903 Y91.669 E7.99065
G1 X134.855 Y91.691 E8.02177
;WIDTH:0.398198
G1 X135.059 Y91.595 E8.02843
;WIDTH:0.399999
G1 X135.539 Y91.08 E8.04933
G1 X136.966 Y88.226 E8.14407
G1 X137.253 Y87.866 E8.15774
G1 X137.588 Y87.771 E8.16808
G1 X165.619 Y87.771 E9.00036
G1 X166.069 Y87.866 E9.01402
G1 X166.304 Y88.124 E9.02438
G1 X167.49 Y90.495 E9.10309
G1 X167.49 Y91.336 E9.12806
G1 X167.49 Y104.94 E9.53198
G1 E4.53198 F2400
G92 E0
G1 X167.49 Y104.94 F6000
G1 X146.657 Y92.504
G1 X134.665 Y92.504
G1 X133.828 Y97.532
G1 E5 F2400
G1 F2100
G1 X132.976 Y97.505 E5.02531
G1 X85.832 Y97.505 E6.42507
G1 X85.832 Y93.235 E6.55185
G1 X85.958 Y92.602 E6.57101
G1 X86.24 Y92.179 E6.5861
G1 X86.663 Y91.897 E6.60119
G1 X87.296 Y91.771 E6.62035
G1 X133.551 Y91.771 E7.99372
G1 X134.646 Y91.749 E8.02624
;WIDTH:0.398198
G1 X134.442 Y91.845 E8.0329
;WIDTH:0.399999
G1 X133.946 Y92.391 E8.0548
G1 X133.83 Y92.92 E8.07088
G1 X133.828 Y97.472 E8.20603
G1 E3.20603 F2400
G92 E0
G1 X133.828 Y97.472 F6000
G1 X134.646 Y91.749
G1 E5 F2400
;WIDTH:0.3957
G1 F1470
G1 X134.855 Y91.691 E5.00636
G1 E.00636 F2400
G92 E0
G1 X134.855 Y91.691 F6000
G1 X134.855 Y118.309
G1 E5 F2400
G1 F1470
G1 X134.646 Y118.251 E5.00636
G1 E.00636 F2400
G92 E0
G1 X134.646 Y118.251 F6000
G1 X133.834 Y112.467
G1 E5 F2400
;WIDTH:0.399999
G1 F2100
G1 X133.83 Y117.08 E5.13697
G1 X133.946 Y117.609 E5.15305
G1 X134.442 Y118.155 E5.17495
;WIDTH:0.398198
G1 X134.646 Y118.251 E5.18161
G1 X134.422 Y118.23 E5.18826
;WIDTH:0.399999
G1 X87.296 Y118.229 E6.58749
G1 X86.663 Y118.103 E6.60665
G1 X86.24 Y117.821 E6.62174
G1 X85.958 Y117.398 E6.63683
G1 X85.832 Y116.765 E6.65599
G1 X85.832 Y112.488 E6.78298
G1 X132.972 Y112.494 E8.18263
G1 X133.774 Y112.469 E8.20645
G1 X133.774 Y112.469 F6000
G1 X134.205 Y112.081
G1 F2100
G1 X134.191 Y112.474 E8.21813
G1 X134.187 Y117.081 E8.35492
G1 X134.27 Y117.458 E8.36638
G1 X134.624 Y117.849 E8.38204
G1 X134.769 Y117.918 E8.38681
G1 X135.08 Y117.974 E8.39619
G1 X146.243 Y117.974 E8.72763
G1 X146.397 Y117.961 E8.73222
G1 X146.663 Y117.869 E8.74058
G1 X146.957 Y117.617 E8.75208
G1 X147.1 Y117.331 E8.76157
G1 X147.135 Y117.081 E8.76907
G1 X147.127 Y92.8 E9.49
G1 X147.045 Y92.527 E9.49846
G1 X146.83 Y92.246 E9.50897
G1 X146.462 Y92.053 E9.52131
G1 X146.243 Y92.026 E9.52786
G1 X135.903 Y92.026 E9.83487
G1 X134.919 Y92.04 E9.86409
G1 X134.624 Y92.151 E9.87345
G1 X134.27 Y92.542 E9.88911
G1 X134.187 Y92.919 E9.90057
G1 X134.19 Y96.716 E10.01331
G1 X134.214 Y97.92 E10.04907
G1 X132.976 Y97.862 E10.08587
G1 X85.475 Y97.862 E11.49623
G1 X85.475 Y93.2 E11.63465
G1 X85.622 Y92.462 E11.65699
G1 X85.983 Y91.922 E11.67628
G1 X86.524 Y91.561 E11.69559
G1 X87.261 Y91.414 E11.7179
G1 X133.551 Y91.414 E13.09231
G1 X134.582 Y91.4 E13.12292
G1 X134.877 Y91.289 E13.13228
G1 X135.22 Y90.921 E13.14722
G1 X136.721 Y87.92 E13.24685
G1 X137.058 Y87.551 E13.26169
G1 X137.538 Y87.414 E13.27651
G1 X165.784 Y87.414 E14.11517
G1 X166.264 Y87.551 E14.12999
G1 X166.602 Y87.92 E14.14485
G1 X167.847 Y90.41 E14.22751
G1 X167.847 Y91.336 E14.255
G1 X167.847 Y119.59 E15.0939
G1 X166.602 Y122.08 E15.17656
G1 X166.264 Y122.449 E15.19142
G1 X165.784 Y122.586 E15.20624
G1 X137.538 Y122.586 E16.0449
G1 X137.058 Y122.449 E16.05972
G1 X136.721 Y122.08 E16.07456
G1 X135.22 Y119.079 E16.17419
G1 X134.877 Y118.711 E16.18913
G1 X134.732 Y118.642 E16.1939
G1 X134.422 Y118.586 E16.20325
G1 X87.261 Y118.586 E17.60352
G1 X86.524 Y118.439 E17.62583
G1 X85.983 Y118.078 E17.64514
G1 X85.622 Y117.538 E17.66443
G1 X85.475 Y116.8 E17.68677
G1 X85.475 Y112.131 E17.8254
G1 X132.972 Y112.137 E19.23564
G1 X134.145 Y112.084 E19.2705
G1 X134.145 Y112.084 F6000
G1 X134.591 Y111.641
G1 F2100
G1 X134.548 Y112.474 E19.29527
G1 X134.544 Y117.081 E19.43206
G1 X134.594 Y117.307 E19.43893
G1 X134.806 Y117.542 E19.44833
G1 X135.08 Y117.617 E19.45676
G1 X146.243 Y117.617 E19.7882
G1 X146.335 Y117.609 E19.79094
