; generated by PrusaSlicer 2.9.0 on 2026-04-11 at 09:49:25 UTC

; 

; external perimeters extrusion width = 0.45mm
; perimeters extrusion width = 0.45mm
; infill extrusion width = 0.45mm
; solid infill extrusion width = 0.45mm
; top infill extrusion width = 0.40mm
; first layer extrusion width = 0.40mm

M190 S80 ; set bed temperature and wait for it to be reached
M104 S235 ; set temperature
;TYPE:Custom
G28 ; home all axes
G1 Z5 F5000 ; lift nozzle
M109 S235 ; set temperature and wait for it to be reached
G21 ; set units to millimeters
G90 ; use absolute coordinates
M82 ; use absolute distances for extrusion
G92 E0
; Filament gcode
M107
;LAYER_CHANGE
;Z:0.2
;HEIGHT:0.2
G1 E-5 F2400
G1 Z.2 F6000
G1 X73.211 Y62.682
G1 E.00001 F2400
;TYPE:Skirt/Brim
;WIDTH:0.4
G1 F2520
G1 X73.385 Y62.479 E.00794
G1 X75.225 Y61.804 E.06613
G1 X130.317 Y57.585 E1.70667
G1 X134.599 Y57.35 E1.834
G1 X139.151 Y57.519 E1.96925
G1 X143.665 Y58.123 E2.10447
G1 X148.433 Y59.25 E2.24994
G1 X152.74 Y60.732 E2.38518
G1 X156.579 Y62.462 E2.5102
G1 X160.833 Y64.892 E2.65566
G1 X164.544 Y67.532 E2.79088
G1 X167.737 Y70.277 E2.9159
G1 X170.903 Y73.551 E3.05113
G1 X173.942 Y77.393 E3.19658
G1 X176.4 Y81.228 E3.33183
G1 X178.338 Y84.966 E3.45685
G1 X180.166 Y89.511 E3.6023
G1 X181.357 Y93.55 E3.72733
G1 X181.6 Y94.719 E3.76278
G1 X182.288 Y98.359 E3.87277
G1 X182.69 Y102.55 E3.99778
G1 X182.69 Y107.45 E4.14327
G1 X182.239 Y111.982 E4.2785
G1 X181.439 Y116.116 E4.40352
G1 X180.053 Y120.814 E4.54895
G1 X178.481 Y124.721 E4.67399
G1 X176.4 Y128.772 E4.80921
G1 X173.742 Y132.887 E4.95466
G1 X170.903 Y136.449 E5.0899
G1 X167.737 Y139.723 E5.22513
G1 X164.272 Y142.68 E5.36038
G1 X160.542 Y145.293 E5.4956
G1 X156.579 Y147.538 E5.63084
G1 X152.419 Y149.394 E5.76609
G1 X148.102 Y150.845 E5.90131
G1 X143.665 Y151.877 E6.03657
G1 X139.494 Y152.45 E6.16158
G1 X138.302 Y152.515 E6.19702
G1 X134.599 Y152.65 E6.30704
G1 X130.395 Y152.42 E6.43205
G1 X75.623 Y148.196 E8.06313
G1 X74.018 Y147.677 E8.11321
G1 X72.825 Y146.484 E8.1633
G1 X72.294 Y144.626 E8.22068
G1 X71.894 Y89.4 E9.86045
G1 X71.894 Y65.4 E10.57304
G1 X72.288 Y63.76 E10.62312
G1 X73.172 Y62.728 E10.66347
G1 X73.172 Y62.728 F6000
G1 X73.446 Y62.982
G1 F2520
G1 X73.731 Y62.674 E10.67593
G1 X75.252 Y62.16 E10.7236
G1 X130.344 Y57.941 E12.36414
G1 X134.619 Y57.706 E12.49126
G1 X139.136 Y57.876 E12.62547
G1 X143.617 Y58.477 E12.75971
G1 X148.318 Y59.588 E12.90313
G1 X152.304 Y60.944 E13.02814
G1 X156.432 Y62.787 E13.16237
G1 X160.627 Y65.183 E13.30581
G1 X164.311 Y67.802 E13.44002
G1 X167.504 Y70.548 E13.56506
G1 X170.645 Y73.799 E13.69928
G1 X173.642 Y77.587 E13.8427
G1 X175.928 Y81.123 E13.96772
G1 X178.021 Y85.13 E14.10195
G1 X179.824 Y89.612 E14.24539
G1 X181.015 Y93.651 E14.37042
G1 X181.25 Y94.787 E14.40486
G1 X181.933 Y98.393 E14.51383
G1 X182.335 Y102.585 E14.63887
G1 X182.335 Y107.415 E14.78228
G1 X181.889 Y111.914 E14.91652
G1 X181.088 Y116.048 E15.04155
G1 X179.722 Y120.681 E15.18496
G1 X178.15 Y124.587 E15.30997
G1 X176.083 Y128.608 E15.44421
G1 X173.461 Y132.665 E15.58764
G1 X170.645 Y136.201 E15.72185
G1 X167.504 Y139.452 E15.85607
G1 X164.066 Y142.389 E15.99033
G1 X160.365 Y144.983 E16.12452
G1 X156.432 Y147.213 E16.25876
G1 X152.304 Y149.056 E16.39299
G1 X148.02 Y150.498 E16.5272
G1 X143.617 Y151.523 E16.66143
G1 X139.136 Y152.124 E16.79567
G1 X134.929 Y152.296 E16.92069
G1 X130.415 Y152.064 E17.05489
G1 X75.65 Y147.84 E18.68576
G1 X74.135 Y147.328 E18.73324
G1 X73.047 Y146.155 E18.78074
G1 X72.651 Y144.624 E18.82769
G1 X72.251 Y89.4 E20.46741
G1 X72.251 Y65.4 E21.18
G1 X72.644 Y63.849 E21.22751
G1 X73.406 Y63.026 E21.26081
G1 X73.406 Y63.026 F6000
G1 X73.665 Y63.288
G1 F2520
G1 X74.073 Y62.884 E21.27786
G1 X75.28 Y62.516 E21.31533
G1 X130.371 Y58.297 E22.95584
G1 X134.638 Y58.063 E23.08272
G1 X139.122 Y58.233 E23.21595
G1 X143.568 Y58.83 E23.34914
G1 X148.203 Y59.926 E23.49055
G1 X152.447 Y61.383 E23.62378
G1 X156.285 Y63.113 E23.74878
G1 X160.421 Y65.475 E23.8902
G1 X163.861 Y67.903 E24.01522
G1 X167.271 Y70.818 E24.14842
G1 X170.569 Y74.254 E24.28983
G1 X173.181 Y77.556 E24.41484
G1 X175.628 Y81.317 E24.54806
G1 X177.819 Y85.546 E24.68948
G1 X179.481 Y89.713 E24.82268
G1 X180.738 Y94.02 E24.9559
G1 X181.538 Y98.154 E25.08092
G1 X181.993 Y102.895 E25.22233
G1 X181.993 Y107.105 E25.34733
G1 X181.578 Y111.572 E25.48053
G1 X180.738 Y115.98 E25.61376
G1 X179.39 Y120.548 E25.75517
G1 X177.819 Y124.454 E25.88017
G1 X175.766 Y128.444 E26.0134
G1 X173.181 Y132.444 E26.15481
G1 X170.387 Y135.954 E26.28801
G1 X167.271 Y139.182 E26.42122
G1 X163.861 Y142.097 E26.55442
G1 X160.187 Y144.673 E26.68765
G1 X156.285 Y146.887 E26.82086
G1 X152.189 Y148.718 E26.95407
G1 X147.937 Y150.15 E27.08728
G1 X143.568 Y151.17 E27.22049
G1 X139.122 Y151.767 E27.35368
G1 X134.638 Y151.937 E27.48691
G1 X130.434 Y151.707 E27.61192
G1 X75.678 Y147.484 E29.24252
G1 X74.257 Y146.98 E29.28729
G1 X73.282 Y145.829 E29.33208
G1 X73.008 Y144.621 E29.36886
G1 X72.608 Y89.4 E31.00849
G1 X72.608 Y65.4 E31.72108
G1 X73.001 Y63.944 E31.76586
G1 X73.622 Y63.33 E31.79179
G1 X73.86 Y63.599 F6000
G1 F2520
G1 X74.412 Y63.11 E31.81369
G1 X75.307 Y62.872 E31.84119
G1 X130.399 Y58.653 E33.48173
G1 X134.658 Y58.419 E33.60838
G1 X139.107 Y58.59 E33.74057
G1 X143.52 Y59.184 E33.87278
G1 X148.088 Y60.264 E34.01215
G1 X152.074 Y61.62 E34.13716
G1 X156.138 Y63.438 E34.26935
G1 X160.215 Y65.767 E34.40876
G1 X163.655 Y68.195 E34.53378
G1 X167.038 Y71.089 E34.66596
G1 X170.289 Y74.476 E34.80535
G1 X172.901 Y77.778 E34.93036
G1 X175.328 Y81.511 E35.06256
G1 X177.386 Y85.459 E35.19475
G1 X179.139 Y89.814 E35.33414
G1 X180.33 Y93.853 E35.45917
G1 X180.549 Y94.922 E35.49157
G1 X181.222 Y98.462 E35.59856
G1 X181.624 Y102.653 E35.72357
G1 X181.624 Y107.347 E35.86294
G1 X181.187 Y111.778 E35.99514
G1 X180.387 Y115.912 E36.12016
G1 X179.059 Y120.415 E36.25955
G1 X177.488 Y124.321 E36.38455
G1 X175.449 Y128.279 E36.51675
G1 X172.901 Y132.222 E36.65614
G1 X170.13 Y135.707 E36.78834
G1 X167.038 Y138.911 E36.92054
G1 X163.655 Y141.805 E37.05272
G1 X160.01 Y144.363 E37.18494
G1 X156.138 Y146.562 E37.31715
G1 X152.074 Y148.38 E37.44934
G1 X147.855 Y149.803 E37.58154
G1 X143.52 Y150.816 E37.71372
G1 X139.107 Y151.41 E37.84593
G1 X134.658 Y151.581 E37.97812
G1 X130.454 Y151.351 E38.10313
G1 X75.705 Y147.128 E39.73353
G1 X74.385 Y146.633 E39.77539
G1 X73.533 Y145.509 E39.81727
G1 X73.365 Y144.618 E39.84419
G1 X72.965 Y89.4 E41.48373
G1 X72.965 Y65.4 E42.19632
G1 X73.357 Y64.045 E42.2382
G1 X73.816 Y63.639 E42.25639
G1 X73.816 Y63.639 F6000
G1 X74.013 Y63.983
G1 F2520
G1 X75.334 Y63.228 E42.30157
G1 X130.426 Y59.009 E43.94211
G1 X134.677 Y58.776 E44.06852
G1 X139.092 Y58.947 E44.19971
G1 X143.471 Y59.538 E44.33091
G1 X147.973 Y60.602 E44.46826
G1 X151.959 Y61.958 E44.59327
G1 X155.992 Y63.764 E44.72447
G1 X160.009 Y66.059 E44.86183
G1 X163.449 Y68.487 E44.98685
G1 X166.805 Y71.36 E45.11802
G1 X170.009 Y74.697 E45.25538
G1 X172.621 Y77.999 E45.38039
G1 X175.028 Y81.705 E45.5116
G1 X177.069 Y85.623 E45.64277
G1 X178.796 Y89.915 E45.78013
G1 X179.987 Y93.954 E45.90516
G1 X180.198 Y94.99 E45.93655
G1 X180.867 Y98.496 E46.04253
G1 X181.269 Y102.687 E46.16754
G1 X181.269 Y107.313 E46.30489
G1 X180.867 Y111.504 E46.4299
G1 X180.037 Y115.844 E46.5611
G1 X178.728 Y120.281 E46.69845
G1 X177.156 Y124.187 E46.82346
G1 X175.132 Y128.115 E46.95466
G1 X172.621 Y132.001 E47.09203
G1 X169.872 Y135.46 E47.22322
G1 X166.805 Y138.64 E47.3544
G1 X163.449 Y141.513 E47.48557
G1 X159.833 Y144.053 E47.61677
G1 X155.992 Y146.236 E47.74795
G1 X151.959 Y148.042 E47.87915
G1 X147.773 Y149.455 E48.01033
G1 X143.471 Y150.462 E48.14151
G1 X139.092 Y151.053 E48.27271
G1 X134.886 Y151.226 E48.3977
G1 X130.473 Y150.994 E48.52891
G1 X75.733 Y146.772 E50.15904
G1 X74.522 Y146.287 E50.19777
G1 X73.722 Y144.616 E50.25278
G1 X73.322 Y89.4 E51.89226
G1 X73.322 Y65.4 E52.60485
G1 X73.713 Y64.155 E52.6436
G1 X73.961 Y64.013 E52.65209
G1 E47.65209 F2400
G92 E0
G1 X73.961 Y64.013 F6000
G92 E0
G1 X113.224 Y137.09
G1 E5 F2400
;TYPE:Perimeter
;WIDTH:0.399999
G1 F2100
G1 X112.87 Y137.448 E5.01495
G1 X112.003 Y138.066 E5.04656
G1 X111.518 Y138.357 E5.06335
G1 X111.323 Y138.442 E5.06967
G1 X110.264 Y138.796 E5.10282
G1 X109.643 Y138.911 E5.12157
G1 X108.527 Y138.944 E5.15472
G1 X107.9 Y138.875 E5.17345
G1 X106.822 Y138.583 E5.20661
G1 X106.241 Y138.334 E5.22538
G1 X105.293 Y137.744 E5.25853
G1 X104.81 Y137.337 E5.27728
G1 X104.074 Y136.498 E5.31042
G1 X103.73 Y135.968 E5.32918
G1 X103.267 Y134.952 E5.36233
G1 X103.092 Y134.345 E5.38109
G1 X102.943 Y133.239 E5.41423
G1 X102.94 Y132.695 E5.43038
G1 X103.128 Y131.505 E5.46615
G1 X103.32 Y130.903 E5.48491
G1 X103.808 Y129.899 E5.51805
G1 X104.166 Y129.379 E5.53679
G1 X104.924 Y128.558 E5.56997
G1 X105.418 Y128.165 E5.58871
G1 X106.38 Y127.598 E5.62187
G1 X106.967 Y127.365 E5.64062
G1 X108.052 Y127.101 E5.67377
G1 X108.613 Y127.047 E5.6905
G1 X109.797 Y127.11 E5.7257
G1 X110.414 Y127.242 E5.74443
G1 X111.464 Y127.623 E5.77759
G1 X111.988 Y127.91 E5.79533
G1 X112.342 Y127.552 E5.81028
G1 X113.15 Y126.976 E5.83974
G1 X113.694 Y126.643 E5.85868
G1 X113.889 Y126.558 E5.865
G1 X114.948 Y126.204 E5.89815
G1 X115.568 Y126.089 E5.91687
G1 X116.685 Y126.056 E5.95005
G1 X117.312 Y126.125 E5.96878
G1 X118.39 Y126.417 E6.00194
G1 X118.971 Y126.666 E6.02071
G1 X119.918 Y127.256 E6.05384
G1 X120.401 Y127.663 E6.07259
G1 X121.138 Y128.502 E6.10575
G1 X121.482 Y129.032 E6.12451
G1 X121.945 Y130.048 E6.15766
G1 X122.12 Y130.655 E6.17642
G1 X122.269 Y131.761 E6.20956
G1 X122.272 Y132.307 E6.22577
G1 X122.084 Y133.495 E6.26148
G1 X121.928 Y134.017 E6.27766
G1 X121.404 Y135.101 E6.31341
G1 X121.153 Y135.487 E6.32708
G1 X120.288 Y136.442 E6.36534
G1 X119.794 Y136.835 E6.38408
G1 X118.832 Y137.402 E6.41724
G1 X118.245 Y137.635 E6.43599
G1 X117.16 Y137.899 E6.46914
G1 X116.636 Y137.953 E6.48478
G1 X115.415 Y137.89 E6.52108
G1 X114.798 Y137.758 E6.53981
G1 X113.748 Y137.377 E6.57297
G1 X113.277 Y137.118 E6.58893
G1 X113.277 Y137.118 F6000
G1 X113.158 Y136.597
G1 F2100
G1 X112.707 Y137.114 E6.6093
G1 X111.797 Y137.775 E6.64269
G1 X111.349 Y138.043 E6.65819
G1 X111.21 Y138.103 E6.66269
G1 X110.151 Y138.457 E6.69584
G1 X109.633 Y138.554 E6.71149
G1 X108.517 Y138.587 E6.74464
G1 X107.993 Y138.53 E6.76029
G1 X106.915 Y138.239 E6.79344
G1 X106.43 Y138.031 E6.80911
G1 X105.482 Y137.441 E6.84226
G1 X105.079 Y137.102 E6.8579
G1 X104.342 Y136.262 E6.89108
G1 X104.055 Y135.82 E6.90673
G1 X103.592 Y134.804 E6.93988
G1 X103.446 Y134.298 E6.95552
G1 X103.297 Y133.191 E6.98868
G1 X103.3 Y132.688 E7.00361
G1 X103.481 Y131.561 E7.0375
G1 X103.641 Y131.059 E7.05314
G1 X104.129 Y130.055 E7.08628
G1 X104.429 Y129.621 E7.10194
G1 X105.186 Y128.801 E7.13508
G1 X105.599 Y128.472 E7.15076
G1 X106.561 Y127.906 E7.1839
G1 X107.051 Y127.712 E7.19955
G1 X108.137 Y127.448 E7.23273
G1 X108.662 Y127.405 E7.24837
G1 X109.777 Y127.466 E7.28153
G1 X110.292 Y127.578 E7.29718
G1 X111.342 Y127.959 E7.33034
G1 X111.802 Y128.215 E7.34597
G1 X112.054 Y128.403 E7.3553
G1 X112.505 Y127.886 E7.37567
G1 X113.356 Y127.267 E7.40691
G1 X113.863 Y126.957 E7.42455
G1 X114.002 Y126.897 E7.42905
G1 X115.061 Y126.543 E7.4622
G1 X115.579 Y126.446 E7.47785
G1 X116.695 Y126.413 E7.511
G1 X117.219 Y126.47 E7.52665
G1 X118.297 Y126.761 E7.5598
G1 X118.782 Y126.969 E7.57547
G1 X119.73 Y127.559 E7.60862
G1 X120.133 Y127.898 E7.62426
G1 X120.87 Y128.738 E7.65744
G1 X121.157 Y129.18 E7.67309
G1 X121.62 Y130.196 E7.70624
G1 X121.766 Y130.702 E7.72188
G1 X121.915 Y131.809 E7.75504
G1 X121.908 Y132.336 E7.77069
G1 X121.731 Y133.439 E7.80386
G1 X121.571 Y133.941 E7.8195
G1 X121.083 Y134.945 E7.85264
G1 X120.86 Y135.283 E7.86466
G1 X120.026 Y136.199 E7.90144
G1 X119.613 Y136.528 E7.91712
G1 X118.651 Y137.094 E7.95026
G1 X118.16 Y137.288 E7.96594
G1 X117.075 Y137.552 E7.99909
G1 X116.56 Y137.595 E8.01443
G1 X115.435 Y137.534 E8.04788
G1 X114.92 Y137.422 E8.06353
G1 X113.87 Y137.041 E8.09669
G1 X113.41 Y136.785 E8.11232
G1 X113.206 Y136.633 E8.11987
G1 X113.206 Y136.633 F6000
G1 X113.091 Y136.102
G1 F2100
G1 X112.683 Y136.625 E8.13956
G1 X112.383 Y136.922 E8.15209
G1 X111.471 Y137.568 E8.18527
G1 X111.097 Y137.764 E8.19781
G1 X110.038 Y138.118 E8.23096
G1 X109.622 Y138.197 E8.24353
G1 X108.506 Y138.23 E8.27668
G1 X108.086 Y138.185 E8.28922
G1 X107.008 Y137.894 E8.32237
G1 X106.619 Y137.728 E8.33493
G1 X105.671 Y137.138 E8.36808
G1 X105.347 Y136.866 E8.38064
G1 X104.61 Y136.027 E8.4138
G1 X104.38 Y135.672 E8.42636
G1 X103.917 Y134.656 E8.45951
G1 X103.8 Y134.25 E8.47206
G1 X103.65 Y133.143 E8.50523
G1 X103.662 Y132.683 E8.51889
G1 X103.833 Y131.618 E8.55092
G1 X103.962 Y131.215 E8.56348
G1 X104.45 Y130.211 E8.59662
G1 X104.691 Y129.863 E8.60919
G1 X105.449 Y129.043 E8.64235
G1 X105.78 Y128.78 E8.6549
G1 X106.742 Y128.214 E8.68804
G1 X107.136 Y128.059 E8.70061
G1 X108.221 Y127.795 E8.73376
G1 X108.642 Y127.762 E8.7463
G1 X109.757 Y127.823 E8.77946
G1 X110.17 Y127.914 E8.79202
G1 X111.22 Y128.294 E8.82517
G1 X111.589 Y128.501 E8.83773
G1 X112.121 Y128.898 E8.85744
G1 X112.529 Y128.375 E8.87713
G1 X112.829 Y128.078 E8.88966
G1 X113.741 Y127.432 E8.92284
G1 X114.115 Y127.236 E8.93538
G1 X115.174 Y126.882 E8.96853
G1 X115.589 Y126.803 E8.98107
G1 X116.706 Y126.77 E9.01425
G1 X117.126 Y126.815 E9.02679
G1 X118.204 Y127.106 E9.05994
G1 X118.593 Y127.272 E9.0725
G1 X119.541 Y127.862 E9.10565
G1 X119.865 Y128.134 E9.11821
G1 X120.601 Y128.973 E9.15135
G1 X120.832 Y129.328 E9.16393
G1 X121.295 Y130.344 E9.19708
G1 X121.412 Y130.75 E9.20963
G1 X121.561 Y131.857 E9.24279
G1 X121.556 Y132.28 E9.25535
G1 X121.378 Y133.382 E9.28849
G1 X121.25 Y133.785 E9.30104
G1 X120.761 Y134.789 E9.3342
G1 X120.567 Y135.079 E9.34456
G1 X119.763 Y135.957 E9.37991
G1 X119.432 Y136.22 E9.39246
G1 X118.469 Y136.786 E9.42563
G1 X118.076 Y136.941 E9.43817
G1 X116.991 Y137.205 E9.47132
G1 X116.57 Y137.238 E9.48386
G1 X115.454 Y137.177 E9.51704
G1 X114.904 Y137.037 E9.53389
G1 X113.992 Y136.706 E9.5627
G1 X113.623 Y136.499 E9.57526
G1 X113.139 Y136.137 E9.59321
G1 X113.139 Y136.137 F6000
G1 X113.024 Y135.606
;TYPE:External perimeter
G1 F1680
G1 X112.402 Y136.406 E9.6233
G1 X112.176 Y136.631 E9.63277
G1 X111.265 Y137.276 E9.66591
G1 X110.984 Y137.426 E9.67537
G1 X109.925 Y137.78 E9.70852
G1 X109.612 Y137.841 E9.71799
G1 X108.496 Y137.873 E9.75114
G1 X108.179 Y137.84 E9.7606
G1 X107.101 Y137.549 E9.79375
G1 X106.808 Y137.425 E9.8032
G1 X105.86 Y136.835 E9.83635
G1 X105.615 Y136.63 E9.84583
G1 X104.879 Y135.791 E9.87897
G1 X104.705 Y135.525 E9.88841
G1 X104.242 Y134.508 E9.92159
G1 X104.153 Y134.202 E9.93105
G1 X104.004 Y133.096 E9.96419
G1 X104.015 Y132.74 E9.97477
G1 X104.186 Y131.675 E10.0068
G1 X104.283 Y131.371 E10.01627
G1 X104.772 Y130.367 E10.04943
G1 X104.953 Y130.105 E10.05888
G1 X105.711 Y129.285 E10.09204
G1 X105.961 Y129.088 E10.10149
G1 X106.923 Y128.522 E10.13463
G1 X107.22 Y128.406 E10.1441
G1 X108.305 Y128.142 E10.17725
G1 X108.623 Y128.118 E10.18672
G1 X109.738 Y128.179 E10.21988
G1 X110.254 Y128.324 E10.23579
G1 X111.098 Y128.63 E10.26245
G1 X111.375 Y128.787 E10.2719
G1 X112.187 Y129.394 E10.302
G1 X112.81 Y128.594 E10.33211
G1 X113.036 Y128.369 E10.34158
G1 X113.947 Y127.724 E10.37472
G1 X114.228 Y127.574 E10.38418
G1 X115.287 Y127.22 E10.41733
G1 X115.6 Y127.159 E10.4268
G1 X116.716 Y127.127 E10.45995
G1 X117.033 Y127.16 E10.46941
G1 X118.111 Y127.451 E10.50256
G1 X118.404 Y127.575 E10.51201
G1 X119.352 Y128.165 E10.54516
G1 X119.596 Y128.37 E10.55462
G1 X120.333 Y129.209 E10.58778
G1 X120.507 Y129.475 E10.59722
G1 X120.97 Y130.492 E10.6304
G1 X121.058 Y130.798 E10.63985
G1 X121.208 Y131.904 E10.67299
G1 X121.203 Y132.223 E10.68246
G1 X121.026 Y133.325 E10.7156
G1 X120.929 Y133.629 E10.72507
G1 X120.44 Y134.633 E10.75823
G1 X120.274 Y134.875 E10.76694
G1 X119.499 Y135.717 E10.80092
G1 X119.251 Y135.912 E10.81029
G1 X118.288 Y136.478 E10.84346
G1 X117.992 Y136.594 E10.8529
G1 X116.907 Y136.858 E10.88605
G1 X116.589 Y136.882 E10.89552
G1 X115.474 Y136.821 E10.92868
G1 X115.026 Y136.701 E10.94245
G1 X114.114 Y136.37 E10.97126
G1 X113.837 Y136.213 E10.98071
